(This GCode generated with outlines_gcode_excel_mirrored.ulp program)
(running under Eagle CAD.)
(Use with mechanical etching/engraving bits, such as the)
(Think&Tinker Mechanical Etching Bit with 60-degree tip angle)
(X/Y/Z home should be at lower left corner of the board, with the tip just touching)
(C:/Users/Owner/Documents/eagle/nixieclock_power/untitledpattern_bot_0p3mm.nc layer 16)

(mm, Absolute mode, lift cutter above work, rapid to X/Y home, turn spindle on.)
G90
G0Z0.500
G0X0Y0
M03

(Begin)
G0Z0.500
G0X5.702300Y24.992200
G1Z-0.100 f25
G1X6.664300Y24.026800 f200
G1X8.026900Y24.024400
G1X8.992300Y24.986400
G1X8.994700Y26.349000
G1X8.032700Y27.314400
G1X6.670100Y27.316800
G1X5.704700Y26.354800
G1X5.702300Y24.992200

G0Z0.500
G0X6.986100Y26.550200
G1Z-0.100 f25
G1X7.714100Y26.548900 f200
G1X8.228100Y26.033100
G1X8.226800Y25.305100
G1X7.711000Y24.791100
G1X6.983000Y24.792400
G1X6.469000Y25.308200
G1X6.470300Y26.036200
G1X6.986100Y26.550200

G0Z0.500
G0X21.924000Y69.493600
G1Z-0.100 f25
G1X21.409100Y68.978700 f200
G1X20.681000Y68.978700
G1X20.574000Y69.085800
G1X20.574000Y68.797500
G1X21.195300Y68.187600
G1X21.399800Y68.187600
G1X21.914700Y67.672700
G1X21.914700Y67.646800
G1X22.696800Y67.618200
G1X22.696800Y67.672700
G1X23.211700Y68.187600
G1X23.331400Y68.187600
G1X23.617400Y68.978700
G1X23.221000Y68.978700
G1X22.706100Y69.493600
G1X22.706100Y69.658100
G1X22.052600Y69.716800
G1X21.924000Y69.653600
G1X21.924000Y69.493600

G0Z0.500
G0X1.896900Y66.585300
G1Z-0.100 f25
G1X2.860600Y65.621600 f200
G1X4.223200Y65.621600
G1X5.186900Y66.585300
G1X5.186900Y67.947900
G1X4.223200Y68.911600
G1X2.860600Y68.911600
G1X1.896900Y67.947900
G1X1.896900Y66.585300

G0Z0.500
G0X3.177900Y68.145600
G1Z-0.100 f25
G1X3.906000Y68.145600 f200
G1X4.420900Y67.630700
G1X4.420900Y66.902600
G1X3.906000Y66.387700
G1X3.177900Y66.387700
G1X2.663000Y66.902600
G1X2.663000Y67.630700
G1X3.177900Y68.145600

G0Z0.500
G0X11.676200Y68.799200
G1Z-0.100 f25
G1X11.668800Y68.806600 f200
G1X11.660300Y68.812400
G1X11.643500Y68.831900
G1X11.098200Y69.377200
G1X11.062000Y69.439900
G1X11.043300Y69.509800
G1X11.043300Y69.582300
G1X11.043300Y78.769600
G1X11.040900Y78.787900
G1X11.043300Y78.805800
G1X11.043300Y78.823700
G1X11.048100Y78.841500
G1X11.050500Y78.859700
G1X11.057300Y78.876000
G1X11.062000Y78.893600
G1X11.071400Y78.909800
G1X11.078300Y78.926500
G1X11.089200Y78.940600
G1X11.098200Y78.956300
G1X11.111200Y78.969200
G1X11.122400Y78.983900
G1X11.136800Y78.994800
G1X11.149400Y79.007500
G1X11.165500Y79.016700
G1X11.179900Y79.027800
G1X11.196200Y79.034500
G1X11.212100Y79.043700
G1X11.230400Y79.048600
G1X11.246900Y79.055400
G1X11.264500Y79.057700
G1X11.282000Y79.062400
G1X11.300400Y79.062400
G1X11.318700Y79.064800
G1X11.336600Y79.062400
G1X11.354500Y79.062400
G1X11.372300Y79.057600
G1X11.390500Y79.055200
G1X11.406800Y79.048400
G1X11.424400Y79.043700
G1X11.440600Y79.034300
G1X11.457300Y79.027400
G1X11.471400Y79.016500
G1X11.487100Y79.007500
G1X11.500000Y78.994500
G1X11.514700Y78.983300
G1X11.525600Y78.968900
G1X11.538300Y78.956300
G1X11.547500Y78.940200
G1X11.558600Y78.925800
G1X11.565300Y78.909500
G1X11.574500Y78.893600
G1X11.577400Y78.882700
G1X11.704700Y78.755900
G1X11.705000Y78.755300
G1X11.881100Y78.579200
G1X11.882700Y78.578300
G1X11.891200Y78.569700
G1X11.901500Y78.562600
G1X11.917000Y78.544000
G1X19.146700Y71.334700
G1X19.147100Y71.334500
G1X19.197400Y71.284100
G1X19.198000Y71.283600
G1X19.198300Y71.283300
G1X19.226900Y71.233700
G1X19.234300Y71.221000
G1X19.234300Y71.220900
G1X19.234500Y71.220600
G1X19.251500Y71.156800
G1X19.253100Y71.151100
G1X19.253100Y71.151000
G1X19.253200Y71.150700
G1X19.253200Y71.115200
G1X19.253300Y71.078600
G1X19.253200Y71.078300
G1X19.253200Y69.118000
G1X19.234500Y69.048100
G1X19.198300Y68.985400
G1X19.147100Y68.934200
G1X19.084400Y68.898000
G1X19.014500Y68.879300
G1X18.942000Y68.879300
G1X17.923200Y68.879300
G1X16.959500Y67.915600
G1X16.959500Y67.256600
G1X16.940800Y67.186700
G1X16.904600Y67.124000
G1X16.853400Y67.072800
G1X16.790700Y67.036600
G1X16.720800Y67.017900
G1X16.648300Y67.017900
G1X13.535200Y67.017900
G1X13.465300Y67.036600
G1X13.402600Y67.072800
G1X13.391800Y67.083600
G1X12.738200Y67.737200
G1X12.716300Y67.757400
G1X12.713600Y67.761700
G1X12.709800Y67.765500
G1X12.693700Y67.793400
G1X12.677800Y67.818700
G1X12.676400Y67.823500
G1X12.673600Y67.828200
G1X12.665700Y67.858100
G1X12.656400Y67.887800
G1X12.656200Y67.893300
G1X12.654900Y67.898100
G1X12.654900Y67.928100
G1X12.653700Y67.960300
G1X12.654900Y67.965500
G1X12.654900Y67.970600
G1X12.662800Y68.000000
G1X12.669800Y68.030800
G1X12.672300Y68.035300
G1X12.673600Y68.040500
G1X12.689900Y68.068600
G1X12.703700Y68.094800
G1X12.707100Y68.098300
G1X12.709800Y68.103200
G1X12.732800Y68.126100
G1X12.752900Y68.147900
G1X12.757200Y68.150600
G1X12.761000Y68.154400
G1X12.788900Y68.170500
G1X12.814200Y68.186400
G1X12.819000Y68.187800
G1X12.823700Y68.190600
G1X12.853600Y68.198500
G1X12.883300Y68.207800
G1X12.888800Y68.208000
G1X12.893600Y68.209300
G1X12.923600Y68.209300
G1X12.955800Y68.210500
G1X12.961000Y68.209300
G1X12.966100Y68.209300
G1X12.995400Y68.201400
G1X13.590700Y68.065600
G1X14.299700Y68.227400
G1X14.868000Y68.680700
G1X15.183600Y69.336000
G1X15.183600Y70.063000
G1X14.868000Y70.718300
G1X14.299700Y71.171600
G1X13.590600Y71.333400
G1X12.881400Y71.171600
G1X12.313200Y70.718300
G1X11.997600Y70.063100
G1X11.997600Y69.335900
G1X12.088000Y69.148400
G1X12.101300Y69.125400
G1X12.104000Y69.115100
G1X12.108400Y69.106100
G1X12.113100Y69.081100
G1X12.120000Y69.055500
G1X12.120000Y69.045000
G1X12.121900Y69.035000
G1X12.120000Y69.009500
G1X12.120000Y68.983000
G1X12.117200Y68.972800
G1X12.116500Y68.962700
G1X12.108100Y68.938700
G1X12.101300Y68.913100
G1X12.096100Y68.904200
G1X12.092700Y68.894300
G1X12.078000Y68.872800
G1X12.065100Y68.850400
G1X12.057700Y68.843000
G1X12.051900Y68.834500
G1X12.032400Y68.817700
G1X12.013900Y68.799200
G1X12.004800Y68.794000
G1X11.997100Y68.787300
G1X11.974100Y68.776200
G1X11.951200Y68.763000
G1X11.940900Y68.760300
G1X11.931900Y68.755900
G1X11.906900Y68.751200
G1X11.881300Y68.744300
G1X11.870800Y68.744300
G1X11.860800Y68.742400
G1X11.835300Y68.744300
G1X11.808800Y68.744300
G1X11.798600Y68.747100
G1X11.788500Y68.747800
G1X11.764500Y68.756200
G1X11.738900Y68.763000
G1X11.730000Y68.768200
G1X11.720100Y68.771600
G1X11.698600Y68.786300
G1X11.676200Y68.799200

G0Z0.500
G0X21.698000Y98.289600
G1Z-0.100 f25
G1X21.695700Y98.268300 f200
G1X21.695700Y98.247000
G1X21.691800Y98.232600
G1X21.690200Y98.217500
G1X21.682500Y98.197800
G1X21.677000Y98.177100
G1X21.669300Y98.163900
G1X21.664000Y98.150100
G1X21.651600Y98.133200
G1X21.640800Y98.114400
G1X21.630200Y98.103900
G1X21.621300Y98.091600
G1X21.604500Y98.078200
G1X21.589600Y98.063200
G1X21.576500Y98.055700
G1X21.564900Y98.046300
G1X21.545600Y98.037900
G1X21.526900Y98.027000
G1X21.512000Y98.023100
G1X21.498600Y98.017100
G1X21.477800Y98.013900
G1X21.457000Y98.008300
G1X21.441900Y98.008300
G1X21.427100Y98.006000
G1X21.405900Y98.008300
G1X21.384500Y98.008300
G1X21.370000Y98.012200
G1X19.566900Y98.208000
G1X19.545700Y98.208000
G1X19.531300Y98.211900
G1X19.516200Y98.213500
G1X19.496500Y98.221200
G1X19.475800Y98.226700
G1X19.462600Y98.234400
G1X19.448800Y98.239700
G1X19.431900Y98.252100
G1X19.413100Y98.262900
G1X19.402600Y98.273500
G1X19.390300Y98.282400
G1X19.376900Y98.299200
G1X19.010200Y98.665800
G1X18.974000Y98.728500
G1X18.955300Y98.798400
G1X18.955300Y98.870900
G1X18.974000Y98.940800
G1X19.010200Y99.003500
G1X19.061400Y99.054700
G1X19.124100Y99.090900
G1X19.194000Y99.109600
G1X19.219000Y99.109600
G1X21.384500Y99.109700
G1X21.457000Y99.109700
G1X21.526900Y99.091000
G1X21.589600Y99.054800
G1X21.640800Y99.003600
G1X21.677000Y98.940900
G1X21.695700Y98.871000
G1X21.695700Y98.304400
G1X21.698000Y98.289600

G0Z0.500
G0X20.214500Y73.216800
G1Z-0.100 f25
G1X20.212000Y73.219400 f200
G1X20.209100Y73.221100
G1X20.186900Y73.244400
G1X16.961000Y76.461200
G1X16.959900Y76.461800
G1X16.936200Y76.486000
G1X16.910700Y76.511300
G1X16.910100Y76.512500
G1X16.909100Y76.513400
G1X16.891400Y76.544700
G1X16.874400Y76.573900
G1X16.874100Y76.575200
G1X16.873400Y76.576300
G1X16.863500Y76.614600
G1X16.855600Y76.643800
G1X16.855600Y76.644900
G1X16.855200Y76.646400
G1X16.855500Y76.682200
G1X16.855400Y76.716300
G1X16.855800Y76.717700
G1X16.855800Y76.718900
G1X16.864600Y76.750600
G1X16.874100Y76.786200
G1X16.874800Y76.787300
G1X16.875100Y76.788600
G1X16.892000Y76.817300
G1X16.910200Y76.849000
G1X16.911300Y76.850000
G1X16.911800Y76.851000
G1X16.934800Y76.873500
G1X16.961300Y76.900200
G1X16.962500Y76.900800
G1X16.963400Y76.901800
G1X16.994700Y76.919500
G1X17.023900Y76.936500
G1X17.025200Y76.936800
G1X17.026300Y76.937500
G1X17.064600Y76.947400
G1X17.093800Y76.955300
G1X17.094900Y76.955300
G1X17.096400Y76.955700
G1X17.133400Y76.955400
G1X17.166300Y76.955500
G1X17.167600Y76.955100
G1X20.426900Y76.929200
G1X20.429100Y76.929800
G1X20.465100Y76.928900
G1X20.497300Y76.928700
G1X20.499200Y76.928100
G1X20.501600Y76.928100
G1X20.536100Y76.917900
G1X20.567000Y76.909400
G1X20.568700Y76.908300
G1X20.571000Y76.907700
G1X20.600700Y76.889500
G1X20.629400Y76.872700
G1X20.630900Y76.871100
G1X20.632800Y76.870000
G1X20.657600Y76.844000
G1X20.680200Y76.821100
G1X20.681100Y76.819400
G1X20.682800Y76.817700
G1X20.699400Y76.787200
G1X20.715900Y76.758200
G1X20.716400Y76.755900
G1X20.717500Y76.754100
G1X20.725400Y76.721400
G1X20.734100Y76.688100
G1X20.734000Y76.685900
G1X20.734600Y76.683800
G1X20.733700Y76.648800
G1X20.733500Y76.615600
G1X20.732900Y76.613700
G1X20.658000Y73.433000
G1X20.658100Y73.401200
G1X20.657100Y73.397800
G1X20.657100Y73.394300
G1X20.647600Y73.362300
G1X20.639400Y73.331300
G1X20.637700Y73.328400
G1X20.636700Y73.324900
G1X20.619700Y73.297100
G1X20.603300Y73.268500
G1X20.600700Y73.266000
G1X20.599000Y73.263100
G1X20.575200Y73.240400
G1X20.552200Y73.217300
G1X20.549300Y73.215700
G1X20.546700Y73.213100
G1X20.517100Y73.197000
G1X20.489600Y73.181000
G1X20.486100Y73.180100
G1X20.483100Y73.178400
G1X20.449900Y73.170400
G1X20.419700Y73.162200
G1X20.416400Y73.162200
G1X20.412800Y73.161300
G1X20.379100Y73.162100
G1X20.347200Y73.162000
G1X20.343800Y73.163000
G1X20.340300Y73.163000
G1X20.308300Y73.172500
G1X20.277300Y73.180700
G1X20.274400Y73.182400
G1X20.270900Y73.183400
G1X20.243100Y73.200400
G1X20.214500Y73.216800

G0Z0.500
G0X23.733000Y14.404400
G1Z-0.100 f25
G1X23.725700Y14.399600 f200
G1X23.719700Y14.393600
G1X23.695600Y14.379800
G1X23.672600Y14.364600
G1X23.664400Y14.361900
G1X23.657000Y14.357600
G1X23.629700Y14.350300
G1X23.603900Y14.341700
G1X23.595500Y14.341200
G1X23.587000Y14.338900
G1X23.559100Y14.339000
G1X23.531500Y14.337300
G1X23.522900Y14.339100
G1X23.514500Y14.339100
G1X23.488500Y14.346100
G1X23.460600Y14.351800
G1X23.452900Y14.355700
G1X23.444600Y14.357900
G1X23.420400Y14.371900
G1X23.395900Y14.384200
G1X23.389600Y14.389800
G1X23.382000Y14.394200
G1X23.362500Y14.413800
G1X23.341700Y14.432200
G1X23.336900Y14.439500
G1X23.330900Y14.445500
G1X23.317100Y14.469600
G1X23.301900Y14.492600
G1X23.299200Y14.500800
G1X23.294900Y14.508200
G1X23.287600Y14.535500
G1X22.351400Y17.344400
G1X22.345100Y17.356000
G1X22.339600Y17.379700
G1X22.332400Y17.401200
G1X22.331700Y17.413700
G1X22.292000Y17.583400
G1X22.290900Y17.584400
G1X22.274400Y17.609500
G1X22.256100Y17.634900
G1X22.254100Y17.640300
G1X22.251100Y17.644800
G1X22.241500Y17.673800
G1X22.230600Y17.702600
G1X22.230500Y17.704000
G1X22.116300Y17.835700
G1X22.106600Y17.843600
G1X22.093200Y17.862400
G1X22.077500Y17.880400
G1X22.071900Y17.892100
G1X21.970400Y18.033500
G1X21.968900Y18.034000
G1X21.942700Y18.051800
G1X21.917500Y18.067400
G1X21.913800Y18.071400
G1X21.909000Y18.074600
G1X21.889100Y18.097700
G1X21.867900Y18.120100
G1X21.867200Y18.121400
G1X21.712000Y18.199000
G1X21.699700Y18.202700
G1X21.679900Y18.215000
G1X21.658700Y18.225600
G1X21.649100Y18.234200
G1X14.603700Y22.610900
G1X14.574100Y22.628200
G1X14.571600Y22.630800
G1X14.568800Y22.632500
G1X14.547500Y22.655300
G1X14.523300Y22.679800
G1X14.521600Y22.683000
G1X14.519300Y22.685300
G1X14.504400Y22.713200
G1X14.487600Y22.742700
G1X14.486800Y22.746100
G1X14.485100Y22.749100
G1X14.477900Y22.780200
G1X14.469400Y22.812800
G1X14.469500Y22.816500
G1X14.468700Y22.819600
G1X14.469700Y22.850800
G1X14.502800Y27.201500
G1X14.501800Y27.205700
G1X14.503100Y27.238300
G1X14.503300Y27.270000
G1X14.504500Y27.274100
G1X14.504600Y27.278200
G1X14.513600Y27.307400
G1X14.522500Y27.339700
G1X14.524800Y27.343500
G1X14.525900Y27.347300
G1X14.542200Y27.373200
G1X14.559200Y27.402200
G1X14.562300Y27.405200
G1X14.564400Y27.408600
G1X14.587200Y27.429800
G1X14.610800Y27.453000
G1X14.614500Y27.455100
G1X14.617500Y27.457900
G1X14.645300Y27.472500
G1X14.673700Y27.488700
G1X14.677900Y27.489800
G1X14.681500Y27.491700
G1X14.712700Y27.498800
G1X14.743800Y27.506900
G1X14.748000Y27.506800
G1X14.752000Y27.507800
G1X14.784900Y27.506500
G1X14.816300Y27.506300
G1X14.820100Y27.505200
G1X15.166000Y27.492200
G1X15.198500Y27.492100
G1X15.203300Y27.490800
G1X15.208200Y27.490600
G1X15.237800Y27.481400
G1X15.268400Y27.473200
G1X15.272600Y27.470700
G1X15.277300Y27.469300
G1X15.303500Y27.452800
G1X15.331000Y27.436900
G1X15.334500Y27.433300
G1X15.338600Y27.430800
G1X15.360300Y27.407400
G1X15.382000Y27.385600
G1X15.384300Y27.381500
G1X15.387900Y27.377700
G1X15.403200Y27.348500
G1X15.418100Y27.322800
G1X15.419300Y27.318200
G1X15.421700Y27.313700
G1X15.428800Y27.282400
G1X15.436700Y27.252900
G1X15.436700Y27.248000
G1X15.437800Y27.243200
G1X15.436600Y27.211700
G1X15.436500Y27.180400
G1X15.435200Y27.175600
G1X15.435000Y27.170700
G1X15.425800Y27.141100
G1X15.417600Y27.110500
G1X15.415100Y27.106300
G1X15.413700Y27.101600
G1X15.397200Y27.075400
G1X15.381300Y27.047900
G1X15.377700Y27.044400
G1X15.375200Y27.040300
G1X15.352200Y27.019000
G1X15.323400Y26.990400
G1X15.321000Y25.627800
G1X16.283000Y24.662400
G1X17.645600Y24.660000
G1X18.136200Y25.149000
G1X18.165100Y25.178000
G1X18.165400Y25.178100
G1X18.165500Y25.178300
G1X18.187600Y25.190900
G1X18.227800Y25.214200
G1X18.297700Y25.232900
G1X18.297900Y25.232900
G1X18.298200Y25.233000
G1X18.334800Y25.232900
G1X18.370200Y25.232900
G1X18.370500Y25.232800
G1X18.370600Y25.232800
G1X18.376300Y25.231200
G1X18.440100Y25.214200
G1X18.440400Y25.214000
G1X18.440500Y25.214000
G1X18.460700Y25.202300
G1X18.502800Y25.178000
G1X18.502900Y25.177800
G1X18.503200Y25.177700
G1X18.529100Y25.151600
G1X18.554000Y25.126800
G1X18.554100Y25.126500
G1X18.554300Y25.126400
G1X18.566900Y25.104300
G1X18.590200Y25.064100
G1X18.608900Y24.994200
G1X18.608900Y24.994000
G1X18.609000Y24.993700
G1X18.608900Y24.957100
G1X18.608900Y24.060000
G1X18.610000Y24.055300
G1X18.608900Y24.023900
G1X18.608900Y23.992500
G1X18.607600Y23.987800
G1X18.600000Y23.772300
G1X18.604100Y23.761600
G1X18.605300Y23.748400
G1X18.608900Y23.735300
G1X18.608900Y23.723200
G1X18.692300Y23.521900
G1X18.695200Y23.517900
G1X18.706200Y23.488300
G1X18.718100Y23.459700
G1X18.718700Y23.454800
G1X18.793500Y23.254300
G1X18.801300Y23.246100
G1X18.807800Y23.233800
G1X18.816300Y23.222800
G1X18.820900Y23.211600
G1X18.975100Y23.057400
G1X18.979500Y23.054700
G1X19.001400Y23.031100
G1X19.023000Y23.009600
G1X19.025400Y23.005400
G1X23.381200Y18.331300
G1X23.404300Y18.308200
G1X23.406600Y18.304000
G1X23.409800Y18.300700
G1X23.424300Y18.273300
G1X23.440300Y18.245500
G1X23.441500Y18.240800
G1X23.443700Y18.236800
G1X23.450600Y18.206800
G1X23.459000Y18.175500
G1X23.458900Y18.170600
G1X23.460000Y18.166300
G1X23.458900Y18.135100
G1X23.458300Y17.844100
G1X24.420300Y16.878700
G1X25.685200Y16.876500
G1X25.685400Y16.876600
G1X25.756800Y16.876400
G1X25.757900Y16.876400
G1X25.827700Y16.857600
G1X25.890400Y16.821300
G1X25.941500Y16.770000
G1X25.977500Y16.707300
G1X25.996200Y16.637300
G1X25.996200Y16.636200
G1X25.994000Y15.397400
G1X25.994100Y15.397200
G1X25.993900Y15.325800
G1X25.993900Y15.324700
G1X25.975100Y15.254900
G1X25.938800Y15.192200
G1X25.887500Y15.141100
G1X25.824800Y15.105100
G1X25.754800Y15.086400
G1X25.753700Y15.086400
G1X24.417300Y15.088800
G1X23.751500Y14.425300
G1X23.733000Y14.404400

G0Z0.500
G0X20.623300Y11.186300
G1Z-0.100 f25
G1X20.623300Y11.190200 f200
G1X20.622500Y11.193500
G1X20.623400Y11.225300
G1X20.623900Y11.495000
G1X20.256000Y11.864200
G1X20.255900Y11.864200
G1X20.208100Y11.912300
G1X20.204800Y11.915500
G1X20.204400Y11.916300
G1X20.168700Y11.978200
G1X20.150400Y12.047500
G1X20.150100Y12.048200
G1X20.150300Y12.120700
G1X20.151100Y12.123600
G1X20.169100Y12.190600
G1X20.204700Y12.251800
G1X20.205400Y12.253200
G1X20.209900Y12.257600
G1X20.567800Y12.614200
G1X20.586700Y12.635600
G1X20.594200Y12.640500
G1X20.600000Y12.646400
G1X20.624000Y12.660100
G1X20.647100Y12.675400
G1X20.655100Y12.678000
G1X20.662700Y12.682500
G1X20.690200Y12.689800
G1X20.715800Y12.698300
G1X20.724300Y12.698800
G1X20.732700Y12.701100
G1X20.760000Y12.701000
G1X20.788200Y12.702700
G1X20.797000Y12.700900
G1X20.805200Y12.700900
G1X20.830600Y12.694000
G1X20.859100Y12.688200
G1X20.867000Y12.684200
G1X20.875100Y12.682100
G1X20.898700Y12.668300
G1X20.923800Y12.655800
G1X20.930300Y12.650000
G1X20.937700Y12.645800
G1X20.956700Y12.626600
G1X20.978000Y12.607800
G1X20.982900Y12.600400
G1X20.988800Y12.594500
G1X21.002500Y12.570500
G1X21.017800Y12.547400
G1X21.020400Y12.539400
G1X21.024900Y12.531800
G1X21.032200Y12.504300
G1X21.570800Y10.888600
G1X21.576600Y10.877800
G1X21.582200Y10.854200
G1X21.589800Y10.831500
G1X21.590500Y10.819300
G1X21.593400Y10.807400
G1X21.592700Y10.783300
G1X21.594200Y10.759100
G1X21.591700Y10.747100
G1X21.591400Y10.735000
G1X21.584600Y10.712300
G1X21.579700Y10.688200
G1X21.574100Y10.677100
G1X21.570700Y10.665600
G1X21.558200Y10.645400
G1X21.547300Y10.623500
G1X21.539100Y10.614300
G1X21.532800Y10.604000
G1X21.515600Y10.587800
G1X21.499300Y10.569300
G1X21.488900Y10.562500
G1X21.480200Y10.554200
G1X21.459000Y10.542800
G1X21.438900Y10.529500
G1X21.427300Y10.525600
G1X21.416500Y10.519800
G1X21.392900Y10.514200
G1X21.370200Y10.506600
G1X21.358000Y10.505900
G1X21.346100Y10.503000
G1X21.322000Y10.503700
G1X21.297800Y10.502200
G1X21.285800Y10.504700
G1X21.273700Y10.505000
G1X21.251000Y10.511800
G1X21.226900Y10.516700
G1X21.215800Y10.522300
G1X21.204300Y10.525700
G1X21.184100Y10.538200
G1X21.162200Y10.549100
G1X21.153000Y10.557300
G1X21.142700Y10.563600
G1X21.126600Y10.580700
G1X21.108000Y10.597100
G1X21.101100Y10.607600
G1X20.701600Y11.030000
G1X20.678000Y11.053600
G1X20.676200Y11.056800
G1X20.673700Y11.059400
G1X20.658700Y11.087200
G1X20.641900Y11.116400
G1X20.640900Y11.120100
G1X20.639300Y11.123100
G1X20.632200Y11.152900
G1X20.623300Y11.186300

G0Z0.500
G0X28.663500Y2.994000
G1Z-0.100 f25
G1X28.637000Y3.020700 f200
G1X28.612700Y3.044900
G1X28.612600Y3.045100
G1X27.717000Y3.944100
G1X27.553900Y3.944400
G1X27.550300Y3.943500
G1X27.516200Y3.944500
G1X27.485100Y3.944500
G1X27.481800Y3.945400
G1X27.477900Y3.945500
G1X27.446000Y3.955000
G1X27.415200Y3.963300
G1X27.412000Y3.965200
G1X27.408500Y3.966200
G1X27.380700Y3.983300
G1X27.352600Y3.999600
G1X27.350100Y4.002200
G1X27.346900Y4.004100
G1X27.324000Y4.028300
G1X27.301500Y4.050900
G1X27.299800Y4.054000
G1X23.430500Y8.144700
G1X23.415800Y8.156800
G1X23.405800Y8.170900
G1X23.393800Y8.183500
G1X23.384800Y8.200200
G1X23.373700Y8.215700
G1X23.367600Y8.232100
G1X23.359400Y8.247200
G1X23.355000Y8.265600
G1X23.348300Y8.283500
G1X23.346600Y8.300800
G1X23.342600Y8.317600
G1X23.343100Y8.336800
G1X23.341300Y8.355600
G1X23.344100Y8.372400
G1X23.344600Y8.390000
G1X23.350100Y8.408500
G1X23.353200Y8.427000
G1X23.360300Y8.442600
G1X23.365300Y8.459400
G1X23.375200Y8.475500
G1X23.383100Y8.492900
G1X23.394300Y8.506400
G1X23.403200Y8.521000
G1X23.416900Y8.533900
G1X23.429100Y8.548800
G1X23.443300Y8.558900
G1X23.455800Y8.570800
G1X23.472500Y8.579800
G1X23.488000Y8.590900
G1X23.504400Y8.597000
G1X23.519500Y8.605200
G1X23.537900Y8.609600
G1X23.555800Y8.616300
G1X23.573100Y8.618000
G1X23.589900Y8.622000
G1X23.609100Y8.621500
G1X23.627900Y8.623300
G1X23.644700Y8.620500
G1X23.662300Y8.620000
G1X23.672600Y8.616900
G1X23.691200Y8.616400
G1X23.705200Y8.612200
G1X23.719800Y8.610300
G1X23.723100Y8.608900
G1X23.944100Y8.608900
G1X23.947800Y8.609800
G1X23.982200Y8.608900
G1X24.013100Y8.608900
G1X24.016400Y8.608000
G1X25.974100Y8.556800
G1X26.005100Y8.556700
G1X26.008000Y8.555900
G1X26.011800Y8.555800
G1X26.044200Y8.546200
G1X26.075000Y8.537900
G1X26.078000Y8.536100
G1X26.081200Y8.535200
G1X26.108500Y8.518400
G1X26.137600Y8.501600
G1X26.140000Y8.499100
G1X26.142900Y8.497400
G1X26.165000Y8.474000
G1X26.361900Y8.276400
G1X27.724500Y8.274000
G1X28.635800Y9.182300
G1X28.664000Y9.210500
G1X28.664300Y9.210600
G1X28.664400Y9.210800
G1X28.686500Y9.223400
G1X28.726700Y9.246700
G1X28.796600Y9.265400
G1X28.796800Y9.265400
G1X28.797100Y9.265500
G1X28.833700Y9.265400
G1X28.869100Y9.265400
G1X28.869400Y9.265300
G1X28.869600Y9.265300
G1X28.888800Y9.260100
G1X28.939000Y9.246700
G1X28.939300Y9.246500
G1X28.939400Y9.246500
G1X28.959600Y9.234800
G1X29.001700Y9.210500
G1X29.001800Y9.210300
G1X29.002100Y9.210200
G1X29.028000Y9.184100
G1X29.052900Y9.159300
G1X29.053000Y9.159000
G1X29.053200Y9.158900
G1X29.065800Y9.136800
G1X29.089100Y9.096600
G1X29.107800Y9.026700
G1X29.107800Y9.026500
G1X29.107900Y9.026200
G1X29.107800Y8.989300
G1X29.107700Y3.249800
G1X29.107800Y3.249500
G1X29.107700Y3.213900
G1X29.107700Y3.177500
G1X29.107600Y3.177200
G1X29.107600Y3.177000
G1X29.101400Y3.154200
G1X29.089000Y3.107600
G1X29.088800Y3.107400
G1X29.088800Y3.107100
G1X29.068700Y3.072500
G1X29.052800Y3.044900
G1X29.052600Y3.044800
G1X29.052500Y3.044500
G1X29.027200Y3.019400
G1X29.001600Y2.993700
G1X29.001300Y2.993600
G1X29.001200Y2.993400
G1X28.974200Y2.977900
G1X28.938900Y2.957500
G1X28.938600Y2.957400
G1X28.938400Y2.957300
G1X28.892900Y2.945200
G1X28.869000Y2.938800
G1X28.868800Y2.938800
G1X28.868500Y2.938700
G1X28.832600Y2.938800
G1X28.796500Y2.938800
G1X28.796200Y2.938900
G1X28.796000Y2.938900
G1X28.773200Y2.945100
G1X28.726600Y2.957500
G1X28.726400Y2.957700
G1X28.726100Y2.957700
G1X28.691500Y2.977800
G1X28.663900Y2.993700
G1X28.663800Y2.993900
G1X28.663500Y2.994000

G0Z0.500
G0X8.079000Y39.972900
G1Z-0.100 f25
G1X8.078700Y39.973000 f200
G1X8.078600Y39.973000
G1X8.072900Y39.974600
G1X8.009100Y39.991600
G1X8.008800Y39.991800
G1X8.008700Y39.991800
G1X7.988500Y40.003500
G1X7.946400Y40.027800
G1X7.946300Y40.028000
G1X7.946000Y40.028100
G1X7.920100Y40.054200
G1X7.895200Y40.079000
G1X7.895100Y40.079300
G1X7.894900Y40.079400
G1X7.882300Y40.101500
G1X7.859000Y40.141700
G1X7.840300Y40.211600
G1X7.840300Y40.211800
G1X7.840200Y40.212100
G1X7.840300Y40.248700
G1X7.840300Y40.284100
G1X7.840400Y40.284400
G1X7.840400Y40.284500
G1X7.842000Y40.290200
G1X7.859000Y40.354000
G1X7.859200Y40.354300
G1X7.859200Y40.354400
G1X7.870900Y40.374600
G1X7.895200Y40.416700
G1X7.895400Y40.416800
G1X7.895500Y40.417100
G1X7.921600Y40.443000
G1X10.186000Y42.707500
G1X10.398900Y43.221400
G1X10.398900Y43.778300
G1X10.398000Y43.780400
G1X10.395700Y43.798400
G1X10.390900Y43.816000
G1X10.390900Y43.834000
G1X10.388500Y43.852100
G1X10.390900Y43.870300
G1X10.390900Y43.987700
G1X10.390800Y43.988000
G1X10.390900Y44.023900
G1X10.390900Y44.060000
G1X10.391000Y44.060300
G1X10.391000Y44.060500
G1X10.395900Y44.078400
G1X10.409600Y44.129900
G1X10.409800Y44.130200
G1X10.409800Y44.130300
G1X10.420600Y44.148900
G1X10.445800Y44.192600
G1X10.446000Y44.192700
G1X10.446100Y44.193000
G1X10.471400Y44.218100
G1X10.497000Y44.243800
G1X10.497300Y44.243900
G1X10.497400Y44.244100
G1X10.518700Y44.256300
G1X10.559700Y44.280000
G1X10.629600Y44.298700
G1X10.629800Y44.298700
G1X10.630100Y44.298800
G1X10.686400Y44.298700
G1X10.702100Y44.298700
G1X10.702200Y44.298600
G1X12.128500Y44.296100
G1X12.286200Y44.453400
G1X12.303800Y44.473600
G1X12.311600Y44.478800
G1X12.318300Y44.485500
G1X12.341800Y44.498900
G1X12.363900Y44.513800
G1X12.372900Y44.516800
G1X12.381100Y44.521600
G1X12.407100Y44.528500
G1X12.432400Y44.537200
G1X12.441800Y44.537800
G1X12.451000Y44.540300
G1X12.478000Y44.540200
G1X12.504700Y44.542000
G1X12.514200Y44.540100
G1X12.523500Y44.540100
G1X12.548600Y44.533300
G1X12.575700Y44.528000
G1X12.584300Y44.523700
G1X12.593400Y44.521300
G1X12.616400Y44.507900
G1X12.640700Y44.496000
G1X12.647900Y44.489700
G1X12.656000Y44.485000
G1X12.674800Y44.466000
G1X12.695200Y44.448300
G1X12.700400Y44.440400
G1X12.707100Y44.433800
G1X12.720500Y44.410500
G1X12.732100Y44.393100
G1X12.748900Y44.371200
G1X12.752300Y44.362900
G1X12.757300Y44.355500
G1X12.766200Y44.329400
G1X12.810800Y44.221700
G1X12.894800Y44.137800
G1X12.915100Y44.120100
G1X12.920100Y44.112500
G1X12.926600Y44.106100
G1X12.940000Y44.082800
G1X12.998100Y43.996000
G1X13.083600Y43.939000
G1X13.107200Y43.925400
G1X13.113500Y43.919100
G1X13.121000Y43.914100
G1X13.139100Y43.893400
G1X13.212000Y43.820500
G1X13.307500Y43.781000
G1X13.334000Y43.772100
G1X13.342100Y43.766600
G1X13.350300Y43.763300
G1X13.370900Y43.747400
G1X13.528200Y43.642600
G1X13.537000Y43.639000
G1X13.558600Y43.622300
G1X13.580800Y43.607600
G1X13.586900Y43.600600
G1X13.594400Y43.594900
G1X13.610700Y43.573600
G1X13.628600Y43.553300
G1X13.632800Y43.544700
G1X13.638400Y43.537500
G1X13.648600Y43.512800
G1X13.660700Y43.488400
G1X13.662500Y43.479100
G1X13.666100Y43.470600
G1X13.669500Y43.444200
G1X13.675000Y43.417400
G1X13.674300Y43.408000
G1X13.675600Y43.398900
G1X13.672000Y43.372000
G1X13.670300Y43.345100
G1X13.667300Y43.336300
G1X13.666100Y43.327000
G1X13.655900Y43.302600
G1X13.647200Y43.276500
G1X13.641900Y43.268600
G1X13.638400Y43.260100
G1X13.621900Y43.238800
G1X13.607000Y43.216300
G1X13.600000Y43.210200
G1X13.594300Y43.202700
G1X13.573000Y43.186400
G1X13.552700Y43.168500
G1X13.544100Y43.164300
G1X13.536900Y43.158700
G1X13.512200Y43.148500
G1X13.487800Y43.136400
G1X13.478500Y43.134600
G1X13.267200Y43.047100
G1X12.873500Y42.653400
G1X12.660600Y42.139400
G1X12.660600Y41.561000
G1X12.661400Y41.557600
G1X12.660800Y41.532700
G1X12.662400Y41.507800
G1X12.660600Y41.499100
G1X12.660600Y41.491600
G1X12.659900Y41.489100
G1X12.629300Y40.119100
G1X12.629200Y40.084500
G1X12.628500Y40.081800
G1X12.628400Y40.079000
G1X12.618900Y40.046600
G1X12.610300Y40.014700
G1X12.608900Y40.012400
G1X12.608100Y40.009500
G1X12.589800Y39.979300
G1X12.574000Y39.952000
G1X12.572100Y39.950200
G1X12.570600Y39.947600
G1X12.545000Y39.923200
G1X12.522700Y39.901000
G1X12.520300Y39.899700
G1X12.518200Y39.897600
G1X12.488000Y39.881100
G1X12.460000Y39.864900
G1X12.457300Y39.864200
G1X12.454800Y39.862800
G1X12.423200Y39.855200
G1X12.390000Y39.846300
G1X12.386900Y39.846300
G1X12.384400Y39.845700
G1X12.352500Y39.846400
G1X12.317500Y39.846500
G1X12.314800Y39.847200
G1X12.312000Y39.847300
G1X12.279600Y39.856800
G1X12.247700Y39.865400
G1X12.245400Y39.866800
G1X12.242500Y39.867600
G1X12.212300Y39.885900
G1X12.185000Y39.901700
G1X12.183200Y39.903600
G1X12.180600Y39.905100
G1X12.157000Y39.929900
G1X12.121000Y39.966100
G1X10.758400Y39.968500
G1X10.389100Y39.600400
G1X10.389100Y39.600300
G1X10.341000Y39.552400
G1X10.337800Y39.549200
G1X10.335900Y39.548100
G1X10.275000Y39.513100
G1X10.206100Y39.494800
G1X10.205100Y39.494500
G1X10.132600Y39.494700
G1X10.129700Y39.495500
G1X10.062700Y39.513500
G1X10.001500Y39.549000
G1X10.000100Y39.549800
G1X9.994900Y39.555100
G1X9.581000Y39.970500
G1X8.137000Y39.972900
G1X8.079000Y39.972900

G0Z0.500
G0X7.658000Y34.934900
G1Z-0.100 f25
G1X7.639800Y34.935000 f200
G1X7.622100Y34.932600
G1X7.604100Y34.935000
G1X6.683400Y34.936700
G1X6.555600Y34.809300
G1X6.554700Y34.807600
G1X6.531000Y34.784700
G1X6.505700Y34.759400
G1X6.503900Y34.758400
G1X6.502700Y34.757200
G1X6.473600Y34.741000
G1X6.442900Y34.723300
G1X6.441100Y34.722900
G1X6.439500Y34.721900
G1X6.407700Y34.713900
G1X6.373000Y34.704600
G1X6.370900Y34.704600
G1X6.369300Y34.704200
G1X6.335200Y34.704700
G1X6.300500Y34.704800
G1X6.298900Y34.705300
G1X4.821000Y34.727100
G1X4.788300Y34.726700
G1X4.784600Y34.727700
G1X4.780800Y34.727700
G1X4.749300Y34.736600
G1X4.718200Y34.744500
G1X4.715000Y34.746300
G1X4.711100Y34.747400
G1X4.682200Y34.764700
G1X4.655000Y34.779900
G1X4.652300Y34.782500
G1X4.649000Y34.784500
G1X4.627000Y34.807200
G1X4.603200Y34.830400
G1X4.601100Y34.833900
G1X4.598600Y34.836500
G1X4.583700Y34.863300
G1X4.566200Y34.892600
G1X4.565100Y34.896500
G1X4.563300Y34.899700
G1X4.555500Y34.930900
G1X4.546600Y34.962300
G1X4.546600Y34.966200
G1X4.545600Y34.969900
G1X4.546100Y35.002300
G1X4.539000Y35.560700
G1X4.538400Y35.562900
G1X4.538500Y35.599600
G1X4.538100Y35.631300
G1X4.538600Y35.633200
G1X4.538600Y35.635400
G1X4.547500Y35.668200
G1X4.555900Y35.701400
G1X4.557000Y35.703200
G1X4.557500Y35.705300
G1X4.574700Y35.734800
G1X4.591300Y35.764600
G1X4.592800Y35.766100
G1X4.593800Y35.767900
G1X4.618600Y35.792500
G1X4.641800Y35.816400
G1X4.643500Y35.817400
G1X4.645100Y35.819000
G1X4.674600Y35.835800
G1X4.704000Y35.853400
G1X4.706200Y35.854000
G1X4.707900Y35.855000
G1X4.741200Y35.863800
G1X4.773700Y35.873000
G1X4.775700Y35.873000
G1X4.777800Y35.873600
G1X4.813900Y35.873500
G1X4.846200Y35.873900
G1X4.848100Y35.873400
G1X4.850300Y35.873400
G1X4.883100Y35.864500
G1X4.916300Y35.856100
G1X4.918100Y35.855000
G1X4.920200Y35.854500
G1X4.949700Y35.837300
G1X4.962900Y35.829900
G1X6.333600Y35.827500
G1X6.771400Y36.263800
G1X6.771500Y36.264100
G1X6.790800Y36.283100
G1X6.822300Y36.314600
G1X6.822800Y36.314800
G1X6.822900Y36.315000
G1X6.835900Y36.322400
G1X6.885000Y36.350700
G1X6.885700Y36.350800
G1X6.885700Y36.350900
G1X6.890800Y36.352200
G1X6.955000Y36.369300
G1X6.955700Y36.369300
G1X8.126600Y36.677500
G1X8.147600Y36.683100
G1X8.148000Y36.683100
G1X8.148300Y36.683200
G1X8.175600Y36.683000
G1X9.575300Y36.680500
G1X9.616400Y36.721500
G1X9.639500Y36.746100
G1X9.643400Y36.748500
G1X9.646200Y36.751300
G1X9.672200Y36.766200
G1X9.701100Y36.784100
G1X9.705400Y36.785400
G1X9.708900Y36.787400
G1X9.740100Y36.795700
G1X9.770400Y36.804800
G1X9.774400Y36.804900
G1X9.778800Y36.806100
G1X9.812100Y36.806000
G1X9.842900Y36.806900
G1X9.847000Y36.805900
G1X9.851300Y36.805900
G1X9.882600Y36.797400
G1X9.913300Y36.790200
G1X9.916900Y36.788200
G1X9.921200Y36.787100
G1X9.949100Y36.770900
G1X9.977000Y36.755900
G1X9.980100Y36.752900
G1X9.983800Y36.750800
G1X10.005400Y36.729100
G1X10.029700Y36.706200
G1X10.032100Y36.702300
G1X10.034900Y36.699500
G1X10.049800Y36.673500
G1X10.067700Y36.644600
G1X10.069000Y36.640300
G1X10.071000Y36.636800
G1X10.079300Y36.605600
G1X10.088400Y36.575300
G1X10.088500Y36.571300
G1X10.089700Y36.566900
G1X10.089600Y36.533700
G1X10.100900Y36.144700
G1X10.103900Y36.122200
G1X10.102000Y36.107900
G1X10.102400Y36.094100
G1X10.097300Y36.072900
G1X10.094400Y36.050500
G1X10.088900Y36.037300
G1X10.085700Y36.023700
G1X10.075300Y36.004500
G1X10.066700Y35.983600
G1X10.058000Y35.972400
G1X10.051400Y35.960000
G1X10.036100Y35.943800
G1X10.022600Y35.926200
G1X10.011400Y35.917700
G1X10.001700Y35.907300
G1X9.982900Y35.895700
G1X9.965200Y35.882100
G1X9.951900Y35.876700
G1X9.940100Y35.869300
G1X9.919100Y35.863100
G1X7.744000Y34.962800
G1X7.728000Y34.953600
G1X7.710400Y34.949000
G1X7.694000Y34.942100
G1X7.676000Y34.939800
G1X7.658000Y34.934900

G0Z0.500
G0X4.560200Y47.142600
G1Z-0.100 f25
G1X4.560800Y47.177900 f200
G1X4.560900Y47.210800
G1X4.561400Y47.212600
G1X4.579500Y48.257900
G1X4.577600Y48.268500
G1X4.580100Y48.295200
G1X4.580500Y48.320200
G1X4.583300Y48.330000
G1X4.584300Y48.340600
G1X4.593400Y48.365000
G1X4.600400Y48.389800
G1X4.605800Y48.398700
G1X5.396700Y50.539300
G1X5.402900Y50.562500
G1X5.409500Y50.573800
G1X5.413800Y50.585600
G1X5.427100Y50.604300
G1X5.439100Y50.625200
G1X5.448400Y50.634400
G1X5.455600Y50.644700
G1X5.473400Y50.659500
G1X5.490300Y50.676400
G1X5.501600Y50.682900
G1X5.511300Y50.691000
G1X5.532400Y50.700700
G1X5.553000Y50.712600
G1X5.565700Y50.716000
G1X5.577000Y50.721200
G1X5.599900Y50.725100
G1X5.622900Y50.731300
G1X5.635700Y50.731300
G1X5.648400Y50.733500
G1X5.672100Y50.731300
G1X5.695400Y50.731300
G1X5.707800Y50.728000
G1X5.720500Y50.726800
G1X5.742200Y50.718800
G1X5.765300Y50.712600
G1X5.776600Y50.706000
G1X5.788400Y50.701700
G1X5.807100Y50.688400
G1X5.828000Y50.676400
G1X5.837200Y50.667100
G1X5.847500Y50.659900
G1X5.862300Y50.642100
G1X5.879200Y50.625200
G1X5.885700Y50.613900
G1X5.893800Y50.604200
G1X5.903500Y50.583100
G1X5.915400Y50.562500
G1X5.918800Y50.549800
G1X5.924000Y50.538500
G1X5.927900Y50.515600
G1X5.934100Y50.492600
G1X5.934100Y50.479800
G1X5.936300Y50.467100
G1X5.934100Y50.443400
G1X5.934100Y47.032900
G1X6.042700Y47.032700
G1X6.556700Y46.516900
G1X6.555400Y45.788900
G1X6.039600Y45.274900
G1X5.934100Y45.275100
G1X5.934100Y44.718700
G1X5.915400Y44.648800
G1X5.879200Y44.586100
G1X5.828000Y44.534900
G1X5.586600Y44.293600
G1X5.586400Y44.293100
G1X5.535500Y44.242400
G1X5.535100Y44.242000
G1X5.486300Y44.214000
G1X5.472900Y44.206200
G1X5.472700Y44.206200
G1X5.472300Y44.205900
G1X5.416700Y44.191100
G1X5.402900Y44.187400
G1X5.402700Y44.187400
G1X5.402400Y44.187300
G1X5.351900Y44.187400
G1X5.330500Y44.187400
G1X5.330400Y44.187500
G1X4.991400Y44.188100
G1X4.622200Y43.820200
G1X4.622200Y43.820100
G1X4.574100Y43.772200
G1X4.570900Y43.769000
G1X4.508200Y43.733000
G1X4.438200Y43.714300
G1X4.365700Y43.714500
G1X4.295900Y43.733300
G1X4.233200Y43.769600
G1X4.230200Y43.772700
G1X3.873200Y44.130900
G1X3.873100Y44.130900
G1X3.825100Y44.179200
G1X3.822000Y44.182200
G1X3.821000Y44.184100
G1X3.785900Y44.245000
G1X3.767600Y44.313900
G1X3.767300Y44.314900
G1X3.767500Y44.387300
G1X3.767500Y44.387400
G1X3.786300Y44.457300
G1X3.821800Y44.518500
G1X3.822600Y44.519900
G1X3.829200Y44.526400
G1X4.781000Y45.474700
G1X4.783400Y46.837400
G1X4.665100Y46.956000
G1X4.663200Y46.957100
G1X4.638900Y46.982300
G1X4.615500Y47.005700
G1X4.614500Y47.007500
G1X4.612900Y47.009100
G1X4.594800Y47.041700
G1X4.579400Y47.068400
G1X4.578900Y47.070300
G1X4.577700Y47.072400
G1X4.569100Y47.106900
G1X4.560700Y47.138300
G1X4.560700Y47.140600
G1X4.560200Y47.142600

G0Z0.500
G0X8.697300Y47.610700
G1Z-0.100 f25
G1X8.692300Y47.613700 f200
G1X8.635000Y47.646700
G1X8.634800Y47.646900
G1X8.634600Y47.647000
G1X8.616300Y47.665500
G1X8.583800Y47.697900
G1X8.583600Y47.698200
G1X8.583500Y47.698300
G1X8.575200Y47.712800
G1X8.547600Y47.760600
G1X8.528900Y47.830500
G1X8.528900Y47.830700
G1X8.528800Y47.831000
G1X8.528900Y47.860000
G1X8.528900Y52.706300
G1X8.547600Y52.776200
G1X8.583800Y52.838900
G1X8.635000Y52.890100
G1X17.012700Y61.267900
G1X17.075400Y61.304100
G1X17.145300Y61.322800
G1X17.217800Y61.322800
G1X17.287700Y61.304100
G1X17.350400Y61.267900
G1X17.401600Y61.216700
G1X17.437800Y61.154000
G1X17.456500Y61.084100
G1X17.456500Y61.011600
G1X17.456500Y55.292200
G1X17.615300Y54.908900
G1X17.659700Y54.864500
G1X17.695900Y54.801800
G1X17.714600Y54.731900
G1X17.714600Y54.659400
G1X17.695900Y54.589500
G1X17.659700Y54.526800
G1X17.608500Y54.475600
G1X17.608400Y54.475600
G1X17.082600Y53.949800
G1X17.082600Y52.587200
G1X17.502500Y52.167300
G1X17.538700Y52.104600
G1X17.557400Y52.034700
G1X17.557400Y51.962200
G1X17.538700Y51.892300
G1X17.502500Y51.829600
G1X17.451300Y51.778400
G1X17.451200Y51.778400
G1X17.082600Y51.409800
G1X17.082600Y50.486700
G1X17.085000Y50.468600
G1X17.082600Y50.450400
G1X17.082600Y50.432300
G1X17.077800Y50.414700
G1X17.075500Y50.396700
G1X17.068600Y50.380300
G1X17.063900Y50.362400
G1X17.054600Y50.346300
G1X17.047800Y50.329900
G1X17.036900Y50.315800
G1X17.027700Y50.299700
G1X17.014800Y50.286900
G1X17.003800Y50.272400
G1X16.989300Y50.261400
G1X16.976500Y50.248500
G1X16.960400Y50.239300
G1X16.946300Y50.228400
G1X16.929900Y50.221600
G1X16.913800Y50.212300
G1X16.895900Y50.207600
G1X16.879500Y50.200700
G1X16.861500Y50.198400
G1X16.843900Y50.193600
G1X16.825800Y50.193600
G1X16.807700Y50.191200
G1X16.789500Y50.193600
G1X16.771400Y50.193600
G1X16.753800Y50.198400
G1X16.735800Y50.200700
G1X16.719300Y50.207600
G1X16.701500Y50.212300
G1X16.685500Y50.221600
G1X16.276700Y50.390900
G1X15.632200Y50.390900
G1X12.723000Y50.390900
G1X12.212000Y50.179200
G1X11.756400Y49.723600
G1X10.270700Y48.238000
G1X10.047300Y47.698500
G1X10.042400Y47.680200
G1X10.033200Y47.664500
G1X10.026600Y47.648400
G1X10.015400Y47.633900
G1X10.006000Y47.617600
G1X9.993300Y47.605100
G1X9.982600Y47.591000
G1X9.967800Y47.579700
G1X9.954700Y47.566600
G1X9.939400Y47.557900
G1X9.925200Y47.546900
G1X9.907900Y47.539800
G1X9.892000Y47.530600
G1X9.874800Y47.526100
G1X9.858300Y47.519200
G1X9.839900Y47.516800
G1X9.822000Y47.512000
G1X9.804200Y47.512100
G1X9.786400Y47.509700
G1X9.768000Y47.512200
G1X9.749500Y47.512200
G1X9.732200Y47.516900
G1X9.714700Y47.519200
G1X9.698000Y47.526200
G1X9.679600Y47.531100
G1X9.663900Y47.540300
G1X9.647800Y47.546900
G1X9.633300Y47.558100
G1X9.617000Y47.567500
G1X9.604400Y47.580200
G1X9.591000Y47.590500
G1X8.836100Y47.591800
G1X8.767600Y47.591800
G1X8.697700Y47.610500
G1X8.697400Y47.610700
G1X8.697300Y47.610700

G0Z0.500
G0X16.978800Y1.504800
G1Z-0.100 f25
G1X16.978900Y1.504700 f200
G1X16.979700Y1.503900
G1X17.097600Y1.386000
G1X17.148800Y1.334800
G1X17.185000Y1.272100
G1X17.203700Y1.202200
G1X17.203700Y1.129700
G1X17.185000Y1.059800
G1X17.148800Y0.997100
G1X17.097600Y0.945900
G1X17.034900Y0.909700
G1X16.965000Y0.891000
G1X16.654800Y0.891000
G1X16.654700Y0.891000
G1X16.636800Y0.895800
G1X16.584900Y0.909700
G1X16.522200Y0.945900
G1X16.471000Y0.997100
G1X16.434800Y1.059800
G1X16.416100Y1.129700
G1X16.416100Y1.202200
G1X16.416100Y1.202300
G1X16.420900Y1.220200
G1X16.434800Y1.272100
G1X16.471000Y1.334800
G1X16.522200Y1.386000
G1X16.522400Y1.386100
G1X16.589900Y1.453500
G1X16.589900Y1.453600
G1X16.641100Y1.504800
G1X16.703800Y1.541000
G1X16.773700Y1.559700
G1X16.773800Y1.559700
G1X16.846300Y1.559700
G1X16.865800Y1.554400
G1X16.916100Y1.541000
G1X16.978800Y1.504800

G0Z0.500
G0X12.123700Y1.129500
G1Z-0.100 f25
G1X12.119100Y1.112400 f200
G1X12.105000Y1.059700
G1X12.068800Y0.997000
G1X12.017600Y0.945800
G1X11.954900Y0.909600
G1X11.885000Y0.890900
G1X11.574800Y0.890900
G1X11.504900Y0.909600
G1X11.442200Y0.945800
G1X11.391000Y0.997000
G1X11.354800Y1.059700
G1X11.336100Y1.129600
G1X11.336100Y1.202100
G1X11.354800Y1.272000
G1X11.391000Y1.334700
G1X11.442200Y1.385900
G1X11.561100Y1.504800
G1X11.623800Y1.541000
G1X11.693700Y1.559700
G1X11.766200Y1.559700
G1X11.766300Y1.559700
G1X11.784200Y1.554900
G1X11.836100Y1.541000
G1X11.898800Y1.504800
G1X11.950000Y1.453600
G1X11.950100Y1.453400
G1X12.017500Y1.385900
G1X12.017600Y1.385900
G1X12.068800Y1.334700
G1X12.105000Y1.272000
G1X12.123700Y1.202100
G1X12.123700Y1.129600
G1X12.123700Y1.129500

G0Z0.500
G0X9.583700Y1.129500
G1Z-0.100 f25
G1X9.579100Y1.112400 f200
G1X9.565000Y1.059700
G1X9.528800Y0.997000
G1X9.477600Y0.945800
G1X9.414900Y0.909600
G1X9.345000Y0.890900
G1X9.034800Y0.890900
G1X8.964900Y0.909600
G1X8.902200Y0.945800
G1X8.851000Y0.997000
G1X8.814800Y1.059700
G1X8.796100Y1.129600
G1X8.796100Y1.202100
G1X8.814800Y1.272000
G1X8.851000Y1.334700
G1X8.902200Y1.385900
G1X9.021100Y1.504800
G1X9.083800Y1.541000
G1X9.153700Y1.559700
G1X9.226200Y1.559700
G1X9.226300Y1.559700
G1X9.244200Y1.554900
G1X9.296100Y1.541000
G1X9.358800Y1.504800
G1X9.410000Y1.453600
G1X9.410100Y1.453400
G1X9.477500Y1.385900
G1X9.477600Y1.385900
G1X9.528800Y1.334700
G1X9.565000Y1.272000
G1X9.583700Y1.202100
G1X9.583700Y1.129600
G1X9.583700Y1.129500

G0Z0.500
G0X14.663700Y1.129500
G1Z-0.100 f25
G1X14.659100Y1.112400 f200
G1X14.645000Y1.059700
G1X14.608800Y0.997000
G1X14.557600Y0.945800
G1X14.494900Y0.909600
G1X14.425000Y0.890900
G1X14.114800Y0.890900
G1X14.044900Y0.909600
G1X13.982200Y0.945800
G1X13.931000Y0.997000
G1X13.894800Y1.059700
G1X13.876100Y1.129600
G1X13.876100Y1.202100
G1X13.894800Y1.272000
G1X13.931000Y1.334700
G1X13.982200Y1.385900
G1X14.101100Y1.504800
G1X14.163800Y1.541000
G1X14.233700Y1.559700
G1X14.306200Y1.559700
G1X14.306300Y1.559700
G1X14.324200Y1.554900
G1X14.376100Y1.541000
G1X14.438800Y1.504800
G1X14.490000Y1.453600
G1X14.490000Y1.453400
G1X14.557500Y1.385900
G1X14.557600Y1.385900
G1X14.608800Y1.334700
G1X14.645000Y1.272000
G1X14.663700Y1.202100
G1X14.663700Y1.129600
G1X14.663700Y1.129500

G0Z0.500
G0X16.641000Y98.495000
G1Z-0.100 f25
G1X16.640900Y98.495100 f200
G1X16.640100Y98.495900
G1X16.521400Y98.614600
G1X16.470200Y98.665800
G1X16.434000Y98.728500
G1X16.415300Y98.798400
G1X16.415300Y98.870900
G1X16.434000Y98.940800
G1X16.470200Y99.003500
G1X16.521400Y99.054700
G1X16.584100Y99.090900
G1X16.654000Y99.109600
G1X16.965800Y99.109600
G1X16.965900Y99.109600
G1X16.983800Y99.104700
G1X17.035700Y99.090900
G1X17.098400Y99.054700
G1X17.149600Y99.003500
G1X17.185800Y98.940800
G1X17.204500Y98.870900
G1X17.204500Y98.798400
G1X17.204500Y98.798300
G1X17.199600Y98.780400
G1X17.185800Y98.728500
G1X17.149600Y98.665800
G1X17.098400Y98.614600
G1X17.098200Y98.614600
G1X17.029900Y98.546300
G1X17.029900Y98.546200
G1X16.978700Y98.495000
G1X16.916000Y98.458800
G1X16.846100Y98.440100
G1X16.846000Y98.440100
G1X16.773500Y98.440100
G1X16.754000Y98.445400
G1X16.703700Y98.458800
G1X16.641000Y98.495000

G0Z0.500
G0X28.225000Y96.831100
G1Z-0.100 f25
G1X28.188800Y96.893800 f200
G1X28.170100Y96.963700
G1X28.170100Y97.036200
G1X28.188800Y97.106100
G1X28.225000Y97.168800
G1X28.276200Y97.220000
G1X28.614700Y97.558500
G1X28.665900Y97.609700
G1X28.728600Y97.645900
G1X28.798500Y97.664600
G1X28.871000Y97.664600
G1X28.940900Y97.645900
G1X29.003600Y97.609700
G1X29.054800Y97.558500
G1X29.091000Y97.495800
G1X29.109700Y97.425900
G1X29.109700Y96.573900
G1X29.091000Y96.504000
G1X29.054800Y96.441300
G1X29.003600Y96.390100
G1X28.940900Y96.353900
G1X28.871000Y96.335200
G1X28.798500Y96.335200
G1X28.728600Y96.353900
G1X28.665900Y96.390100
G1X28.614700Y96.441300
G1X28.614700Y96.441400
G1X28.225000Y96.831100

G0Z0.500
G0X13.110600Y45.575400
G1Z-0.100 f25
G1X13.111900Y46.303400 f200
G1X13.627700Y46.817400
G1X14.355700Y46.816100
G1X14.869700Y46.300300
G1X14.868400Y45.572300
G1X14.627700Y45.332500
G1X17.328100Y43.532200
G1X17.362900Y43.512400
G1X17.379500Y43.497900
G1X17.397800Y43.485800
G1X17.425800Y43.457800
G1X17.455900Y43.431800
G1X17.469200Y43.414600
G1X17.485000Y43.398900
G1X17.507400Y43.365300
G1X17.531400Y43.334500
G1X17.541000Y43.315100
G1X17.553500Y43.296600
G1X17.568900Y43.259500
G1X18.460800Y41.475600
G1X19.607700Y40.947400
G1X19.624500Y40.964200
G1X20.352500Y40.962900
G1X20.866500Y40.447100
G1X20.865200Y39.719100
G1X20.349400Y39.205100
G1X19.621400Y39.206400
G1X19.107400Y39.722200
G1X19.107600Y39.801700
G1X17.769900Y40.417900
G1X17.743900Y40.426500
G1X17.713800Y40.443700
G1X17.682500Y40.458100
G1X17.660400Y40.474200
G1X17.637000Y40.487500
G1X17.611300Y40.509900
G1X17.582900Y40.530400
G1X17.564500Y40.550400
G1X17.544000Y40.568100
G1X17.522600Y40.595700
G1X17.499400Y40.620800
G1X17.485400Y40.643700
G1X17.468500Y40.665400
G1X17.453100Y40.696300
G1X17.435000Y40.725700
G1X17.425600Y40.751300
G1X16.515200Y42.572100
G1X13.704500Y44.445900
G1X13.703900Y44.446100
G1X13.602600Y44.513900
G1X13.602100Y44.514100
G1X13.601500Y44.514500
G1X13.544500Y44.571600
G1X13.514900Y44.601000
G1X13.514700Y44.601300
G1X13.504700Y44.611300
G1X13.436300Y44.713700
G1X13.389200Y44.827400
G1X13.365200Y44.948200
G1X13.365200Y45.071300
G1X13.365200Y45.320000
G1X13.110600Y45.575400

G0Z0.500
G0X16.151300Y37.435200
G1Z-0.100 f25
G1X15.637300Y37.951000 f200
G1X15.638600Y38.679000
G1X16.154400Y39.193000
G1X16.882400Y39.191700
G1X17.396400Y38.675900
G1X17.396000Y38.494100
G1X17.428300Y38.470100
G1X20.188400Y35.409400
G1X20.196600Y35.395500
G1X20.398400Y35.193800
G1X20.485400Y35.106800
G1X20.553800Y35.004400
G1X20.600900Y34.890700
G1X20.624900Y34.769900
G1X20.624900Y24.246000
G1X25.139800Y19.401400
G1X25.470100Y19.400800
G1X25.984100Y18.885000
G1X25.982800Y18.157000
G1X25.467000Y17.643000
G1X24.739000Y17.644300
G1X24.225000Y18.160100
G1X24.225700Y18.548900
G1X19.551500Y23.564600
G1X19.514500Y23.601500
G1X19.508200Y23.611100
G1X19.500800Y23.618900
G1X19.474600Y23.661300
G1X19.446100Y23.703900
G1X19.441900Y23.714200
G1X19.436000Y23.723600
G1X19.418500Y23.770600
G1X19.399000Y23.817600
G1X19.396800Y23.828800
G1X19.393000Y23.838900
G1X19.384900Y23.888500
G1X19.375000Y23.938400
G1X19.375000Y23.949400
G1X19.373200Y23.960400
G1X19.375000Y24.010800
G1X19.375000Y34.449400
G1X19.305700Y34.518700
G1X19.248200Y34.561600
G1X16.657600Y37.434300
G1X16.151300Y37.435200

G0Z0.500
G0X14.339300Y37.438300
G1Z-0.100 f25
G1X13.611300Y37.439600 f200
G1X13.097300Y37.955400
G1X13.098600Y38.683400
G1X13.369600Y38.953400
G1X13.432500Y41.769600
G1X13.426700Y41.798600
G1X13.426700Y41.923300
G1X13.451000Y42.045600
G1X13.498700Y42.160800
G1X13.568000Y42.264500
G1X13.656100Y42.352600
G1X13.759800Y42.421900
G1X13.875000Y42.469600
G1X13.997300Y42.493900
G1X14.122000Y42.493900
G1X14.244300Y42.469600
G1X14.359500Y42.421900
G1X14.463200Y42.352600
G1X14.551300Y42.264500
G1X14.620600Y42.160800
G1X14.668300Y42.045600
G1X14.692600Y41.923300
G1X14.692600Y41.798600
G1X14.682100Y41.746200
G1X14.619000Y38.918500
G1X14.856400Y38.680300
G1X14.855100Y37.952300
G1X14.339300Y37.438300

G0Z0.500
G0X19.789300Y41.727600
G1Z-0.100 f25
G1X19.776100Y41.729900 f200
G1X19.763500Y41.729900
G1X19.741400Y41.735900
G1X19.717900Y41.739900
G1X19.706100Y41.745400
G1X19.703100Y41.746200
G1X19.625900Y41.746300
G1X19.559600Y41.812900
G1X19.126900Y42.012300
G1X19.106900Y42.018900
G1X19.094100Y42.027400
G1X19.080300Y42.033700
G1X19.064300Y42.047000
G1X19.046500Y42.058700
G1X19.036400Y42.070200
G1X19.024600Y42.079900
G1X19.012200Y42.097500
G1X18.998500Y42.112900
G1X18.991900Y42.126300
G1X18.982800Y42.139000
G1X18.975400Y42.159100
G1X18.359700Y43.390500
G1X18.359200Y43.391000
G1X18.345000Y43.419900
G1X18.327600Y43.454600
G1X18.327500Y43.455500
G1X18.327200Y43.455900
G1X18.321800Y43.483400
G1X18.313100Y43.525500
G1X18.313200Y43.526300
G1X18.309600Y43.544100
G1X18.224600Y43.671000
G1X18.212900Y43.684100
G1X18.204600Y43.700800
G1X18.194100Y43.716400
G1X18.188400Y43.733200
G1X18.120300Y43.869500
G1X18.107000Y43.881000
G1X18.106100Y43.881400
G1X18.073300Y43.910200
G1X18.052600Y43.928100
G1X18.052300Y43.928700
G1X18.051700Y43.929100
G1X18.029800Y43.961900
G1X18.012100Y43.988000
G1X18.011900Y43.988600
G1X18.001700Y44.003900
G1X17.874700Y44.088500
G1X17.858900Y44.096100
G1X17.844800Y44.108400
G1X17.829100Y44.118800
G1X17.817500Y44.132100
G1X17.702400Y44.232000
G1X17.685200Y44.237700
G1X17.684600Y44.237700
G1X17.655900Y44.247500
G1X17.617200Y44.260300
G1X17.616600Y44.260700
G1X17.616000Y44.260900
G1X17.584400Y44.282000
G1X17.556800Y44.300200
G1X17.556500Y44.300700
G1X16.425300Y45.054800
G1X16.164600Y45.055200
G1X15.650600Y45.571000
G1X15.650800Y45.632200
G1X15.647100Y45.639500
G1X15.641600Y45.667100
G1X15.634600Y45.693200
G1X15.634700Y45.702000
G1X15.632900Y45.710500
G1X15.634700Y45.737900
G1X15.636300Y46.616200
G1X15.118000Y47.136200
G1X15.089000Y47.165100
G1X15.088900Y47.165400
G1X15.088700Y47.165500
G1X15.076100Y47.187600
G1X15.052800Y47.227800
G1X15.034100Y47.297700
G1X15.034100Y47.297900
G1X15.034000Y47.298200
G1X15.034100Y47.334800
G1X15.034100Y47.370200
G1X15.034200Y47.370500
G1X15.034200Y47.370600
G1X15.035800Y47.376200
G1X15.052800Y47.440100
G1X15.053000Y47.440300
G1X15.053000Y47.440500
G1X15.064700Y47.460600
G1X15.089000Y47.502800
G1X15.089200Y47.502900
G1X15.089300Y47.503200
G1X15.115400Y47.529100
G1X15.140200Y47.554000
G1X15.140500Y47.554100
G1X15.140600Y47.554300
G1X15.162700Y47.566900
G1X15.202900Y47.590200
G1X15.272800Y47.608900
G1X15.273000Y47.608900
G1X15.273300Y47.609000
G1X15.309900Y47.608900
G1X15.346000Y47.608900
G1X15.415900Y47.590200
G1X15.478600Y47.554000
G1X15.529800Y47.502800
G1X15.529800Y47.502700
G1X16.219600Y46.812900
G1X16.895700Y46.811700
G1X17.409700Y46.295900
G1X17.408500Y45.624100
G1X19.578700Y43.453800
G1X19.629000Y43.504100
G1X20.357000Y43.502800
G1X20.871000Y42.987000
G1X20.869700Y42.259000
G1X20.821500Y42.211100
G1X20.841500Y42.191000
G1X20.860400Y42.172200
G1X20.860500Y42.172000
G1X20.860700Y42.171800
G1X20.876800Y42.143700
G1X20.896600Y42.109500
G1X20.896600Y42.109100
G1X20.896700Y42.109100
G1X20.904500Y42.079700
G1X20.915300Y42.039600
G1X20.915300Y42.039500
G1X20.915400Y42.039100
G1X20.915300Y41.996500
G1X20.915300Y41.967100
G1X20.915200Y41.966800
G1X20.915200Y41.966700
G1X20.910400Y41.949100
G1X20.896600Y41.897200
G1X20.896400Y41.897000
G1X20.896400Y41.896800
G1X20.877700Y41.864700
G1X20.860400Y41.834500
G1X20.860200Y41.834400
G1X20.860100Y41.834100
G1X20.828000Y41.802200
G1X20.809200Y41.783300
G1X20.809000Y41.783200
G1X20.808800Y41.783000
G1X20.780700Y41.766900
G1X20.746500Y41.747100
G1X20.746100Y41.747100
G1X20.746100Y41.747000
G1X20.716700Y41.739200
G1X20.676600Y41.728400
G1X20.676500Y41.728400
G1X20.676100Y41.728300
G1X20.609000Y41.728400
G1X20.604100Y41.728400
G1X20.604100Y41.728500
G1X19.813200Y41.729800
G1X19.789300Y41.727600

G0Z0.500
G0X21.448300Y45.332300
G1Z-0.100 f25
G1X21.449600Y46.060300 f200
G1X21.965400Y46.574300
G1X22.693400Y46.573000
G1X23.207400Y46.057200
G1X23.206100Y45.329200
G1X22.690300Y44.815200
G1X21.962300Y44.816500
G1X21.448300Y45.332300

G0Z0.500
G0X23.063300Y47.286900
G1Z-0.100 f25
G1X23.035000Y47.315100 f200
G1X23.034900Y47.315400
G1X23.034700Y47.315500
G1X23.022100Y47.337600
G1X22.998800Y47.377800
G1X22.980100Y47.447700
G1X22.980100Y47.447900
G1X22.980000Y47.448200
G1X22.980100Y47.484800
G1X22.980100Y47.520200
G1X22.980200Y47.520500
G1X22.980200Y47.520700
G1X22.985400Y47.539900
G1X22.998800Y47.590100
G1X22.999000Y47.590400
G1X22.999000Y47.590500
G1X23.010700Y47.610700
G1X23.035000Y47.652800
G1X23.035200Y47.652900
G1X23.035300Y47.653200
G1X23.061400Y47.679100
G1X23.086200Y47.704000
G1X23.086500Y47.704100
G1X23.086600Y47.704300
G1X23.108700Y47.716900
G1X23.148900Y47.740200
G1X23.218800Y47.758900
G1X23.219000Y47.758900
G1X23.219300Y47.759000
G1X23.255900Y47.758900
G1X26.282000Y47.758900
G1X26.794300Y47.758900
G1X27.250200Y47.947800
G1X27.599400Y48.297000
G1X27.788300Y48.753000
G1X27.788300Y51.358800
G1X27.788200Y51.359100
G1X27.788300Y51.395000
G1X27.788300Y51.431100
G1X27.788400Y51.431400
G1X27.788400Y51.431600
G1X27.794600Y51.454400
G1X27.807000Y51.501000
G1X27.807200Y51.501200
G1X27.807200Y51.501500
G1X27.827400Y51.536100
G1X27.843200Y51.563700
G1X27.843400Y51.563800
G1X27.843500Y51.564100
G1X27.870100Y51.590600
G1X27.894400Y51.614900
G1X27.894700Y51.615000
G1X28.049400Y51.769200
G1X28.321500Y52.422900
G1X28.333300Y59.130800
G1X28.063400Y59.785800
G1X27.563600Y60.287300
G1X26.909800Y60.559400
G1X26.201800Y60.560700
G1X25.546800Y60.290800
G1X25.045300Y59.791000
G1X24.773200Y59.137200
G1X24.761400Y52.429300
G1X25.031400Y51.774200
G1X25.200200Y51.605000
G1X25.251400Y51.553800
G1X25.287600Y51.491100
G1X25.306300Y51.421200
G1X25.306300Y51.421000
G1X25.306400Y51.420800
G1X25.306300Y51.398500
G1X25.306300Y50.479600
G1X25.287600Y50.409700
G1X25.251400Y50.347000
G1X25.200200Y50.295800
G1X25.137500Y50.259600
G1X25.067600Y50.240900
G1X24.995100Y50.240900
G1X23.151300Y50.240900
G1X23.081400Y50.259600
G1X23.018700Y50.295800
G1X22.967500Y50.347000
G1X22.931300Y50.409700
G1X22.912600Y50.479600
G1X22.912600Y50.552100
G1X22.912600Y51.409800
G1X21.948900Y52.373500
G1X21.256600Y52.373500
G1X21.196400Y52.389600
G1X20.903600Y52.389600
G1X20.388700Y52.904500
G1X20.388700Y53.632600
G1X20.903600Y54.147500
G1X21.017900Y54.147500
G1X21.017900Y54.202600
G1X20.863000Y54.576500
G1X19.598200Y55.841300
G1X19.562000Y55.904000
G1X19.543300Y55.973900
G1X19.543300Y56.046400
G1X19.543300Y63.229200
G1X19.562000Y63.299100
G1X19.598200Y63.361800
G1X19.649400Y63.413000
G1X19.678500Y63.442100
G1X19.741200Y63.478300
G1X19.811100Y63.497000
G1X19.883600Y63.497000
G1X19.953500Y63.478300
G1X20.016200Y63.442100
G1X20.067400Y63.390900
G1X20.067400Y63.390800
G1X20.373900Y63.084300
G1X21.736500Y63.084300
G1X22.105100Y63.452900
G1X22.105100Y63.453000
G1X22.148200Y63.496000
G1X22.156300Y63.504200
G1X22.219000Y63.540400
G1X22.288900Y63.559100
G1X22.361400Y63.559100
G1X22.431300Y63.540400
G1X22.494000Y63.504200
G1X22.545200Y63.453000
G1X22.545200Y63.452900
G1X22.913800Y63.084300
G1X24.276500Y63.084300
G1X24.752500Y63.560300
G1X24.753500Y63.562100
G1X24.776300Y63.584200
G1X24.802000Y63.609900
G1X24.804100Y63.611100
G1X24.805400Y63.612400
G1X24.832600Y63.627600
G1X24.864700Y63.646100
G1X24.866900Y63.646700
G1X24.868700Y63.647700
G1X24.900900Y63.655800
G1X24.934600Y63.664800
G1X24.936900Y63.664800
G1X24.938800Y63.665300
G1X24.971300Y63.664800
G1X25.007100Y63.664800
G1X25.009200Y63.664200
G1X25.575700Y63.655500
G1X25.610500Y63.655500
G1X25.612600Y63.654900
G1X25.614700Y63.654900
G1X25.645600Y63.646100
G1X25.680400Y63.636800
G1X25.682400Y63.635600
G1X25.684300Y63.635100
G1X25.711000Y63.619100
G1X25.743100Y63.600600
G1X25.744700Y63.598900
G1X25.746500Y63.597900
G1X25.768500Y63.575100
G1X26.311300Y63.032400
G1X27.673900Y63.032400
G1X28.614000Y63.972600
G1X28.648100Y64.006700
G1X28.665200Y64.023800
G1X28.727900Y64.060000
G1X28.797800Y64.078700
G1X28.870300Y64.078700
G1X28.940200Y64.060000
G1X29.002900Y64.023800
G1X29.054100Y63.972600
G1X29.090300Y63.909900
G1X29.109000Y63.840000
G1X29.109000Y63.767500
G1X29.108600Y47.070400
G1X29.108700Y47.070100
G1X29.108600Y47.034600
G1X29.108600Y46.998200
G1X29.108500Y46.997900
G1X29.108500Y46.997600
G1X29.102900Y46.976900
G1X29.089900Y46.928300
G1X29.089600Y46.927900
G1X29.089600Y46.927700
G1X29.079200Y46.909800
G1X29.053700Y46.865600
G1X29.053400Y46.865400
G1X29.053300Y46.865100
G1X29.036400Y46.848400
G1X29.002500Y46.814400
G1X29.002000Y46.814100
G1X28.998000Y46.811800
G1X28.939800Y46.778200
G1X28.939300Y46.778100
G1X28.939200Y46.778000
G1X28.912400Y46.770900
G1X28.869900Y46.759500
G1X28.869600Y46.759500
G1X28.869300Y46.759400
G1X28.833400Y46.759500
G1X28.797400Y46.759500
G1X28.797100Y46.759600
G1X28.796800Y46.759600
G1X28.776100Y46.765200
G1X28.727500Y46.778200
G1X28.727100Y46.778500
G1X28.726900Y46.778500
G1X28.709000Y46.788900
G1X28.664800Y46.814400
G1X28.664600Y46.814700
G1X28.664300Y46.814800
G1X28.643400Y46.835900
G1X28.613600Y46.865600
G1X28.613400Y46.866000
G1X28.536400Y46.943400
G1X27.173800Y46.945800
G1X26.208400Y45.983800
G1X26.207700Y45.588000
G1X26.210100Y45.569900
G1X26.207600Y45.551200
G1X26.207600Y45.533100
G1X26.202900Y45.515900
G1X26.200600Y45.498000
G1X26.193600Y45.481100
G1X26.188800Y45.463300
G1X26.179700Y45.447700
G1X26.108900Y45.276700
G1X26.108900Y44.629600
G1X26.090200Y44.559700
G1X26.054000Y44.497000
G1X26.002800Y44.445800
G1X25.940100Y44.409600
G1X25.870200Y44.390900
G1X25.797700Y44.390900
G1X24.051200Y44.390900
G1X24.050900Y44.390800
G1X24.015000Y44.390900
G1X23.978900Y44.390900
G1X23.978600Y44.391000
G1X23.978400Y44.391000
G1X23.955600Y44.397200
G1X23.909000Y44.409600
G1X23.908800Y44.409800
G1X23.908500Y44.409800
G1X23.887300Y44.422200
G1X23.846300Y44.445800
G1X23.795100Y44.497000
G1X23.795000Y44.497300
G1X23.794800Y44.497400
G1X23.779300Y44.524400
G1X23.758900Y44.559700
G1X23.758800Y44.560000
G1X23.758700Y44.560200
G1X23.746600Y44.605700
G1X23.740200Y44.629600
G1X23.740200Y44.629800
G1X23.740100Y44.630100
G1X23.740200Y44.666000
G1X23.740200Y44.702100
G1X23.740300Y44.702400
G1X23.740300Y44.702600
G1X23.746500Y44.725400
G1X23.758900Y44.772000
G1X23.759100Y44.772200
G1X23.759100Y44.772500
G1X23.771500Y44.793700
G1X23.795100Y44.834700
G1X23.846300Y44.885900
G1X23.846800Y44.886100
G1X23.971600Y45.010500
G1X23.974000Y46.373100
G1X23.063300Y47.286900

G0Z0.500
G0X28.201400Y36.800200
G1Z-0.100 f25
G1X27.696300Y36.801100 f200
G1X25.132900Y34.237700
G1X25.132900Y30.250900
G1X26.541900Y28.841900
G1X27.171800Y28.841900
G1X27.427300Y29.096500
G1X28.155300Y29.095200
G1X28.669300Y28.579400
G1X28.668000Y27.851400
G1X28.152200Y27.337400
G1X27.424200Y27.338700
G1X27.171800Y27.592000
G1X26.344600Y27.592000
G1X26.344500Y27.592000
G1X26.221400Y27.592000
G1X26.100600Y27.616000
G1X25.986900Y27.663100
G1X25.884500Y27.731500
G1X24.130500Y29.485600
G1X24.096400Y29.508300
G1X24.008300Y29.596400
G1X23.939000Y29.700100
G1X23.891300Y29.815300
G1X23.867000Y29.937600
G1X23.867000Y34.562300
G1X23.891300Y34.684600
G1X23.939000Y34.799800
G1X24.008300Y34.903500
G1X24.096400Y34.991600
G1X26.960400Y37.855500
G1X26.960700Y38.045300
G1X27.476500Y38.559300
G1X28.204500Y38.558000
G1X28.718500Y38.042200
G1X28.717200Y37.314200
G1X28.201400Y36.800200

G0Z0.500
G0X28.636000Y31.809100
G1Z-0.100 f25
G1X28.664500Y31.837700 f200
G1X28.664800Y31.837800
G1X28.664900Y31.838000
G1X28.687000Y31.850600
G1X28.727200Y31.873900
G1X28.797100Y31.892600
G1X28.797300Y31.892600
G1X28.797600Y31.892700
G1X28.834200Y31.892600
G1X28.869600Y31.892600
G1X28.869900Y31.892500
G1X28.870000Y31.892500
G1X28.875700Y31.891000
G1X28.939500Y31.873900
G1X28.939800Y31.873700
G1X28.939900Y31.873700
G1X28.960100Y31.862000
G1X29.002200Y31.837700
G1X29.002300Y31.837500
G1X29.002600Y31.837400
G1X29.028500Y31.811300
G1X29.053400Y31.786500
G1X29.053500Y31.786200
G1X29.053700Y31.786100
G1X29.066300Y31.764000
G1X29.089600Y31.723800
G1X29.108300Y31.653900
G1X29.108300Y31.653700
G1X29.108400Y31.653400
G1X29.108300Y31.616800
G1X29.108300Y29.925500
G1X29.108400Y29.925200
G1X29.108300Y29.889300
G1X29.108300Y29.853200
G1X29.108200Y29.852900
G1X29.108200Y29.852700
G1X29.102000Y29.829900
G1X29.089600Y29.783300
G1X29.089500Y29.783100
G1X29.089400Y29.782800
G1X29.069300Y29.748100
G1X29.053400Y29.720600
G1X29.053200Y29.720500
G1X29.053100Y29.720200
G1X29.027800Y29.695100
G1X29.002200Y29.669400
G1X29.001900Y29.669300
G1X29.001800Y29.669100
G1X28.974800Y29.653600
G1X28.939500Y29.633200
G1X28.939200Y29.633100
G1X28.939000Y29.633000
G1X28.893500Y29.620900
G1X28.869600Y29.614500
G1X28.869400Y29.614500
G1X28.869100Y29.614400
G1X28.833200Y29.614500
G1X28.797100Y29.614500
G1X28.796800Y29.614600
G1X28.796600Y29.614600
G1X28.773800Y29.620800
G1X28.727200Y29.633200
G1X28.727000Y29.633300
G1X28.726700Y29.633400
G1X28.692000Y29.653500
G1X28.664500Y29.669400
G1X28.664400Y29.669600
G1X28.664100Y29.669700
G1X28.637600Y29.696300
G1X28.613300Y29.720600
G1X28.613200Y29.720800
G1X28.473900Y29.860700
G1X27.111300Y29.863100
G1X27.063800Y29.815600
G1X27.026400Y29.778200
G1X27.026100Y29.778100
G1X27.026100Y29.778000
G1X27.014900Y29.771600
G1X26.963700Y29.742000
G1X26.893800Y29.723300
G1X26.893700Y29.723300
G1X26.893400Y29.723200
G1X26.856800Y29.723300
G1X26.821300Y29.723300
G1X26.821000Y29.723400
G1X26.820900Y29.723400
G1X26.815200Y29.724900
G1X26.751400Y29.742000
G1X26.751100Y29.742200
G1X26.751000Y29.742200
G1X26.738200Y29.749600
G1X26.688700Y29.778200
G1X26.688400Y29.778500
G1X26.687500Y29.779400
G1X25.953800Y30.513200
G1X25.917600Y30.575900
G1X25.898900Y30.645800
G1X25.898900Y30.718300
G1X25.898900Y32.171400
G1X25.898800Y32.171700
G1X25.898900Y32.207600
G1X25.898900Y32.243700
G1X25.899000Y32.244000
G1X25.899000Y32.244200
G1X25.905100Y32.267000
G1X25.917600Y32.313600
G1X25.917700Y32.313800
G1X25.917800Y32.314100
G1X25.937900Y32.348800
G1X25.953800Y32.376300
G1X25.954000Y32.376400
G1X25.954100Y32.376700
G1X25.979400Y32.401800
G1X26.005000Y32.427500
G1X26.005300Y32.427600
G1X26.005400Y32.427800
G1X26.032400Y32.443300
G1X26.067700Y32.463700
G1X26.068000Y32.463800
G1X26.068200Y32.463900
G1X26.113700Y32.476000
G1X26.137600Y32.482400
G1X26.137800Y32.482400
G1X26.138100Y32.482500
G1X26.174000Y32.482400
G1X26.210100Y32.482400
G1X26.210400Y32.482300
G1X26.210600Y32.482300
G1X26.233400Y32.476200
G1X26.280000Y32.463700
G1X26.280200Y32.463600
G1X26.280500Y32.463500
G1X26.315200Y32.443400
G1X26.342700Y32.427500
G1X26.342800Y32.427300
G1X26.343100Y32.427200
G1X26.370100Y32.400100
G1X26.393900Y32.376300
G1X26.394000Y32.376100
G1X27.114400Y31.653000
G1X28.477000Y31.650600
G1X28.636000Y31.809100

G0Z0.500
G0X27.436200Y34.176400
G1Z-0.100 f25
G1X28.164200Y34.175100 f200
G1X28.678200Y33.659300
G1X28.676900Y32.931300
G1X28.161100Y32.417300
G1X27.433100Y32.418600
G1X26.919100Y32.934400
G1X26.920400Y33.662400
G1X27.436200Y34.176400

G0Z0.500
G0X16.604800Y27.185800
G1Z-0.100 f25
G1X17.332800Y27.184500 f200
G1X17.846800Y26.668700
G1X17.845500Y25.940700
G1X17.329700Y25.426700
G1X16.601700Y25.428000
G1X16.087700Y25.943800
G1X16.089000Y26.671800
G1X16.604800Y27.185800

G0Z0.500
G0X4.790300Y42.179600
G1Z-0.100 f25
G1X4.791600Y42.907600 f200
G1X5.307400Y43.421600
G1X5.797100Y43.420700
G1X6.700200Y44.323800
G1X6.700200Y53.391300
G1X6.736400Y53.526500
G1X6.806400Y53.647600
G1X6.905300Y53.746500
G1X6.905500Y53.746600
G1X17.725600Y64.566700
G1X17.725600Y65.058400
G1X18.240500Y65.573300
G1X18.968600Y65.573300
G1X19.483500Y65.058400
G1X19.483500Y65.006700
G1X20.176300Y65.006700
G1X20.176300Y65.093400
G1X20.691200Y65.608300
G1X21.419300Y65.608300
G1X21.934200Y65.093400
G1X21.934200Y64.365300
G1X21.419300Y63.850400
G1X20.691200Y63.850400
G1X20.176300Y64.365300
G1X20.176300Y64.452000
G1X19.483500Y64.452000
G1X19.483500Y64.330300
G1X18.968600Y63.815400
G1X18.777300Y63.815400
G1X18.777300Y55.579000
G1X20.213600Y54.142700
G1X20.251900Y54.050100
G1X20.251900Y53.949800
G1X20.251900Y52.104400
G1X20.826200Y51.530000
G1X20.903600Y51.607500
G1X21.631700Y51.607500
G1X22.146600Y51.092600
G1X22.146600Y50.364500
G1X21.631700Y49.849600
G1X20.903600Y49.849600
G1X20.388700Y50.364500
G1X20.388700Y51.092600
G1X20.469900Y51.173700
G1X19.857200Y51.786300
G1X19.786300Y51.857200
G1X19.748000Y51.949800
G1X19.748000Y53.895500
G1X18.405400Y55.238200
G1X18.392900Y55.241500
G1X18.329600Y55.278000
G1X18.278000Y55.329600
G1X18.241500Y55.392900
G1X18.222600Y55.463400
G1X18.222600Y63.561100
G1X7.762900Y53.101400
G1X7.762900Y44.033800
G1X7.726700Y43.898600
G1X7.656700Y43.777500
G1X7.557800Y43.678600
G1X6.549000Y42.669800
G1X6.548100Y42.176500
G1X6.032300Y41.662500
G1X5.304300Y41.663800
G1X4.790300Y42.179600

G0Z0.500
G0X2.250400Y42.184100
G1Z-0.100 f25
G1X2.251700Y42.912100 f200
G1X2.767500Y43.426100
G1X3.495500Y43.424800
G1X4.009500Y42.909000
G1X4.008200Y42.181000
G1X3.764300Y41.938100
G1X3.767600Y40.624000
G1X4.015700Y40.375100
G1X4.014400Y39.647100
G1X3.764100Y39.397700
G1X3.753300Y38.083100
G1X3.994900Y37.840700
G1X3.993600Y37.112700
G1X3.756000Y36.876000
G1X3.793200Y33.976100
G1X6.760900Y33.932400
G1X6.999400Y34.170100
G1X7.727400Y34.168800
G1X7.757000Y34.139000
G1X10.888100Y35.435100
G1X10.822000Y37.694400
G1X10.557300Y37.959900
G1X10.558600Y38.687900
G1X11.074400Y39.201900
G1X11.802400Y39.200600
G1X12.316400Y38.684800
G1X12.315100Y37.956800
G1X12.087400Y37.730000
G1X12.164700Y35.088300
G1X12.166500Y35.079500
G1X12.166500Y35.028100
G1X12.168100Y34.973400
G1X12.166500Y34.964000
G1X12.166500Y34.954700
G1X12.156200Y34.903000
G1X12.147300Y34.850500
G1X12.143900Y34.841700
G1X12.142100Y34.832400
G1X12.121900Y34.783800
G1X12.103000Y34.733900
G1X12.097900Y34.725800
G1X12.094400Y34.717300
G1X12.065200Y34.673700
G1X12.036800Y34.628300
G1X12.030300Y34.621500
G1X12.025100Y34.613600
G1X11.988100Y34.576700
G1X11.951300Y34.537600
G1X11.943300Y34.532000
G1X11.936900Y34.525500
G1X11.895000Y34.497600
G1X11.849700Y34.465300
G1X11.840500Y34.461200
G1X11.833200Y34.456300
G1X11.786200Y34.436900
G1X11.735900Y34.414300
G1X11.726500Y34.412200
G1X8.240100Y32.969100
G1X8.240100Y32.925000
G1X7.724300Y32.411000
G1X6.996300Y32.412300
G1X6.742900Y32.666700
G1X3.166400Y32.719400
G1X3.114000Y32.718700
G1X3.105600Y32.720300
G1X3.096500Y32.720400
G1X3.043400Y32.731800
G1X2.991400Y32.741400
G1X2.983300Y32.744700
G1X2.974600Y32.746500
G1X2.925900Y32.767600
G1X2.875600Y32.787600
G1X2.868100Y32.792500
G1X2.860200Y32.795900
G1X2.815800Y32.826600
G1X2.771100Y32.855600
G1X2.765100Y32.861500
G1X2.757500Y32.866700
G1X2.719000Y32.906400
G1X2.681800Y32.942600
G1X2.677000Y32.949700
G1X2.670700Y32.956100
G1X2.641900Y33.000700
G1X2.611200Y33.045300
G1X2.607600Y33.053700
G1X2.603000Y33.060800
G1X2.584100Y33.108500
G1X2.562000Y33.159900
G1X2.560100Y33.168900
G1X2.557000Y33.176700
G1X2.547500Y33.228500
G1X2.536200Y33.281900
G1X2.536100Y33.290700
G1X2.534500Y33.299300
G1X2.535300Y33.353500
G1X2.490300Y36.860500
G1X2.235800Y37.115800
G1X2.237100Y37.843800
G1X2.487400Y38.093200
G1X2.498200Y39.407800
G1X2.256600Y39.650200
G1X2.257900Y40.378200
G1X2.501800Y40.621100
G1X2.498500Y41.935200
G1X2.250400Y42.184100

G0Z0.500
G0X6.554300Y39.642600
G1Z-0.100 f25
G1X6.038500Y39.128600 f200
G1X5.310500Y39.129900
G1X4.796500Y39.645700
G1X4.797800Y40.373700
G1X5.313600Y40.887700
G1X5.497600Y40.887300
G1X5.508300Y40.903500
G1X8.375000Y43.770200
G1X8.375000Y45.238800
G1X8.030600Y45.584300
G1X8.031900Y46.312300
G1X8.547700Y46.826300
G1X9.275700Y46.825000
G1X9.789700Y46.309200
G1X9.788400Y45.581200
G1X9.624900Y45.418300
G1X9.624900Y43.602500
G1X9.632900Y43.562300
G1X9.632900Y43.437600
G1X9.608600Y43.315300
G1X9.560900Y43.200100
G1X9.491600Y43.096400
G1X6.555200Y40.160100
G1X6.554300Y39.642600

G0Z0.500
G0X23.509000Y41.766900
G1Z-0.100 f25
G1X24.237000Y41.765600 f200
G1X24.393100Y41.608900
G1X24.524000Y41.608900
G1X24.542200Y41.611300
G1X24.560300Y41.608900
G1X24.578400Y41.608900
G1X24.596000Y41.604100
G1X24.614000Y41.601800
G1X24.630400Y41.594900
G1X24.648300Y41.590200
G1X24.664400Y41.580900
G1X24.680800Y41.574100
G1X24.694900Y41.563200
G1X24.711000Y41.554000
G1X24.723800Y41.541100
G1X24.738300Y41.530100
G1X24.749300Y41.515600
G1X24.762200Y41.502800
G1X24.771400Y41.486700
G1X24.782300Y41.472600
G1X24.789100Y41.456200
G1X24.798400Y41.440100
G1X24.803100Y41.422200
G1X24.810000Y41.405800
G1X24.812300Y41.387800
G1X24.817100Y41.370200
G1X24.817100Y41.352100
G1X24.819500Y41.334000
G1X24.817100Y41.315800
G1X24.817100Y41.297700
G1X24.812300Y41.280100
G1X24.810000Y41.262100
G1X24.803100Y41.245600
G1X24.798400Y41.227800
G1X24.789100Y41.211800
G1X24.750700Y41.119200
G1X24.749700Y40.521800
G1X24.608900Y40.381500
G1X24.608900Y40.302500
G1X24.609000Y40.302200
G1X24.608900Y40.266300
G1X24.608900Y40.230200
G1X24.608800Y40.229900
G1X24.608800Y40.229700
G1X24.602600Y40.206900
G1X24.590200Y40.160300
G1X24.590000Y40.160100
G1X24.590000Y40.159800
G1X24.569800Y40.125200
G1X24.554000Y40.097600
G1X24.553800Y40.097500
G1X24.553700Y40.097200
G1X24.528400Y40.072100
G1X24.502800Y40.046400
G1X24.502500Y40.046300
G1X24.502400Y40.046100
G1X24.459900Y40.021700
G1X24.440100Y40.010200
G1X24.440000Y40.010200
G1X24.439700Y40.010000
G1X24.388900Y39.996600
G1X24.370200Y39.991500
G1X24.370000Y39.991500
G1X24.369700Y39.991400
G1X24.314800Y39.991500
G1X24.297700Y39.991500
G1X24.297600Y39.991600
G1X23.188500Y39.993600
G1X22.223100Y39.031600
G1X22.220700Y37.669000
G1X23.182700Y36.703600
G1X24.041200Y36.702100
G1X24.096100Y36.702100
G1X24.096400Y36.702000
G1X24.096600Y36.702000
G1X24.115800Y36.696800
G1X24.166000Y36.683400
G1X24.166200Y36.683200
G1X24.166400Y36.683200
G1X24.186600Y36.671500
G1X24.228700Y36.647200
G1X24.228800Y36.647000
G1X24.229100Y36.646900
G1X24.255000Y36.620800
G1X24.279900Y36.596000
G1X24.280000Y36.595700
G1X24.280200Y36.595600
G1X24.292800Y36.573500
G1X24.316100Y36.533300
G1X24.334800Y36.463400
G1X24.334800Y36.463200
G1X24.334900Y36.462900
G1X24.334800Y36.426300
G1X24.334800Y36.390900
G1X24.334700Y36.390600
G1X24.334700Y36.390400
G1X24.329500Y36.371200
G1X24.316100Y36.321000
G1X24.315900Y36.320800
G1X24.315900Y36.320600
G1X24.304200Y36.300400
G1X24.279900Y36.258300
G1X24.279700Y36.258200
G1X24.279600Y36.257900
G1X24.252200Y36.230700
G1X23.720500Y35.699000
G1X23.313800Y35.292400
G1X23.100900Y34.778400
G1X23.100900Y30.677900
G1X23.102100Y30.645700
G1X23.100900Y30.640500
G1X23.100900Y30.635400
G1X23.092700Y30.604900
G1X23.085900Y30.575100
G1X23.083600Y30.570800
G1X23.082200Y30.565500
G1X23.066100Y30.537700
G1X23.052100Y30.511100
G1X23.048600Y30.507400
G1X23.046000Y30.502800
G1X23.023500Y30.480400
G1X23.002900Y30.458100
G1X22.998600Y30.455400
G1X22.994800Y30.451600
G1X22.966900Y30.435500
G1X22.941600Y30.419600
G1X22.936800Y30.418200
G1X22.932100Y30.415400
G1X22.901800Y30.407300
G1X22.872400Y30.398200
G1X22.867000Y30.398000
G1X22.862200Y30.396700
G1X22.832200Y30.396700
G1X22.800000Y30.395500
G1X22.794800Y30.396700
G1X22.789700Y30.396700
G1X22.760100Y30.404700
G1X22.471800Y30.470600
G1X21.731300Y30.301500
G1X21.702100Y30.293700
G1X21.697000Y30.293700
G1X21.691800Y30.292500
G1X21.659500Y30.293700
G1X21.629600Y30.293700
G1X21.624800Y30.295000
G1X21.619300Y30.295200
G1X21.589500Y30.304400
G1X21.559700Y30.312400
G1X21.555000Y30.315100
G1X21.550200Y30.316600
G1X21.524900Y30.332600
G1X21.497000Y30.348600
G1X21.493200Y30.352400
G1X21.488900Y30.355100
G1X21.468700Y30.376900
G1X21.445800Y30.399800
G1X21.443000Y30.404600
G1X21.439700Y30.408200
G1X21.425800Y30.434500
G1X21.409600Y30.462500
G1X21.408300Y30.467600
G1X21.405800Y30.472200
G1X21.398800Y30.503000
G1X21.390900Y30.532400
G1X21.390900Y30.537500
G1X21.389700Y30.542700
G1X21.390900Y30.575000
G1X21.390900Y34.985200
G1X21.179200Y35.496200
G1X20.819900Y35.855400
G1X20.813900Y35.859300
G1X20.794600Y35.880700
G1X20.773800Y35.901500
G1X20.770200Y35.907800
G1X18.238600Y38.715300
G1X18.217600Y38.736200
G1X18.214000Y38.742600
G1X18.209200Y38.747800
G1X18.196300Y38.773200
G1X18.181400Y38.798900
G1X18.179500Y38.806100
G1X18.176300Y38.812300
G1X18.170300Y38.840500
G1X18.162700Y38.868800
G1X18.162700Y38.876000
G1X18.161200Y38.883000
G1X18.162700Y38.912000
G1X18.162700Y38.919600
G1X18.162700Y38.955700
G1X18.162800Y38.956000
G1X18.162800Y38.956200
G1X18.169000Y38.979000
G1X18.181400Y39.025600
G1X18.181600Y39.025800
G1X18.181600Y39.026100
G1X18.201700Y39.060700
G1X18.217600Y39.088300
G1X18.217800Y39.088400
G1X18.217900Y39.088700
G1X18.243200Y39.113800
G1X18.268800Y39.139500
G1X18.269100Y39.139600
G1X18.269200Y39.139800
G1X18.296200Y39.155300
G1X18.331500Y39.175700
G1X18.331800Y39.175800
G1X18.332000Y39.175900
G1X18.377500Y39.188000
G1X18.401400Y39.194400
G1X18.401600Y39.194400
G1X18.401900Y39.194500
G1X18.437800Y39.194400
G1X18.473900Y39.194400
G1X18.474200Y39.194300
G1X18.474400Y39.194300
G1X18.497200Y39.188100
G1X18.543800Y39.175700
G1X18.544000Y39.175500
G1X18.544300Y39.175500
G1X18.578900Y39.155400
G1X18.606500Y39.139500
G1X18.606600Y39.139300
G1X18.606900Y39.139200
G1X18.634100Y39.111900
G1X18.657700Y39.088300
G1X18.657800Y39.088100
G1X19.302700Y38.440800
G1X20.665300Y38.438400
G1X21.630700Y39.400400
G1X21.633100Y40.763000
G1X21.118100Y41.279700
G1X21.104000Y41.290500
G1X21.093000Y41.304900
G1X21.079800Y41.318100
G1X21.070700Y41.334000
G1X21.060000Y41.347900
G1X21.053100Y41.364700
G1X21.043800Y41.380800
G1X21.039100Y41.398400
G1X21.032300Y41.414800
G1X21.030000Y41.432800
G1X21.025100Y41.450800
G1X21.025200Y41.468800
G1X21.022800Y41.486500
G1X21.025300Y41.505100
G1X21.025300Y41.523300
G1X21.030000Y41.540500
G1X21.032300Y41.558400
G1X21.039400Y41.575300
G1X21.044100Y41.593100
G1X21.053200Y41.608600
G1X21.060000Y41.625300
G1X21.071200Y41.639700
G1X21.080400Y41.655800
G1X21.093400Y41.668600
G1X21.104100Y41.682700
G1X21.118500Y41.693700
G1X21.131700Y41.706900
G1X21.147600Y41.716000
G1X21.161500Y41.726700
G1X21.178300Y41.733600
G1X21.194400Y41.742900
G1X21.212000Y41.747600
G1X21.228400Y41.754400
G1X21.246400Y41.756700
G1X21.264400Y41.761600
G1X21.282400Y41.761500
G1X21.300100Y41.763900
G1X21.318700Y41.761400
G1X21.336900Y41.761400
G1X21.354100Y41.756700
G1X21.372000Y41.754400
G1X21.388900Y41.747400
G1X21.406700Y41.742600
G1X21.422300Y41.733500
G1X21.723200Y41.608900
G1X23.350500Y41.608900
G1X23.509000Y41.766900

G0Z0.500
G0X18.619900Y14.236100
G1Z-0.100 f25
G1X19.347900Y14.234800 f200
G1X19.861900Y13.719000
G1X19.860600Y12.991000
G1X19.344800Y12.477000
G1X18.616800Y12.478300
G1X18.102800Y12.994100
G1X18.104100Y13.722100
G1X18.619900Y14.236100

G0Z0.500
G0X21.445800Y24.487000
G1Z-0.100 f25
G1X21.443300Y24.491400 f200
G1X21.440000Y24.494900
G1X21.426000Y24.521400
G1X21.409600Y24.549700
G1X21.408300Y24.554800
G1X21.406100Y24.558800
G1X21.399300Y24.588200
G1X21.390900Y24.619600
G1X21.390900Y24.624600
G1X21.389800Y24.629300
G1X21.390900Y24.661200
G1X21.390900Y27.098300
G1X21.389700Y27.130500
G1X21.390900Y27.135700
G1X21.390900Y27.140800
G1X21.398800Y27.170200
G1X21.405800Y27.201000
G1X21.408300Y27.205600
G1X21.409600Y27.210700
G1X21.425800Y27.238800
G1X21.439700Y27.265000
G1X21.443000Y27.268500
G1X21.445800Y27.273400
G1X21.468800Y27.296300
G1X21.488900Y27.318100
G1X21.493200Y27.320800
G1X21.497000Y27.324600
G1X21.524900Y27.340700
G1X21.550200Y27.356600
G1X21.555000Y27.358100
G1X21.559700Y27.360800
G1X21.589600Y27.368800
G1X21.619300Y27.378000
G1X21.624800Y27.378200
G1X21.629600Y27.379500
G1X21.659600Y27.379500
G1X21.691800Y27.380700
G1X21.697000Y27.379500
G1X21.702100Y27.379500
G1X21.731400Y27.371600
G1X22.471700Y27.202700
G1X23.180700Y27.364500
G1X23.749000Y27.817800
G1X23.883600Y28.097400
G1X23.886300Y28.107400
G1X23.899200Y28.129700
G1X23.910500Y28.153200
G1X23.917400Y28.161100
G1X23.922500Y28.170100
G1X23.940600Y28.188100
G1X23.957700Y28.208100
G1X23.966500Y28.214000
G1X23.973700Y28.221300
G1X23.996500Y28.234400
G1X24.017600Y28.248800
G1X24.027100Y28.252100
G1X24.036400Y28.257500
G1X24.062200Y28.264400
G1X24.085900Y28.272700
G1X24.096100Y28.273400
G1X24.106300Y28.276200
G1X24.132700Y28.276200
G1X24.158200Y28.278100
G1X24.168200Y28.276200
G1X24.178800Y28.276200
G1X24.203800Y28.269500
G1X24.229300Y28.264700
G1X24.238700Y28.260200
G1X24.248700Y28.257500
G1X24.271000Y28.244600
G1X24.294500Y28.233300
G1X24.302400Y28.226400
G1X24.311400Y28.221300
G1X24.329400Y28.203300
G1X24.349400Y28.186100
G1X24.355300Y28.177300
G1X25.090600Y27.442000
G1X25.495000Y27.037600
G1X26.006000Y26.825900
G1X26.703400Y26.825900
G1X26.703700Y26.826000
G1X26.739600Y26.825900
G1X26.775700Y26.825900
G1X26.776000Y26.825800
G1X26.776200Y26.825800
G1X26.799000Y26.819600
G1X26.845600Y26.807200
G1X26.845800Y26.807000
G1X26.846100Y26.807000
G1X26.880700Y26.786900
G1X26.908300Y26.771000
G1X26.908400Y26.770800
G1X26.908700Y26.770700
G1X26.935800Y26.743500
G1X26.959500Y26.719800
G1X26.959600Y26.719600
G1X27.105500Y26.573100
G1X28.468200Y26.570700
G1X28.613200Y26.715300
G1X28.613200Y26.715400
G1X28.664400Y26.766600
G1X28.727100Y26.802800
G1X28.797000Y26.821500
G1X28.797100Y26.821500
G1X28.797400Y26.821600
G1X28.834000Y26.821500
G1X28.869500Y26.821500
G1X28.869800Y26.821400
G1X28.869900Y26.821400
G1X28.875600Y26.819800
G1X28.939400Y26.802800
G1X28.939700Y26.802600
G1X28.939800Y26.802600
G1X28.952500Y26.795200
G1X29.002100Y26.766600
G1X29.002400Y26.766300
G1X29.002800Y26.765900
G1X29.053300Y26.715400
G1X29.089500Y26.652700
G1X29.108200Y26.582800
G1X29.108200Y26.582700
G1X29.108300Y26.582400
G1X29.108200Y26.545800
G1X29.108200Y24.296300
G1X29.108300Y24.296000
G1X29.108200Y24.260100
G1X29.108200Y24.224000
G1X29.108100Y24.223700
G1X29.108100Y24.223500
G1X29.103200Y24.205600
G1X29.089500Y24.154100
G1X29.089300Y24.153800
G1X29.089300Y24.153700
G1X29.078500Y24.135100
G1X29.053300Y24.091400
G1X29.053100Y24.091300
G1X29.053000Y24.091000
G1X29.027700Y24.065900
G1X29.002100Y24.040200
G1X29.001800Y24.040100
G1X29.001700Y24.039900
G1X28.980400Y24.027700
G1X28.939400Y24.004000
G1X28.869500Y23.985300
G1X28.869300Y23.985300
G1X28.869000Y23.985200
G1X28.833100Y23.985300
G1X28.797000Y23.985300
G1X28.796700Y23.985400
G1X28.796500Y23.985400
G1X28.778600Y23.990300
G1X28.727100Y24.004000
G1X28.726800Y24.004200
G1X28.726700Y24.004200
G1X28.708100Y24.015000
G1X28.664400Y24.040200
G1X28.664300Y24.040400
G1X28.664000Y24.040500
G1X28.636500Y24.068200
G1X28.613200Y24.091400
G1X28.613100Y24.091600
G1X28.574000Y24.130900
G1X27.211400Y24.133300
G1X26.246000Y23.171300
G1X26.243600Y21.808700
G1X27.018300Y21.031300
G1X27.046000Y21.003700
G1X27.046100Y21.003400
G1X27.046300Y21.003300
G1X27.071700Y20.959200
G1X27.082200Y20.941000
G1X27.082200Y20.940900
G1X27.082400Y20.940600
G1X27.096200Y20.888600
G1X27.100900Y20.871100
G1X27.100900Y20.870900
G1X27.101000Y20.870600
G1X27.100900Y20.834000
G1X27.100900Y19.550800
G1X27.101000Y19.550500
G1X27.100900Y19.514600
G1X27.100900Y19.478500
G1X27.100800Y19.478200
G1X27.100800Y19.478000
G1X27.094600Y19.455200
G1X27.082200Y19.408600
G1X27.082000Y19.408400
G1X27.082000Y19.408100
G1X27.061800Y19.373500
G1X27.046000Y19.345900
G1X27.045800Y19.345800
G1X27.045700Y19.345500
G1X27.020400Y19.320400
G1X26.994800Y19.294700
G1X26.994500Y19.294600
G1X26.994400Y19.294400
G1X26.967400Y19.278900
G1X26.932100Y19.258500
G1X26.931800Y19.258500
G1X26.931600Y19.258300
G1X26.886100Y19.246200
G1X26.862200Y19.239800
G1X26.862000Y19.239800
G1X26.861700Y19.239700
G1X26.825800Y19.239800
G1X26.789700Y19.239800
G1X26.789400Y19.239900
G1X26.789200Y19.239900
G1X26.766400Y19.246100
G1X26.719800Y19.258500
G1X26.719600Y19.258700
G1X26.719300Y19.258700
G1X26.684700Y19.278900
G1X26.657100Y19.294700
G1X26.657000Y19.294900
G1X26.656700Y19.295000
G1X26.630100Y19.321800
G1X26.605900Y19.345900
G1X26.605800Y19.346200
G1X25.788700Y20.166300
G1X25.624300Y20.166600
G1X25.619700Y20.165500
G1X25.586500Y20.166700
G1X25.556500Y20.166700
G1X25.552400Y20.167800
G1X25.547200Y20.168000
G1X25.515200Y20.177800
G1X25.486600Y20.185500
G1X25.482700Y20.187800
G1X25.478000Y20.189200
G1X25.450400Y20.206500
G1X25.424000Y20.221800
G1X25.420800Y20.225100
G1X25.416700Y20.227600
G1X25.394600Y20.251300
G1X25.372900Y20.273100
G1X25.370700Y20.277100
G1X21.468700Y24.464100
G1X21.445800Y24.487000

G0Z0.500
G0X28.002500Y15.098600
G1Z-0.100 f25
G1X27.274500Y15.099900 f200
G1X26.760500Y15.615700
G1X26.761800Y16.343700
G1X27.277600Y16.857700
G1X27.867000Y16.856600
G1X27.867000Y21.608300
G1X27.524300Y21.608900
G1X27.010300Y22.124700
G1X27.011600Y22.852700
G1X27.527400Y23.366700
G1X28.255400Y23.365400
G1X28.769400Y22.849600
G1X28.769000Y22.626100
G1X28.991600Y22.403500
G1X29.060900Y22.299800
G1X29.108600Y22.184600
G1X29.132900Y22.062300
G1X29.132900Y21.937600
G1X29.132900Y16.437600
G1X29.108600Y16.315300
G1X29.060900Y16.200100
G1X28.991600Y16.096400
G1X28.903500Y16.008300
G1X28.518300Y15.623200
G1X28.518300Y15.612600
G1X28.002500Y15.098600

G0Z0.500
G0X25.458100Y12.563100
G1Z-0.100 f25
G1X24.730100Y12.564400 f200
G1X24.216100Y13.080200
G1X24.217400Y13.808200
G1X24.733200Y14.322200
G1X25.461200Y14.320900
G1X25.975200Y13.805100
G1X25.973900Y13.077100
G1X25.458100Y12.563100

G0Z0.500
G0X6.017700Y36.594200
G1Z-0.100 f25
G1X5.289700Y36.595500 f200
G1X4.775700Y37.111300
G1X4.777000Y37.839300
G1X5.292800Y38.353300
G1X6.020800Y38.352000
G1X6.121500Y38.250900
G1X8.097500Y38.770900
G1X8.534400Y39.206300
G1X9.262400Y39.205000
G1X9.776400Y38.689200
G1X9.775100Y37.961200
G1X9.259300Y37.447200
G1X8.531300Y37.448500
G1X8.430600Y37.549600
G1X6.454600Y37.029600
G1X6.017700Y36.594200

G0Z0.500
G0X25.528000Y52.682000
G1Z-0.100 f25
G1X25.538900Y58.881700 f200
G1X25.578200Y59.077500
G1X25.654900Y59.261900
G1X25.766200Y59.427800
G1X25.907700Y59.568800
G1X26.073900Y59.679400
G1X26.258600Y59.755600
G1X26.454500Y59.794200
G1X26.654300Y59.793800
G1X26.850100Y59.754500
G1X27.034500Y59.677800
G1X27.200400Y59.566500
G1X27.341400Y59.425000
G1X27.452000Y59.258800
G1X27.528200Y59.074100
G1X27.566800Y58.878200
G1X27.555900Y52.678500
G1X27.516600Y52.482700
G1X27.439900Y52.298300
G1X27.328600Y52.132400
G1X27.187100Y51.991400
G1X27.022300Y51.881800
G1X27.022300Y48.937400
G1X26.989900Y48.816600
G1X26.927400Y48.708300
G1X26.839000Y48.619900
G1X26.730700Y48.557400
G1X26.609900Y48.525000
G1X26.484800Y48.525000
G1X18.937400Y48.525000
G1X18.816600Y48.557400
G1X18.708300Y48.619900
G1X18.619900Y48.708300
G1X18.347600Y48.980600
G1X18.285100Y49.088900
G1X18.252700Y49.209700
G1X18.252700Y49.334800
G1X18.252700Y49.960500
G1X17.848700Y50.364500
G1X17.848700Y51.092600
G1X18.363600Y51.607500
G1X19.091700Y51.607500
G1X19.606600Y51.092600
G1X19.606600Y50.364500
G1X19.202600Y49.960500
G1X19.202600Y49.474900
G1X26.072400Y49.474900
G1X26.072400Y51.877400
G1X26.060300Y51.882400
G1X25.894400Y51.993700
G1X25.753400Y52.135200
G1X25.642800Y52.301400
G1X25.566600Y52.486100
G1X25.528000Y52.682000

G0Z0.500
G0X7.726600Y68.038500
G1Z-0.100 f25
G1X8.454700Y68.038500 f200
G1X8.969600Y67.523600
G1X8.969600Y66.795500
G1X8.454700Y66.280600
G1X8.132900Y66.280600
G1X8.132900Y59.552100
G1X8.134500Y59.542600
G1X8.132900Y59.491500
G1X8.132900Y59.437600
G1X8.130900Y59.427600
G1X8.130600Y59.417900
G1X8.119100Y59.368400
G1X8.108600Y59.315300
G1X8.104700Y59.305900
G1X8.102500Y59.296400
G1X8.081700Y59.250500
G1X8.060900Y59.200100
G1X8.055000Y59.191400
G1X8.051200Y59.182800
G1X8.022300Y59.142400
G1X7.991600Y59.096400
G1X7.984200Y59.089000
G1X5.561100Y55.696600
G1X5.555900Y52.716900
G1X5.516600Y52.521100
G1X5.439900Y52.336700
G1X5.328600Y52.170800
G1X5.187100Y52.029800
G1X5.112700Y51.980300
G1X3.817000Y48.474000
G1X3.787400Y46.751500
G1X4.016800Y46.521400
G1X4.015500Y45.793400
G1X3.499700Y45.279400
G1X2.771700Y45.280700
G1X2.257700Y45.796500
G1X2.259000Y46.524500
G1X2.521900Y46.786400
G1X2.552800Y48.585500
G1X2.551100Y48.630300
G1X2.553900Y48.647900
G1X2.554200Y48.665700
G1X2.563500Y48.708600
G1X2.570600Y48.753400
G1X2.576900Y48.770400
G1X2.580600Y48.787500
G1X2.598000Y48.827500
G1X3.812600Y52.114300
G1X3.753400Y52.173600
G1X3.642800Y52.339800
G1X3.566600Y52.524500
G1X3.528000Y52.720400
G1X3.538900Y58.920100
G1X3.578200Y59.115900
G1X3.654900Y59.300300
G1X3.766200Y59.466200
G1X3.907700Y59.607200
G1X4.073900Y59.717800
G1X4.258600Y59.794000
G1X4.454500Y59.832600
G1X4.654300Y59.832200
G1X4.850100Y59.792900
G1X5.034500Y59.716200
G1X5.200400Y59.604900
G1X5.341400Y59.463400
G1X5.452000Y59.297200
G1X5.528200Y59.112500
G1X5.566800Y58.916600
G1X5.564900Y57.879800
G1X6.867000Y59.702800
G1X6.867000Y67.062300
G1X6.891300Y67.184600
G1X6.939000Y67.299800
G1X7.008300Y67.403500
G1X7.096400Y67.491600
G1X7.200100Y67.560900
G1X7.283600Y67.595400
G1X7.726600Y68.038500

G0Z0.500
G0X3.224600Y74.211600
G1Z-0.100 f25
G1X3.952700Y74.211600 f200
G1X4.467600Y73.696700
G1X4.467600Y73.094000
G1X4.468300Y73.086800
G1X4.474900Y73.062500
G1X4.474900Y73.024700
G1X4.478800Y72.987600
G1X4.476700Y72.974900
G1X7.583000Y72.974900
G1X7.726600Y73.118500
G1X8.454700Y73.118500
G1X8.969600Y72.603600
G1X8.969600Y71.875500
G1X8.454700Y71.360600
G1X7.726600Y71.360600
G1X7.211700Y71.875500
G1X7.211700Y72.025000
G1X4.062500Y72.025000
G1X3.937400Y72.025000
G1X3.816600Y72.057400
G1X3.708300Y72.119900
G1X3.619900Y72.208300
G1X3.557400Y72.316600
G1X3.525000Y72.437400
G1X3.525000Y72.453700
G1X3.224600Y72.453700
G1X2.709700Y72.968600
G1X2.709700Y73.696700
G1X3.224600Y74.211600

G0Z0.500
G0X4.269900Y74.977600
G1Z-0.100 f25
G1X2.907300Y74.977600 f200
G1X1.943600Y74.013900
G1X1.943600Y72.651300
G1X2.907300Y71.687600
G1X2.979500Y71.687600
G1X3.049400Y71.668900
G1X3.112100Y71.632700
G1X3.163300Y71.581500
G1X3.297000Y71.447800
G1X3.753000Y71.258900
G1X4.337700Y71.258900
G1X6.667300Y71.258900
G1X6.737200Y71.240200
G1X6.799900Y71.204000
G1X6.851100Y71.152800
G1X6.851100Y71.152700
G1X7.409300Y70.594500
G1X8.717800Y70.594500
G1X8.787700Y70.575800
G1X8.850400Y70.539600
G1X8.901600Y70.488400
G1X8.937800Y70.425700
G1X8.956500Y70.355800
G1X8.956500Y70.283300
G1X8.956500Y70.076600
G1X8.969600Y70.063600
G1X8.969600Y69.335500
G1X8.956500Y69.322500
G1X8.956500Y69.043200
G1X8.937800Y68.973300
G1X8.901600Y68.910600
G1X8.850400Y68.859400
G1X8.787700Y68.823200
G1X8.717800Y68.804500
G1X8.645300Y68.804500
G1X7.409300Y68.804500
G1X6.900700Y68.295900
G1X6.889800Y68.281600
G1X6.875600Y68.270800
G1X6.862700Y68.257800
G1X6.846700Y68.248600
G1X6.832400Y68.237600
G1X6.815800Y68.230800
G1X6.800000Y68.221600
G1X6.782200Y68.216900
G1X6.707300Y68.185900
G1X6.313800Y67.792300
G1X6.100900Y67.278400
G1X6.100900Y60.487600
G1X6.101000Y60.487300
G1X6.100900Y60.451500
G1X6.100900Y60.415500
G1X6.100800Y60.415200
G1X6.100800Y60.414900
G1X6.095200Y60.394200
G1X6.082200Y60.345600
G1X6.081900Y60.345200
G1X6.081900Y60.345000
G1X6.071500Y60.327100
G1X6.046000Y60.282900
G1X6.045700Y60.282700
G1X6.045600Y60.282400
G1X6.020300Y60.257300
G1X5.994800Y60.231700
G1X5.994500Y60.231600
G1X5.994300Y60.231300
G1X5.967400Y60.216000
G1X5.932100Y60.195500
G1X5.931600Y60.195400
G1X5.931500Y60.195300
G1X5.910300Y60.189700
G1X5.862200Y60.176800
G1X5.861800Y60.176800
G1X5.861500Y60.176700
G1X5.825700Y60.176800
G1X5.789700Y60.176800
G1X5.789400Y60.176900
G1X5.789100Y60.176900
G1X5.768400Y60.182500
G1X5.719800Y60.195500
G1X5.719400Y60.195800
G1X5.719200Y60.195800
G1X5.701300Y60.206200
G1X5.657100Y60.231700
G1X5.656900Y60.232000
G1X5.656600Y60.232100
G1X5.634500Y60.254400
G1X5.605900Y60.282900
G1X5.605800Y60.283200
G1X5.563500Y60.325700
G1X4.909800Y60.597800
G1X4.201800Y60.599100
G1X3.546800Y60.329200
G1X3.045300Y59.829400
G1X2.773200Y59.175600
G1X2.761400Y52.467600
G1X2.910500Y52.105900
G1X2.923700Y52.077400
G1X2.924600Y52.071700
G1X2.926800Y52.066600
G1X2.930700Y52.036400
G1X2.936000Y52.006000
G1X2.935400Y52.000400
G1X2.936200Y51.994800
G1X2.932100Y51.964500
G1X2.929300Y51.933900
G1X2.927300Y51.928700
G1X2.926600Y51.923000
G1X2.914700Y51.894500
G1X1.899900Y49.148300
G1X1.898700Y49.140200
G1X1.886700Y49.112900
G1X1.877400Y49.087400
G1X1.873100Y49.081400
G1X1.792300Y48.895700
G1X1.791900Y48.890900
G1X1.791500Y48.864900
G1X1.788400Y48.854400
G1X1.787500Y48.843900
G1X1.778700Y48.820300
G1X1.777200Y48.815100
G1X1.785100Y48.612800
G1X1.787000Y48.605300
G1X1.786500Y48.576500
G1X1.787600Y48.548200
G1X1.785800Y48.540700
G1X1.763300Y47.225900
G1X1.763200Y47.189200
G1X1.762600Y47.187200
G1X1.762600Y47.185100
G1X1.752900Y47.151400
G1X1.744300Y47.119400
G1X1.743300Y47.117800
G1X1.742700Y47.115500
G1X1.724300Y47.085100
G1X1.708000Y47.056800
G1X1.706400Y47.055300
G1X1.705400Y47.053500
G1X1.680500Y47.029500
G1X1.493400Y46.843200
G1X1.491000Y45.480500
G1X2.393800Y44.574600
G1X2.394000Y44.574500
G1X2.445100Y44.523200
G1X2.481200Y44.460400
G1X2.499800Y44.390500
G1X2.499600Y44.318000
G1X2.480800Y44.248100
G1X2.444500Y44.185500
G1X1.486100Y43.230700
G1X1.483800Y41.868100
G1X1.637100Y41.714200
G1X1.678200Y41.673300
G1X1.678600Y41.672600
G1X1.678800Y41.672400
G1X1.689900Y41.653100
G1X1.714500Y41.610700
G1X1.714600Y41.610100
G1X1.714900Y41.609700
G1X1.725600Y41.569500
G1X1.733400Y41.540900
G1X1.733400Y41.540500
G1X1.733600Y41.539800
G1X1.733500Y41.501900
G1X1.734500Y41.088700
G1X1.734700Y41.088100
G1X1.734600Y41.054600
G1X1.734700Y41.016800
G1X1.734500Y41.016100
G1X1.734500Y41.015600
G1X1.724700Y40.979300
G1X1.716100Y40.946800
G1X1.715900Y40.946500
G1X1.715700Y40.945700
G1X1.695600Y40.911100
G1X1.680100Y40.884000
G1X1.679600Y40.883600
G1X1.679400Y40.883100
G1X1.653800Y40.857700
G1X1.629000Y40.832700
G1X1.628500Y40.832500
G1X1.492300Y40.696800
G1X1.489900Y39.334200
G1X1.623500Y39.200200
G1X1.624300Y39.199800
G1X1.647100Y39.176500
G1X1.674000Y39.149600
G1X1.674500Y39.148600
G1X1.675000Y39.148200
G1X1.689700Y39.122200
G1X1.710000Y39.086900
G1X1.710200Y39.086000
G1X1.710700Y39.085200
G1X1.719100Y39.052600
G1X1.728700Y39.016900
G1X1.728700Y39.015800
G1X1.728900Y39.015100
G1X1.728600Y38.977600
G1X1.728500Y38.944400
G1X1.728300Y38.943800
G1X1.724900Y38.526400
G1X1.724800Y38.492300
G1X1.724600Y38.491600
G1X1.724600Y38.490600
G1X1.715100Y38.456400
G1X1.706000Y38.422400
G1X1.705500Y38.421600
G1X1.705300Y38.420800
G1X1.689000Y38.393100
G1X1.669700Y38.359800
G1X1.669000Y38.359200
G1X1.668600Y38.358400
G1X1.646500Y38.336700
G1X1.471500Y38.162400
G1X1.469100Y36.799800
G1X1.648500Y36.619900
G1X1.672600Y36.596400
G1X1.673600Y36.594700
G1X1.675100Y36.593200
G1X1.691700Y36.564300
G1X1.709600Y36.534200
G1X1.710200Y36.532000
G1X1.711100Y36.530500
G1X1.719800Y36.497700
G1X1.729200Y36.464500
G1X1.729200Y36.462600
G1X1.729800Y36.460500
G1X1.729700Y36.425200
G1X1.768600Y33.389000
G1X1.769600Y33.385200
G1X1.769100Y33.351700
G1X1.769500Y33.320300
G1X1.768600Y33.316700
G1X1.765200Y33.094800
G1X1.767200Y33.090000
G1X1.768900Y33.075300
G1X1.772800Y33.061500
G1X1.772800Y33.056200
G1X1.860800Y32.851300
G1X1.863200Y32.848200
G1X1.875100Y32.818100
G1X1.887900Y32.788400
G1X1.888400Y32.784500
G1X1.970400Y32.577800
G1X1.974000Y32.574200
G1X1.981400Y32.561000
G1X1.990600Y32.549300
G1X1.992600Y32.544500
G1X2.152000Y32.389100
G1X2.155200Y32.387300
G1X2.176300Y32.365400
G1X2.201000Y32.341500
G1X2.203100Y32.338000
G1X2.357900Y32.178500
G1X2.362500Y32.176600
G1X2.374700Y32.167000
G1X2.388000Y32.159500
G1X2.391500Y32.156000
G1X2.598200Y32.073500
G1X2.602100Y32.073000
G1X2.631800Y32.060100
G1X2.661800Y32.048200
G1X2.664900Y32.045800
G1X2.869000Y31.957600
G1X2.874200Y31.957600
G1X2.888600Y31.953500
G1X2.903700Y31.951700
G1X2.908200Y31.949800
G1X3.130700Y31.952700
G1X3.134500Y31.953700
G1X3.168200Y31.953200
G1X3.199300Y31.953600
G1X3.202800Y31.952700
G1X6.303500Y31.907000
G1X6.340900Y31.906900
G1X6.342600Y31.906400
G1X6.344400Y31.906400
G1X6.376700Y31.897200
G1X6.410800Y31.888100
G1X6.412300Y31.887200
G1X6.414100Y31.886700
G1X6.446700Y31.867200
G1X6.473400Y31.851700
G1X6.474400Y31.850600
G1X6.476200Y31.849600
G1X6.501400Y31.823500
G1X6.677600Y31.646700
G1X8.040200Y31.644300
G1X8.697500Y32.299400
G1X8.708300Y32.313500
G1X8.722800Y32.324600
G1X8.735900Y32.337700
G1X8.751400Y32.346500
G1X8.765700Y32.357600
G1X8.783100Y32.364800
G1X8.798600Y32.373700
G1X8.815600Y32.378200
G1X11.764100Y33.598500
G1X11.776600Y33.606300
G1X11.798300Y33.612700
G1X11.818000Y33.620900
G1X11.832100Y33.622700
G1X11.846000Y33.626900
G1X11.853000Y33.627000
G1X12.054300Y33.717500
G1X12.057600Y33.720100
G1X12.087600Y33.732500
G1X12.116500Y33.745500
G1X12.120600Y33.746100
G1X12.325300Y33.830800
G1X12.330000Y33.835600
G1X12.343100Y33.843200
G1X12.354700Y33.852600
G1X12.360700Y33.855200
G1X12.512400Y34.016200
G1X12.514500Y34.019800
G1X12.537400Y34.042700
G1X12.559200Y34.065800
G1X12.562700Y34.067900
G1X12.719300Y34.224400
G1X12.721900Y34.230800
G1X12.730500Y34.241900
G1X12.737500Y34.255000
G1X12.742400Y34.260100
G1X12.821100Y34.467100
G1X12.821600Y34.471200
G1X12.833700Y34.500300
G1X12.845300Y34.530900
G1X12.847800Y34.534300
G1X12.932400Y34.738500
G1X12.932400Y34.745600
G1X12.936100Y34.759200
G1X12.937500Y34.773400
G1X12.940100Y34.780000
G1X12.933600Y35.000300
G1X12.932500Y35.004400
G1X12.932500Y35.037500
G1X12.931600Y35.068700
G1X12.932500Y35.072600
G1X12.932600Y35.294700
G1X12.930000Y35.300800
G1X12.928100Y35.315400
G1X12.923900Y35.329200
G1X12.923300Y35.350600
G1X12.920300Y35.372600
G1X12.922200Y35.387400
G1X12.893500Y36.371400
G1X12.892100Y36.376600
G1X12.892400Y36.408800
G1X12.891500Y36.438500
G1X12.892700Y36.443400
G1X12.892700Y36.449100
G1X12.901100Y36.479300
G1X12.908100Y36.509000
G1X12.910800Y36.513800
G1X12.912100Y36.518800
G1X12.927400Y36.544700
G1X12.942500Y36.572700
G1X12.946200Y36.576600
G1X12.948900Y36.581200
G1X12.970900Y36.602800
G1X12.992200Y36.625400
G1X12.996800Y36.628200
G1X13.000500Y36.631900
G1X13.027100Y36.646900
G1X13.053800Y36.663400
G1X13.059000Y36.664900
G1X13.063500Y36.667500
G1X13.093200Y36.675100
G1X13.123100Y36.684100
G1X13.128400Y36.684200
G1X13.133600Y36.685600
G1X13.165600Y36.685300
G1X13.195500Y36.686200
G1X13.200400Y36.685000
G1X13.206100Y36.685000
G1X13.236300Y36.676600
G1X13.246800Y36.674100
G1X14.655200Y36.671600
G1X15.024500Y37.039700
G1X15.024500Y37.039800
G1X15.072600Y37.087700
G1X15.075800Y37.090900
G1X15.077700Y37.091900
G1X15.138600Y37.127000
G1X15.207500Y37.145300
G1X15.208500Y37.145600
G1X15.281000Y37.145400
G1X15.283900Y37.144600
G1X15.350900Y37.126600
G1X15.412100Y37.091100
G1X15.413500Y37.090300
G1X15.418700Y37.085000
G1X15.832600Y36.669600
G1X16.165000Y36.669000
G1X16.171900Y36.670500
G1X16.202200Y36.668900
G1X16.230700Y36.668900
G1X16.237100Y36.667100
G1X16.244300Y36.666800
G1X16.273000Y36.657500
G1X16.300500Y36.650100
G1X16.306300Y36.646700
G1X16.313200Y36.644500
G1X16.338100Y36.628300
G1X16.363200Y36.613800
G1X16.368100Y36.608800
G1X16.373900Y36.605100
G1X16.393300Y36.583500
G1X16.414300Y36.562500
G1X16.417700Y36.556400
G1X18.443400Y34.310000
G1X18.452500Y34.303100
G1X18.468100Y34.282700
G1X18.484700Y34.264300
G1X18.489700Y34.254400
G1X18.496500Y34.245600
G1X18.497200Y34.243700
G1X18.554000Y34.187000
G1X18.590200Y34.124300
G1X18.608900Y34.054400
G1X18.608900Y33.981900
G1X18.608900Y30.235000
G1X18.609000Y30.234700
G1X18.608900Y30.198800
G1X18.608900Y30.162700
G1X18.608800Y30.162400
G1X18.608800Y30.162200
G1X18.602600Y30.139400
G1X18.590200Y30.092800
G1X18.590000Y30.092600
G1X18.590000Y30.092300
G1X18.569800Y30.057700
G1X18.554000Y30.030100
G1X18.553800Y30.030000
G1X18.553700Y30.029700
G1X18.528400Y30.004600
G1X18.502800Y29.978900
G1X18.502500Y29.978800
G1X18.502400Y29.978600
G1X18.475400Y29.963100
G1X18.440100Y29.942700
G1X18.439800Y29.942700
G1X18.439600Y29.942500
G1X18.394100Y29.930400
G1X18.370200Y29.924000
G1X18.370000Y29.924000
G1X18.369700Y29.923900
G1X18.333800Y29.924000
G1X18.297700Y29.924000
G1X18.297400Y29.924100
G1X18.297200Y29.924100
G1X18.274400Y29.930300
G1X18.227800Y29.942700
G1X18.227600Y29.942900
G1X18.227300Y29.942900
G1X18.192700Y29.963100
G1X18.165100Y29.978900
G1X18.165000Y29.979100
G1X18.164700Y29.979200
G1X18.138400Y30.005700
G1X18.113900Y30.030100
G1X18.113800Y30.030400
G1X17.655900Y30.490000
G1X16.293300Y30.492400
G1X16.165700Y30.365300
G1X16.163200Y30.361100
G1X16.140600Y30.340200
G1X16.118100Y30.317700
G1X16.113700Y30.315200
G1X16.110200Y30.311900
G1X16.083900Y30.298100
G1X16.055400Y30.281600
G1X16.050200Y30.280300
G1X16.046200Y30.278100
G1X16.017100Y30.271500
G1X15.985400Y30.263000
G1X15.980400Y30.263100
G1X15.975600Y30.261900
G1X15.942900Y30.263200
G1X15.912900Y30.263200
G1X15.908500Y30.264400
G1X13.497900Y30.354300
G1X13.483600Y30.352500
G1X13.462000Y30.355600
G1X13.440000Y30.356400
G1X13.426300Y30.360700
G1X13.411900Y30.362700
G1X13.405600Y30.365400
G1X13.183500Y30.367100
G1X13.179300Y30.366100
G1X13.145400Y30.367400
G1X13.115100Y30.367600
G1X13.111300Y30.368700
G1X12.891000Y30.376900
G1X12.884900Y30.374600
G1X12.871100Y30.373300
G1X12.857000Y30.369600
G1X12.849200Y30.369700
G1X12.642700Y30.285900
G1X12.639100Y30.283300
G1X12.607100Y30.271500
G1X12.579400Y30.260200
G1X12.575400Y30.259800
G1X12.369600Y30.183400
G1X12.364500Y30.178600
G1X12.351700Y30.171900
G1X12.340300Y30.163200
G1X12.333600Y30.160600
G1X12.175600Y30.004800
G1X12.173400Y30.001300
G1X12.150400Y29.980100
G1X12.127100Y29.957000
G1X12.123300Y29.954900
G1X11.961700Y29.805000
G1X11.958700Y29.798400
G1X11.949600Y29.787400
G1X11.942300Y29.775000
G1X11.937100Y29.770000
G1X11.851000Y29.566300
G1X11.850300Y29.562200
G1X11.837100Y29.533500
G1X11.824400Y29.503400
G1X11.821800Y29.500100
G1X11.729600Y29.299200
G1X11.729400Y29.292100
G1X11.725100Y29.278000
G1X11.723000Y29.263400
G1X11.720300Y29.257100
G1X11.718600Y29.036000
G1X11.719600Y29.031800
G1X11.718300Y28.997800
G1X11.718100Y28.967600
G1X11.717000Y28.963900
G1X11.708800Y28.742900
G1X11.711200Y28.736500
G1X11.712500Y28.722300
G1X11.716200Y28.708300
G1X11.716000Y28.686000
G1X11.718100Y28.664300
G1X11.715700Y28.650400
G1X11.665500Y22.033900
G1X11.667600Y22.012400
G1X11.665200Y21.997900
G1X11.665100Y21.983000
G1X11.659300Y21.962100
G1X11.646300Y21.882900
G1X11.655200Y21.845000
G1X11.663900Y21.811600
G1X11.663800Y21.808000
G1X11.664600Y21.804900
G1X11.663600Y21.773200
G1X11.662700Y21.662200
G1X11.732000Y21.491300
G1X11.742500Y21.471800
G1X11.745900Y21.457200
G1X11.751300Y21.443900
G1X11.754000Y21.422500
G1X11.772200Y21.344000
G1X11.796100Y21.310800
G1X11.815800Y21.284800
G1X11.817100Y21.281500
G1X11.819100Y21.278800
G1X11.830500Y21.248500
G1X11.871900Y21.146400
G1X12.001000Y21.015200
G1X12.018000Y21.001400
G1X12.026700Y20.989200
G1X12.036900Y20.978900
G1X12.047500Y20.960200
G1X12.094700Y20.894400
G1X12.127400Y20.874100
G1X12.157900Y20.856200
G1X12.160400Y20.853600
G1X12.163200Y20.851900
G1X12.184300Y20.829300
G1X12.262400Y20.750000
G1X12.432800Y20.678000
G1X12.452900Y20.671900
G1X12.465000Y20.664300
G1X12.479100Y20.658400
G1X12.496600Y20.644700
G1X19.743800Y16.142700
G1X19.765100Y16.132100
G1X19.774800Y16.123500
G1X19.785600Y16.116800
G1X19.801300Y16.099900
G1X19.819300Y16.084100
G1X19.826500Y16.073100
G1X19.835100Y16.064000
G1X19.846200Y16.043200
G1X19.859100Y16.023700
G1X19.863000Y16.011800
G1X19.869300Y16.000200
G1X19.874700Y15.976600
G1X20.089900Y15.331300
G1X20.094400Y15.323500
G1X20.101800Y15.295400
G1X20.110200Y15.270400
G1X20.110700Y15.262100
G1X20.113000Y15.253500
G1X20.112900Y15.225600
G1X20.114600Y15.198000
G1X20.112800Y15.189400
G1X20.112800Y15.181000
G1X20.105800Y15.155000
G1X20.100100Y15.127100
G1X20.096200Y15.119400
G1X20.094000Y15.111100
G1X20.079900Y15.087000
G1X20.067700Y15.062400
G1X20.062000Y15.056100
G1X20.057700Y15.048500
G1X20.038100Y15.029000
G1X20.019700Y15.008200
G1X20.012400Y15.003500
G1X20.006400Y14.997400
G1X19.981900Y14.983400
G1X19.959300Y14.968400
G1X19.951500Y14.965800
G1X19.943700Y14.961300
G1X19.915600Y14.953900
G1X19.890600Y14.945500
G1X19.882300Y14.945000
G1X19.873700Y14.942700
G1X19.845800Y14.942800
G1X19.818200Y14.941100
G1X19.809600Y14.942900
G1X19.801200Y14.942900
G1X19.775200Y14.949900
G1X19.747300Y14.955600
G1X19.739600Y14.959500
G1X19.731300Y14.961700
G1X19.707200Y14.975800
G1X19.682600Y14.988000
G1X19.676300Y14.993700
G1X19.668700Y14.998000
G1X19.666500Y15.000300
G1X18.303900Y15.002700
G1X17.338500Y14.040700
G1X17.336100Y12.678100
G1X17.641900Y12.371300
G1X17.670600Y12.342700
G1X17.670700Y12.342400
G1X17.670900Y12.342300
G1X17.683500Y12.320200
G1X17.706800Y12.280000
G1X17.725500Y12.210100
G1X17.725500Y12.209900
G1X17.725600Y12.209600
G1X17.725500Y12.173000
G1X17.725500Y12.137600
G1X17.725400Y12.137300
G1X17.725400Y12.137200
G1X17.723800Y12.131600
G1X17.706800Y12.067700
G1X17.706600Y12.067500
G1X17.706600Y12.067300
G1X17.694900Y12.047100
G1X17.670600Y12.005000
G1X17.670400Y12.004900
G1X17.670300Y12.004600
G1X17.644200Y11.978700
G1X17.619400Y11.953800
G1X17.619100Y11.953700
G1X17.619000Y11.953500
G1X17.596900Y11.940900
G1X17.556700Y11.917600
G1X17.486800Y11.898900
G1X17.486600Y11.898900
G1X17.486300Y11.898800
G1X17.449700Y11.898900
G1X8.210400Y11.898900
G1X8.207500Y11.898600
G1X8.188900Y11.893700
G1X8.172200Y11.893900
G1X8.155300Y11.891600
G1X8.135700Y11.894200
G1X5.974800Y11.912900
G1X5.959300Y11.910600
G1X5.938700Y11.913200
G1X5.917800Y11.913300
G1X5.902600Y11.917600
G1X5.887400Y11.919400
G1X5.868300Y11.927100
G1X5.848100Y11.932700
G1X5.834800Y11.940600
G1X5.820200Y11.946400
G1X5.803700Y11.958900
G1X5.785700Y11.969400
G1X5.774800Y11.980600
G1X5.762300Y11.989900
G1X5.749500Y12.006300
G1X5.735000Y12.021000
G1X5.727400Y12.034500
G1X5.717700Y12.046800
G1X5.709600Y12.066000
G1X5.699300Y12.084000
G1X5.695500Y12.099100
G1X5.689300Y12.113400
G1X5.686400Y12.134200
G1X5.681200Y12.154100
G1X5.681400Y12.169500
G1X5.679100Y12.185100
G1X5.681700Y12.206000
G1X5.681800Y12.226600
G1X5.686000Y12.241400
G1X5.837000Y13.485200
G1X5.837000Y13.505300
G1X5.841400Y13.521400
G1X5.843300Y13.537600
G1X5.850600Y13.555500
G1X5.855800Y13.575200
G1X5.864300Y13.589800
G1X5.870300Y13.604800
G1X5.882000Y13.620300
G1X5.892100Y13.637800
G1X5.904000Y13.649600
G1X5.913800Y13.662700
G1X5.929300Y13.674800
G1X6.220800Y13.965200
G1X6.223100Y15.327800
G1X5.261200Y16.293200
G1X3.898600Y16.295600
G1X2.933200Y15.333600
G1X2.930800Y13.971000
G1X2.967700Y13.934000
G1X2.981000Y13.924100
G1X2.993200Y13.908500
G1X3.007100Y13.894600
G1X3.015300Y13.880300
G1X3.025600Y13.867200
G1X3.033500Y13.848600
G1X3.043200Y13.831800
G1X3.047400Y13.816000
G1X3.054000Y13.800600
G1X3.056800Y13.781000
G1X3.061900Y13.761900
G1X3.061800Y13.745300
G1X3.064200Y13.728900
G1X3.061700Y13.708700
G1X3.061700Y13.689400
G1X3.057500Y13.674000
G1X2.755100Y11.182700
G1X2.753100Y11.153000
G1X2.750600Y11.145600
G1X2.749700Y11.138400
G1X2.739200Y11.112500
G1X2.709700Y11.026100
G1X2.708600Y11.017300
G1X2.698200Y10.992400
G1X2.689300Y10.966100
G1X2.684300Y10.958700
G1X2.609600Y10.778600
G1X2.608900Y10.767300
G1X2.608900Y10.740000
G1X2.606400Y10.730800
G1X2.605800Y10.721600
G1X2.597400Y10.697100
G1X2.594200Y10.685200
G1X2.606500Y10.492100
G1X2.608900Y10.483300
G1X2.608900Y10.455100
G1X2.610600Y10.428400
G1X2.608900Y10.419900
G1X2.608900Y4.333100
G1X2.611200Y4.318200
G1X2.608900Y4.297200
G1X2.608900Y4.275900
G1X2.604900Y4.261100
G1X2.603300Y4.246200
G1X2.603000Y4.245500
G1X2.608000Y4.020100
G1X2.608900Y4.017000
G1X2.608900Y3.982200
G1X2.609600Y3.950700
G1X2.608900Y3.947900
G1X2.608900Y3.723200
G1X2.609100Y3.722800
G1X2.611100Y3.707600
G1X2.615500Y3.692600
G1X2.615500Y3.692100
G1X2.705200Y3.488300
G1X2.707200Y3.485800
G1X2.720100Y3.454600
G1X2.733200Y3.424900
G1X2.733600Y3.421800
G1X2.820300Y3.212500
G1X2.820800Y3.212100
G1X2.829000Y3.198000
G1X2.838600Y3.185800
G1X2.998300Y3.033100
G1X3.001100Y3.031500
G1X3.025300Y3.007300
G1X3.048500Y2.985100
G1X3.050000Y2.982500
G1X3.211700Y2.820900
G1X3.212200Y2.820700
G1X3.224700Y2.811100
G1X3.238900Y2.803300
G1X3.238900Y2.803200
G1X3.446500Y2.722700
G1X3.449500Y2.722300
G1X3.478700Y2.710100
G1X3.510900Y2.697700
G1X3.513500Y2.695700
G1X3.723200Y2.608900
G1X3.724100Y2.608900
G1X3.738500Y2.605000
G1X3.753700Y2.603400
G1X3.773700Y2.595600
G1X3.794000Y2.590200
G1X3.806900Y2.582700
G1X6.718200Y1.451900
G1X6.721600Y1.451500
G1X6.753200Y1.438300
G1X6.783000Y1.426800
G1X6.784000Y1.426000
G1X6.798700Y1.422100
G1X6.814800Y1.412700
G1X6.831400Y1.405900
G1X6.845400Y1.395100
G1X6.861400Y1.385900
G1X6.874500Y1.372700
G1X6.888800Y1.361800
G1X6.899600Y1.347600
G1X6.912600Y1.334700
G1X6.921800Y1.318700
G1X6.932800Y1.304400
G1X6.939600Y1.287800
G1X6.948800Y1.272000
G1X6.953500Y1.254300
G1X6.960500Y1.237500
G1X6.962800Y1.219400
G1X6.967500Y1.202100
G1X6.967500Y1.184000
G1X6.969900Y1.165600
G1X6.967500Y1.147500
G1X6.967500Y1.129600
G1X6.962800Y1.112100
G1X6.960400Y1.093900
G1X6.953500Y1.077400
G1X6.948800Y1.059700
G1X6.939400Y1.043600
