(This GCode generated with outlines_gcode_excel_mirrored.ulp program)
(running under Eagle CAD.)
(Use with mechanical etching/engraving bits, such as the)
(Think&Tinker Mechanical Etching Bit with 60-degree tip angle)
(X/Y/Z home should be at lower left corner of the board, with the tip just touching)
(C:/Users/Owner/Documents/eagle/nixieclock_power/untitledpattern_bot_1mm.nc layer 16)

(mm, Absolute mode, lift cutter above work, rapid to X/Y home, turn spindle on.)
G90
G0Z0.500
G0X0Y0
M03

(Begin)
G0Z0.500
G0X6.077600Y25.146800
G1Z-0.100 f25
G1X6.820300Y24.401500 f200
G1X7.872300Y24.399700
G1X8.617600Y25.142400
G1X8.619400Y26.194400
G1X7.876700Y26.939700
G1X6.824800Y26.941500
G1X6.079400Y26.198800
G1X6.077600Y25.146800

G0Z0.500
G0X6.831400Y26.925500
G1Z-0.100 f25
G1X7.870000Y26.923600 f200
G1X8.603400Y26.187800
G1X8.601500Y25.149200
G1X7.865700Y24.415800
G1X6.827100Y24.417700
G1X6.093700Y25.153500
G1X6.095600Y26.192100
G1X6.831400Y26.925500

G0Z0.500
G0X23.195500Y41.983900
G1Z-0.100 f25
G1X23.211700Y42.000000 f200
G1X21.901400Y42.000000
G1X21.708200Y42.038400
G1X21.526300Y42.113800
G1X21.362500Y42.223200
G1X21.244800Y42.341000
G1X21.244600Y42.242700
G1X21.265300Y42.193000
G1X21.265400Y42.192300
G1X21.265600Y42.191900
G1X21.276500Y42.136500
G1X21.302000Y42.136500
G1X21.364300Y42.136500
G1X21.364700Y42.136400
G1X21.365300Y42.136400
G1X21.428200Y42.123700
G1X21.489800Y42.111500
G1X21.490200Y42.111300
G1X21.490800Y42.111200
G1X21.550300Y42.086400
G1X21.797700Y41.983900
G1X23.195500Y41.983900

G0Z0.500
G0X19.706900Y43.878900
G1Z-0.100 f25
G1X17.783800Y45.802000 f200
G1X17.783700Y45.779100
G1X19.683800Y43.879000
G1X19.706900Y43.878900

G0Z0.500
G0X18.013900Y43.237100
G1Z-0.100 f25
G1X17.998200Y43.275100 f200
G1X17.979800Y43.311800
G1X17.973700Y43.334100
G1X17.964900Y43.355300
G1X17.956900Y43.395800
G1X17.956300Y43.397700
G1X17.915400Y43.458800
G1X17.889900Y43.491600
G1X17.879800Y43.512000
G1X17.867100Y43.530800
G1X17.851200Y43.569100
G1X17.818400Y43.634700
G1X17.817100Y43.636000
G1X17.786000Y43.662900
G1X17.772000Y43.681000
G1X17.755500Y43.697400
G1X17.732400Y43.732000
G1X17.731300Y43.733400
G1X17.670200Y43.774100
G1X17.634200Y43.794600
G1X17.617000Y43.809600
G1X17.598000Y43.822200
G1X17.568800Y43.851400
G1X17.513200Y43.899600
G1X17.511800Y43.900200
G1X17.472300Y43.913300
G1X17.452400Y43.924700
G1X17.431200Y43.933400
G1X17.396700Y43.956500
G1X17.361100Y43.976700
G1X17.344000Y43.991600
G1X16.311500Y44.680000
G1X16.282400Y44.680000
G1X17.525600Y43.851300
G1X17.580700Y43.819900
G1X17.607300Y43.796800
G1X17.636600Y43.777300
G1X17.681300Y43.732600
G1X17.729500Y43.690900
G1X17.751200Y43.662900
G1X17.776000Y43.638200
G1X17.811100Y43.585700
G1X17.850300Y43.535300
G1X17.866100Y43.503700
G1X17.885600Y43.474600
G1X17.909900Y43.415900
G1X18.737300Y41.761200
G1X19.374100Y41.467900
G1X19.341700Y41.500400
G1X18.988500Y41.663100
G1X18.962000Y41.671900
G1X18.931200Y41.689500
G1X18.898100Y41.704700
G1X18.875200Y41.721400
G1X18.850700Y41.735300
G1X18.823400Y41.759100
G1X18.794500Y41.780000
G1X18.775500Y41.800700
G1X18.754000Y41.819200
G1X18.732000Y41.847600
G1X18.707600Y41.873900
G1X18.692900Y41.897900
G1X18.675500Y41.920300
G1X18.659200Y41.952900
G1X18.640700Y41.983100
G1X18.631200Y42.009100
G1X18.026800Y43.218000
G1X18.013900Y43.237100

G0Z0.500
G0X24.532600Y42.000000
G1Z-0.100 f25
G1X24.548800Y41.983900 f200
G1X24.606200Y41.983900
G1X24.731800Y41.958900
G1X24.735200Y41.957500
G1X24.850100Y41.909900
G1X24.954300Y41.840200
G1X24.956500Y41.838800
G1X25.047000Y41.748300
G1X25.118100Y41.641800
G1X25.167100Y41.523600
G1X25.192100Y41.398000
G1X25.192100Y41.269900
G1X25.167100Y41.144300
G1X25.165500Y41.140500
G1X25.125600Y41.044300
G1X25.125500Y40.991100
G1X25.223200Y41.137400
G1X26.085900Y42.000000
G1X24.532600Y42.000000

G0Z0.500
G0X4.067900Y65.996600
G1Z-0.100 f25
G1X4.811900Y66.740600 f200
G1X4.811900Y67.792600
G1X4.067900Y68.536600
G1X3.015900Y68.536600
G1X2.271900Y67.792600
G1X2.271900Y66.740600
G1X3.015900Y65.996600
G1X4.067900Y65.996600

G0Z0.500
G0X3.022600Y68.520600
G1Z-0.100 f25
G1X4.061300Y68.520600 f200
G1X4.795900Y67.786000
G1X4.795900Y66.747300
G1X4.061300Y66.012700
G1X3.022600Y66.012700
G1X2.288000Y66.747300
G1X2.288000Y67.786000
G1X3.022600Y68.520600

G0Z0.500
G0X9.173900Y95.249300
G1Z-0.100 f25
G1X9.173900Y94.210600 f200
G1X8.652300Y93.689000
G1X8.652300Y93.674600
G1X8.655300Y93.634000
G1X8.652300Y93.609700
G1X8.652300Y92.270200
G1X10.506700Y90.415800
G1X10.578100Y90.309000
G1X10.627200Y90.190300
G1X10.652300Y90.064200
G1X10.652300Y89.935700
G1X10.652300Y69.270200
G1X13.295600Y66.626900
G1X17.438800Y66.626900
G1X17.350600Y66.715000
G1X17.350600Y67.753700
G1X18.085200Y68.488300
G1X19.123900Y68.488300
G1X19.783000Y67.829100
G1X20.006100Y68.052200
G1X19.883400Y68.172600
G1X19.880800Y68.174300
G1X19.837100Y68.218100
G1X19.793800Y68.260500
G1X19.792100Y68.263000
G1X19.789900Y68.265200
G1X19.754600Y68.318100
G1X19.721400Y68.366700
G1X19.720300Y68.369400
G1X19.718500Y68.372000
G1X19.694200Y68.430900
G1X19.671200Y68.484900
G1X19.670600Y68.487900
G1X19.669400Y68.490700
G1X19.657700Y68.549500
G1X19.644900Y68.610700
G1X19.644900Y68.614000
G1X19.644300Y68.616800
G1X19.644300Y68.675100
G1X19.643700Y68.739300
G1X19.644300Y68.742400
G1X19.644300Y71.390900
G1X12.044600Y78.969100
G1X12.044100Y78.969400
G1X11.988700Y79.024900
G1X11.953800Y79.059600
G1X11.953600Y79.059900
G1X11.953200Y79.060300
G1X11.896700Y79.144900
G1X11.882300Y79.166300
G1X11.882300Y79.166500
G1X11.881800Y79.167100
G1X11.857700Y79.225500
G1X11.832900Y79.284900
G1X11.832800Y79.285700
G1X11.832700Y79.285800
G1X11.828300Y79.308000
G1X11.807700Y79.410900
G1X11.807700Y79.411400
G1X11.807600Y79.411900
G1X11.807600Y79.475900
G1X11.807500Y79.539500
G1X11.807600Y79.539800
G1X11.800600Y89.819500
G1X10.007800Y91.618800
G1X9.953200Y91.673300
G1X9.952800Y91.673900
G1X9.952500Y91.674200
G1X9.931800Y91.705300
G1X9.881800Y91.780100
G1X9.881400Y91.781100
G1X9.881300Y91.781200
G1X9.866200Y91.818000
G1X9.832700Y91.898800
G1X9.832600Y91.899300
G1X9.832300Y91.900000
G1X9.818200Y91.972000
G1X9.807600Y92.024900
G1X9.807600Y92.025500
G1X9.807500Y92.026000
G1X9.807600Y92.089600
G1X9.807600Y93.609000
G1X9.206000Y94.210600
G1X9.206000Y95.249300
G1X9.313800Y95.357000
G1X9.065200Y95.357900
G1X9.173900Y95.249300

G0Z0.500
G0X11.430700Y68.514400
G1Z-0.100 f25
G1X11.398100Y68.547000 f200
G1X11.364400Y68.577100
G1X11.353400Y68.591700
G1X10.813400Y69.131700
G1X10.742300Y69.238200
G1X10.693300Y69.356400
G1X10.668300Y69.482000
G1X10.668300Y69.610100
G1X10.668300Y78.723900
G1X10.668200Y78.724400
G1X10.668300Y78.787700
G1X10.668300Y78.851500
G1X10.668400Y78.852000
G1X10.668400Y78.852500
G1X10.680800Y78.913900
G1X10.693300Y78.977100
G1X10.693500Y78.977500
G1X10.693600Y78.978100
G1X10.716700Y79.033500
G1X10.742300Y79.095300
G1X10.742700Y79.095800
G1X10.742800Y79.096200
G1X10.785300Y79.159700
G1X10.813400Y79.201800
G1X10.813600Y79.202000
G1X10.814000Y79.202600
G1X10.874000Y79.262400
G1X10.903900Y79.292300
G1X10.904200Y79.292500
G1X10.904700Y79.293000
G1X10.970500Y79.336700
G1X11.010400Y79.363400
G1X11.010800Y79.363500
G1X11.011300Y79.363900
G1X11.072900Y79.389300
G1X11.128600Y79.412400
G1X11.129200Y79.412500
G1X11.129600Y79.412700
G1X11.192300Y79.425100
G1X11.254200Y79.437400
G1X11.254700Y79.437400
G1X11.255200Y79.437500
G1X11.318500Y79.437400
G1X11.382300Y79.437400
G1X11.382800Y79.437300
G1X11.383300Y79.437300
G1X11.444700Y79.424900
G1X11.507900Y79.412400
G1X11.508300Y79.412200
G1X11.508900Y79.412100
G1X11.564300Y79.389000
G1X11.626100Y79.363400
G1X11.626600Y79.363000
G1X11.627000Y79.362900
G1X11.690500Y79.320400
G1X11.732600Y79.292300
G1X11.732800Y79.292100
G1X11.733400Y79.291700
G1X11.793200Y79.231700
G1X11.823100Y79.201800
G1X11.823300Y79.201500
G1X11.823800Y79.201000
G1X11.867500Y79.135200
G1X11.891900Y79.098600
G1X11.898900Y79.091700
G1X11.899400Y79.091400
G1X11.934200Y79.056500
G1X11.989100Y79.001900
G1X11.989500Y79.001200
G1X12.126100Y78.864600
G1X12.127800Y78.863500
G1X12.163700Y78.827700
G1X12.200300Y78.794200
G1X12.208500Y78.783000
G1X19.392100Y71.619600
G1X19.392600Y71.619300
G1X19.446400Y71.565400
G1X19.482500Y71.529500
G1X19.482700Y71.529200
G1X19.483100Y71.528800
G1X19.510500Y71.487600
G1X19.553800Y71.423200
G1X19.554100Y71.422400
G1X19.554200Y71.422300
G1X19.560100Y71.408000
G1X19.603000Y71.305000
G1X19.603100Y71.304100
G1X19.603200Y71.304100
G1X19.607900Y71.280200
G1X19.628100Y71.179400
G1X19.628100Y71.178900
G1X19.628200Y71.178500
G1X19.628200Y71.116100
G1X19.628300Y71.051300
G1X19.628200Y71.050800
G1X19.628200Y69.090200
G1X19.603200Y68.964600
G1X19.554200Y68.846400
G1X19.483100Y68.739900
G1X19.392600Y68.649400
G1X19.286100Y68.578300
G1X19.167900Y68.529300
G1X19.042300Y68.504300
G1X18.914200Y68.504300
G1X18.078500Y68.504300
G1X17.334500Y67.760300
G1X17.334500Y67.228800
G1X17.309500Y67.103200
G1X17.260500Y66.985000
G1X17.189400Y66.878500
G1X17.098900Y66.788000
G1X16.992400Y66.716900
G1X16.874200Y66.667900
G1X16.748600Y66.642900
G1X16.620500Y66.642900
G1X13.507400Y66.642900
G1X13.381800Y66.667900
G1X13.346300Y66.682700
G1X13.263600Y66.716800
G1X13.200700Y66.759000
G1X13.157100Y66.788000
G1X13.066600Y66.878500
G1X13.066500Y66.878800
G1X12.509200Y67.435900
G1X12.501500Y67.441300
G1X12.463500Y67.481600
G1X12.425000Y67.520000
G1X12.419900Y67.527700
G1X12.413600Y67.534300
G1X12.384700Y67.580400
G1X12.353900Y67.626400
G1X12.350400Y67.635000
G1X12.345500Y67.642700
G1X12.325900Y67.694100
G1X12.304900Y67.744700
G1X12.303200Y67.753600
G1X12.299800Y67.762300
G1X12.290700Y67.816100
G1X12.279900Y67.870200
G1X12.279900Y67.879700
G1X12.278400Y67.888500
G1X12.279900Y67.943400
G1X12.279900Y67.998400
G1X12.281700Y68.007100
G1X12.281900Y68.016600
G1X12.294700Y68.072300
G1X12.304900Y68.123900
G1X12.308300Y68.132000
G1X12.310400Y68.141400
G1X12.333200Y68.192300
G1X12.353800Y68.242200
G1X12.359000Y68.249800
G1X12.362700Y68.258300
G1X12.395500Y68.304400
G1X12.425000Y68.348600
G1X12.431200Y68.354800
G1X12.436800Y68.362700
G1X12.477700Y68.401300
G1X12.515500Y68.439200
G1X12.523200Y68.444300
G1X12.529800Y68.450600
G1X12.575900Y68.479500
G1X12.621900Y68.510300
G1X12.630500Y68.513800
G1X12.638200Y68.518700
G1X12.689600Y68.538300
G1X12.740200Y68.559300
G1X12.749100Y68.561000
G1X12.757800Y68.564400
G1X12.811600Y68.573500
G1X12.865700Y68.584300
G1X12.875200Y68.584300
G1X12.884000Y68.585800
G1X12.938900Y68.584300
G1X12.993900Y68.584300
G1X13.002600Y68.582500
G1X13.012100Y68.582300
G1X13.068000Y68.569500
G1X13.119400Y68.559300
G1X13.127400Y68.555900
G1X13.590700Y68.450200
G1X14.132700Y68.573900
G1X14.567400Y68.920600
G1X14.808600Y69.421400
G1X14.808600Y69.977600
G1X14.567400Y70.478400
G1X14.132700Y70.825100
G1X13.590600Y70.948800
G1X13.048500Y70.825100
G1X12.613800Y70.478400
G1X12.372600Y69.977600
G1X12.372600Y69.421600
G1X12.410900Y69.342200
G1X12.421000Y69.327100
G1X12.438200Y69.285500
G1X12.458300Y69.243900
G1X12.462900Y69.225900
G1X12.470000Y69.208900
G1X12.479000Y69.163700
G1X12.490300Y69.119900
G1X12.491300Y69.101600
G1X12.495000Y69.083300
G1X12.495000Y69.037600
G1X12.497600Y68.992000
G1X12.495000Y68.973600
G1X12.495000Y68.955200
G1X12.486100Y68.910400
G1X12.479700Y68.865200
G1X12.473600Y68.847800
G1X12.470000Y68.829600
G1X12.452600Y68.787700
G1X12.437500Y68.744400
G1X12.428000Y68.728300
G1X12.421000Y68.711400
G1X12.395900Y68.673800
G1X12.372500Y68.634100
G1X12.360200Y68.620400
G1X12.349900Y68.604900
G1X12.317300Y68.572300
G1X12.287200Y68.538600
G1X12.272600Y68.527600
G1X12.259400Y68.514400
G1X12.221500Y68.489100
G1X12.185000Y68.461600
G1X12.168100Y68.453500
G1X12.152900Y68.443300
G1X12.111200Y68.426000
G1X12.069700Y68.406000
G1X12.051700Y68.401400
G1X12.034700Y68.394300
G1X11.989500Y68.385300
G1X11.945700Y68.374000
G1X11.927400Y68.373000
G1X11.909100Y68.369300
G1X11.863400Y68.369300
G1X11.817800Y68.366700
G1X11.799400Y68.369300
G1X11.781000Y68.369300
G1X11.736200Y68.378200
G1X11.691000Y68.384600
G1X11.673600Y68.390700
G1X11.655400Y68.394300
G1X11.613500Y68.411700
G1X11.570200Y68.426800
G1X11.554100Y68.436300
G1X11.537200Y68.443300
G1X11.499600Y68.468400
G1X11.459900Y68.491800
G1X11.446200Y68.504100
G1X11.430700Y68.514400

G0Z0.500
G0X11.713900Y95.249300
G1Z-0.100 f25
G1X11.713900Y94.210600 f200
G1X11.112300Y93.609000
G1X11.112300Y92.358600
G1X12.897000Y90.567400
G1X12.959100Y90.505400
G1X12.959700Y90.504500
G1X12.960100Y90.504100
G1X12.988300Y90.461700
G1X13.030500Y90.398600
G1X13.030800Y90.397800
G1X13.031300Y90.397100
G1X13.056800Y90.335100
G1X13.079800Y90.279900
G1X13.079900Y90.279100
G1X13.080300Y90.278300
G1X13.091500Y90.221200
G1X13.105000Y90.153900
G1X13.105000Y90.152800
G1X13.105100Y90.152300
G1X13.105000Y90.107600
G1X13.112100Y79.747100
G1X20.712000Y72.168600
G1X20.712500Y72.168400
G1X20.761800Y72.119000
G1X20.802800Y72.078200
G1X20.803000Y72.077800
G1X20.803400Y72.077500
G1X20.853600Y72.002200
G1X20.874300Y71.971500
G1X20.874400Y71.971300
G1X20.874800Y71.970700
G1X20.897000Y71.916900
G1X20.923700Y71.852900
G1X20.923800Y71.852000
G1X20.923900Y71.852000
G1X20.925700Y71.842800
G1X20.948900Y71.726900
G1X20.948900Y71.726300
G1X20.949000Y71.725900
G1X20.949000Y71.669700
G1X20.949100Y71.598300
G1X20.949000Y71.597800
G1X20.949000Y71.111600
G1X20.994500Y71.111600
G1X21.140700Y77.314600
G1X16.993200Y77.347600
G1X16.935700Y77.347600
G1X16.933400Y77.348100
G1X16.930500Y77.348100
G1X16.865600Y77.361600
G1X16.809600Y77.372700
G1X16.807400Y77.373600
G1X16.804600Y77.374200
G1X16.746800Y77.398700
G1X16.690900Y77.421800
G1X16.688700Y77.423300
G1X16.686300Y77.424300
G1X16.639300Y77.456400
G1X16.584100Y77.493200
G1X16.582000Y77.495300
G1X16.580100Y77.496600
G1X16.538400Y77.539000
G1X14.493200Y79.584100
G1X14.421800Y79.690900
G1X14.372700Y79.809600
G1X14.347600Y79.935700
G1X14.347600Y80.064200
G1X14.347600Y90.729700
G1X12.584100Y92.493200
G1X12.493200Y92.584100
G1X12.421800Y92.690900
G1X12.372700Y92.809600
G1X12.347600Y92.935700
G1X12.347600Y93.609100
G1X11.746000Y94.210600
G1X11.746000Y95.249300
G1X11.845000Y95.348200
G1X11.614100Y95.349000
G1X11.713900Y95.249300

G0Z0.500
G0X19.969400Y72.931600
G1Z-0.100 f25
G1X19.963600Y72.937500 f200
G1X19.956900Y72.942100
G1X19.918800Y72.982200
G1X16.714800Y76.177100
G1X16.712100Y76.178900
G1X16.666200Y76.225600
G1X16.626200Y76.265400
G1X16.624700Y76.267800
G1X16.622300Y76.270100
G1X16.586500Y76.324800
G1X16.554900Y76.371700
G1X16.553800Y76.374400
G1X16.552000Y76.377100
G1X16.529700Y76.432300
G1X16.505700Y76.489900
G1X16.505100Y76.493300
G1X16.504000Y76.495800
G1X16.492800Y76.554600
G1X16.480600Y76.615500
G1X16.480600Y76.618400
G1X16.480000Y76.621500
G1X16.480500Y76.684800
G1X16.480400Y76.743600
G1X16.481000Y76.746500
G1X16.481000Y76.749700
G1X16.493600Y76.810000
G1X16.505200Y76.869200
G1X16.506400Y76.872000
G1X16.507000Y76.875000
G1X16.530500Y76.930400
G1X16.554000Y76.987500
G1X16.555700Y76.990000
G1X16.556900Y76.992900
G1X16.591300Y77.043400
G1X16.625000Y77.094100
G1X16.627300Y77.096300
G1X16.628900Y77.098800
G1X16.674200Y77.143300
G1X16.715400Y77.184700
G1X16.717800Y77.186200
G1X16.720100Y77.188600
G1X16.774800Y77.224400
G1X16.821700Y77.256000
G1X16.824400Y77.257100
G1X16.827100Y77.258900
G1X16.882300Y77.281200
G1X16.939900Y77.305200
G1X16.943300Y77.305800
G1X16.945800Y77.306900
G1X17.004600Y77.318100
G1X17.065500Y77.330300
G1X17.068400Y77.330300
G1X17.071500Y77.330900
G1X17.134000Y77.330400
G1X17.193600Y77.330500
G1X17.196500Y77.329900
G1X20.405400Y77.304400
G1X20.410100Y77.305300
G1X20.465900Y77.303900
G1X20.528100Y77.303500
G1X20.533300Y77.302400
G1X20.538200Y77.302300
G1X20.594500Y77.289700
G1X20.653400Y77.277500
G1X20.658000Y77.275500
G1X20.663100Y77.274400
G1X20.715600Y77.251100
G1X20.771300Y77.227600
G1X20.775700Y77.224500
G1X20.780200Y77.222600
G1X20.827000Y77.189600
G1X20.877200Y77.155600
G1X20.880700Y77.151900
G1X20.885000Y77.149000
G1X20.924800Y77.107100
G1X20.967000Y77.064400
G1X20.969900Y77.059900
G1X20.973300Y77.056400
G1X21.002800Y77.009800
G1X21.037300Y76.957400
G1X21.039300Y76.952200
G1X21.041900Y76.948300
G1X21.062200Y76.895600
G1X21.085300Y76.838700
G1X21.086200Y76.833600
G1X21.088100Y76.828900
G1X21.097900Y76.772500
G1X21.109300Y76.713000
G1X21.109200Y76.707600
G1X21.110100Y76.702800
G1X21.108700Y76.647000
G1X21.108300Y76.584800
G1X21.107200Y76.579500
G1X21.033000Y73.430400
G1X21.033100Y73.373900
G1X21.031400Y73.365800
G1X21.031300Y73.357700
G1X21.019200Y73.303800
G1X21.008300Y73.248300
G1X21.005100Y73.240800
G1X21.003400Y73.232800
G1X20.981200Y73.182800
G1X20.959500Y73.130000
G1X20.954800Y73.123000
G1X20.951600Y73.115700
G1X20.920100Y73.070900
G1X20.888500Y73.023400
G1X20.882600Y73.017600
G1X20.878000Y73.010900
G1X20.837300Y72.972200
G1X20.798100Y72.932800
G1X20.791300Y72.928300
G1X20.785400Y72.922600
G1X20.738800Y72.893100
G1X20.691800Y72.861500
G1X20.684000Y72.858300
G1X20.677300Y72.854000
G1X20.627200Y72.834700
G1X20.573600Y72.812300
G1X20.565100Y72.810700
G1X20.557900Y72.807800
G1X20.504100Y72.798500
G1X20.448000Y72.787200
G1X20.439700Y72.787200
G1X20.431800Y72.785800
G1X20.376700Y72.787100
G1X20.319900Y72.787000
G1X20.311800Y72.788700
G1X20.303700Y72.788800
G1X20.249800Y72.800900
G1X20.194300Y72.811800
G1X20.186800Y72.815000
G1X20.178800Y72.816700
G1X20.128800Y72.838900
G1X20.076000Y72.860600
G1X20.069000Y72.865300
G1X20.061700Y72.868500
G1X20.016900Y72.900000
G1X19.969400Y72.931600

G0Z0.500
G0X22.129900Y66.629600
G1Z-0.100 f25
G1X22.284200Y66.629700 f200
G1X22.287300Y66.630300
G1X22.348400Y66.629700
G1X22.405000Y66.629800
G1X22.407800Y66.629200
G1X22.410900Y66.629200
G1X22.471500Y66.616600
G1X22.500300Y66.610900
G1X22.412800Y66.698400
G1X22.206300Y66.705900
G1X22.129900Y66.629600

G0Z0.500
G0X19.857300Y66.713900
G1Z-0.100 f25
G1X19.771300Y66.627800 f200
G1X19.943200Y66.628000
G1X19.857300Y66.713900

G0Z0.500
G0X21.564400Y68.603700
G1Z-0.100 f25
G1X21.306600Y68.603700 f200
G1X21.348600Y68.562600
G1X21.555100Y68.562600
G1X22.102500Y68.015200
G1X22.494700Y68.000900
G1X23.056400Y68.562600
G1X23.068200Y68.562600
G1X23.083100Y68.603700
G1X23.065700Y68.603700
G1X22.356500Y69.313000
G1X22.280500Y69.319900
G1X21.564400Y68.603700

G0Z0.500
G0X24.331500Y94.825900
G1Z-0.100 f25
G1X24.331500Y91.575800 f200
G1X24.306500Y91.450200
G1X24.257500Y91.332000
G1X24.186400Y91.225500
G1X24.095900Y91.135000
G1X23.989400Y91.063900
G1X23.871200Y91.014900
G1X23.745600Y90.989900
G1X23.617500Y90.989900
G1X22.254200Y90.989900
G1X22.128600Y91.014900
G1X22.010400Y91.063900
G1X21.903900Y91.135000
G1X21.813400Y91.225500
G1X21.742300Y91.332000
G1X21.693300Y91.450200
G1X21.668300Y91.575800
G1X21.668300Y91.703900
G1X21.668300Y95.581400
G1X21.665200Y95.619100
G1X21.668300Y95.645900
G1X21.668300Y95.672500
G1X21.675600Y95.709300
G1X21.679900Y95.746300
G1X21.688100Y95.771600
G1X21.693300Y95.798100
G1X21.707500Y95.832400
G1X21.719000Y95.868200
G1X21.732200Y95.891900
G1X21.742300Y95.916300
G1X21.762900Y95.947000
G1X21.781200Y95.980100
G1X21.798600Y96.000500
G1X21.813400Y96.022800
G1X21.840000Y96.049300
G1X21.864000Y96.077700
G1X21.884900Y96.094300
G1X21.903900Y96.113300
G1X21.934700Y96.133800
G1X21.964200Y96.157300
G1X21.988500Y96.169800
G1X22.010400Y96.184400
G1X22.044500Y96.198500
G1X22.078100Y96.215800
G1X22.104100Y96.223200
G1X22.128600Y96.233400
G1X22.134500Y96.234500
G1X22.138400Y96.236200
G1X22.174800Y96.243400
G1X22.211000Y96.253800
G1X22.213000Y96.253900
G1X22.236400Y96.277300
G1X22.170500Y96.277300
G1X22.136600Y96.274300
G1X22.109000Y96.277300
G1X22.081200Y96.277300
G1X22.047800Y96.284000
G1X21.559300Y96.337000
G1X21.578100Y96.309000
G1X21.627200Y96.190300
G1X21.652300Y96.064200
G1X21.652300Y90.973900
G1X24.237000Y90.973900
G1X24.363100Y90.948800
G1X24.372100Y90.945000
G1X24.664000Y90.939800
G1X24.584100Y90.993200
G1X24.493200Y91.084100
G1X24.421800Y91.190900
G1X24.372700Y91.309600
G1X24.347600Y91.435700
G1X24.347600Y94.842100
G1X24.331500Y94.825900

G0Z0.500
G0X20.013700Y50.209200
G1Z-0.100 f25
G1X20.013700Y51.099700 f200
G1X19.981600Y51.131800
G1X19.981600Y50.209200
G1X19.622200Y49.849900
G1X20.373100Y49.849900
G1X20.013700Y50.209200

G0Z0.500
G0X24.321200Y72.377000
G1Z-0.100 f25
G1X24.312400Y72.348600 f200
G1X24.306500Y72.319100
G1X24.293300Y72.287400
G1X24.085100Y71.617400
G1X24.079300Y71.587900
G1X24.066200Y71.556300
G1X24.056000Y71.523500
G1X24.041600Y71.497100
G1X24.030300Y71.469700
G1X24.011400Y71.441500
G1X23.994900Y71.411000
G1X23.975700Y71.388000
G1X23.959200Y71.363200
G1X23.934800Y71.338900
G1X23.913000Y71.312600
G1X23.889900Y71.294000
G1X23.868700Y71.272700
G1X23.840000Y71.253600
G1X23.813500Y71.232100
G1X23.787000Y71.218200
G1X23.762200Y71.201600
G1X23.730600Y71.188500
G1X23.700200Y71.172500
G1X23.671500Y71.164000
G1X23.644000Y71.152600
G1X23.610100Y71.145900
G1X23.577500Y71.136200
G1X23.548000Y71.133500
G1X23.518400Y71.127600
G1X23.483700Y71.127600
G1X23.449900Y71.124500
G1X23.420500Y71.127600
G1X23.037500Y71.127600
G1X23.030100Y71.126300
G1X22.974600Y71.127600
G1X22.917300Y71.127600
G1X22.909700Y71.129100
G1X22.902000Y71.129300
G1X22.846800Y71.141700
G1X22.791700Y71.152600
G1X22.784700Y71.155500
G1X22.777100Y71.157200
G1X22.724900Y71.180300
G1X22.673500Y71.201600
G1X22.667200Y71.205900
G1X22.660000Y71.209000
G1X22.613600Y71.241600
G1X22.567000Y71.272700
G1X22.561600Y71.278100
G1X22.555200Y71.282600
G1X22.516200Y71.323500
G1X22.476500Y71.363200
G1X22.472200Y71.369700
G1X22.466900Y71.375200
G1X22.436400Y71.423300
G1X22.405400Y71.469700
G1X22.402500Y71.476700
G1X22.398300Y71.483300
G1X22.377800Y71.536200
G1X22.356400Y71.587900
G1X22.354900Y71.595500
G1X22.352100Y71.602700
G1X22.342500Y71.657800
G1X22.331400Y71.713500
G1X22.331400Y71.721400
G1X22.330100Y71.728800
G1X22.331400Y71.784000
G1X22.331400Y71.841600
G1X22.333000Y71.849300
G1X22.446500Y76.671900
G1X22.445400Y76.721600
G1X22.448100Y76.736600
G1X22.448400Y76.751500
G1X22.459200Y76.799500
G1X22.467600Y76.847600
G1X22.473000Y76.861300
G1X22.476300Y76.876400
G1X22.496300Y76.921600
G1X22.513900Y76.967000
G1X22.522000Y76.979700
G1X22.528100Y76.993500
G1X22.556300Y77.033600
G1X22.582600Y77.075000
G1X22.592900Y77.085800
G1X22.601700Y77.098300
G1X22.637400Y77.132300
G1X22.671000Y77.167500
G1X22.683400Y77.176200
G1X22.694300Y77.186600
G1X22.735400Y77.212700
G1X22.775900Y77.241100
G1X22.789900Y77.247200
G1X22.802400Y77.255200
G1X22.847600Y77.272600
G1X22.893000Y77.292700
G1X22.907900Y77.296000
G1X22.921800Y77.301400
G1X22.969700Y77.309700
G1X23.018000Y77.320500
G1X23.033300Y77.320800
G1X23.047900Y77.323400
G1X23.096300Y77.322300
G1X23.442600Y77.330100
G1X23.449700Y77.331500
G1X23.505500Y77.331500
G1X23.563200Y77.332800
G1X23.570500Y77.331500
G1X23.640700Y77.331500
G1X23.703400Y77.359200
G1X23.709700Y77.363400
G1X23.762400Y77.385200
G1X23.813800Y77.407900
G1X23.821100Y77.409500
G1X23.885800Y77.436300
G1X23.933300Y77.486000
G1X23.937300Y77.492100
G1X23.976000Y77.530700
G1X24.016300Y77.573000
G1X24.022700Y77.577400
G1X25.362900Y78.917700
G1X25.363000Y78.917800
G1X25.469400Y78.988900
G1X25.552100Y79.023000
G1X25.587600Y79.037800
G1X25.713200Y79.062800
G1X25.841300Y79.062800
G1X25.841400Y79.062800
G1X25.959700Y79.039200
G1X25.966900Y79.037800
G1X25.970300Y79.036400
G1X26.085200Y78.988800
G1X26.189400Y78.919100
G1X26.191600Y78.917700
G1X26.282100Y78.827200
G1X26.282100Y78.827100
G1X26.456800Y78.652400
G1X27.508800Y78.652400
G1X28.329500Y79.473100
G1X28.329500Y79.473200
G1X28.402100Y79.545700
G1X28.420000Y79.563700
G1X28.526400Y79.634800
G1X28.644700Y79.683800
G1X28.770300Y79.708800
G1X28.898400Y79.708800
G1X28.905500Y79.707400
G1X29.024000Y79.683800
G1X29.142300Y79.634800
G1X29.246500Y79.565100
G1X29.248700Y79.563700
G1X29.339200Y79.473200
G1X29.410300Y79.366800
G1X29.459300Y79.248500
G1X29.484300Y79.122900
G1X29.484300Y78.994800
G1X29.484200Y73.098700
G1X29.459200Y72.973100
G1X29.410200Y72.854800
G1X29.339100Y72.748400
G1X29.248600Y72.657900
G1X29.142100Y72.586800
G1X29.023900Y72.537800
G1X28.898300Y72.512800
G1X28.770200Y72.512800
G1X28.644600Y72.537800
G1X28.526300Y72.586800
G1X28.419900Y72.657900
G1X28.329400Y72.748400
G1X28.329400Y72.748500
G1X27.499400Y73.578500
G1X26.447400Y73.578500
G1X25.990900Y73.122000
G1X25.884400Y73.050900
G1X25.766200Y73.001900
G1X25.640600Y72.976900
G1X25.512500Y72.976900
G1X25.229500Y72.976900
G1X25.195400Y72.973800
G1X25.166000Y72.976900
G1X25.135900Y72.976900
G1X25.102200Y72.983700
G1X25.074500Y72.986600
G1X25.032900Y72.982800
G1X25.003700Y72.976900
G1X24.969100Y72.976900
G1X24.935100Y72.973800
G1X24.905700Y72.976900
G1X24.863500Y72.976900
G1X24.836700Y72.971600
G1X24.809400Y72.963500
G1X24.772600Y72.944200
G1X24.747600Y72.927400
G1X24.715700Y72.914300
G1X24.685700Y72.898400
G1X24.657200Y72.890000
G1X24.618000Y72.873800
G1X24.595100Y72.858400
G1X24.573300Y72.840800
G1X24.546800Y72.809000
G1X24.530000Y72.783700
G1X24.505400Y72.759200
G1X24.484000Y72.733400
G1X24.461000Y72.714900
G1X24.430800Y72.684700
G1X24.415200Y72.661200
G1X24.402100Y72.637300
G1X24.389600Y72.596800
G1X24.383700Y72.567300
G1X24.370600Y72.535900
G1X24.360500Y72.503100
G1X24.346100Y72.476600
G1X24.330200Y72.438300
G1X24.324700Y72.410900
G1X24.321200Y72.377000

G0Z0.500
G0X21.996700Y99.142700
G1Z-0.100 f25
G1X22.041400Y99.034600 f200
G1X22.045700Y99.024400
G1X22.070700Y98.898800
G1X22.070700Y98.311700
G1X22.073800Y98.276700
G1X22.070700Y98.248200
G1X22.070700Y98.219200
G1X22.063800Y98.184700
G1X22.060000Y98.149400
G1X22.051300Y98.121800
G1X22.045700Y98.093600
G1X22.032200Y98.061200
G1X22.021600Y98.027300
G1X22.007600Y98.001900
G1X21.996700Y97.975400
G1X21.977000Y97.946100
G1X21.960100Y97.915000
G1X21.941700Y97.893100
G1X21.925600Y97.868900
G1X21.900500Y97.843800
G1X21.877900Y97.816800
G1X21.855400Y97.798800
G1X21.835100Y97.778400
G1X21.806000Y97.759100
G1X21.778200Y97.736600
G1X21.752000Y97.723000
G1X21.728600Y97.707300
G1X21.696500Y97.694100
G1X21.664700Y97.677400
G1X21.636800Y97.669300
G1X21.610400Y97.658300
G1X21.575500Y97.651400
G1X21.541800Y97.641500
G1X21.513300Y97.639000
G1X21.484800Y97.633300
G1X21.449200Y97.633300
G1X21.414200Y97.630200
G1X21.385700Y97.633300
G1X21.356700Y97.633300
G1X21.322000Y97.640300
G1X19.546700Y97.833000
G1X19.517900Y97.833000
G1X19.483500Y97.839900
G1X19.448100Y97.843700
G1X19.420500Y97.852400
G1X19.392300Y97.858000
G1X19.359900Y97.871500
G1X19.326000Y97.882100
G1X19.300600Y97.896100
G1X19.274100Y97.907000
G1X19.244800Y97.926600
G1X19.213700Y97.943600
G1X19.191800Y97.962000
G1X19.167600Y97.978100
G1X19.142600Y98.003200
G1X19.115500Y98.025800
G1X19.097400Y98.048300
G1X18.725400Y98.420300
G1X18.724000Y98.422500
G1X18.654300Y98.526700
G1X18.606800Y98.641600
G1X18.605300Y98.645000
G1X18.580300Y98.770600
G1X18.580300Y98.898700
G1X18.605300Y99.024300
G1X18.654300Y99.142500
G1X18.725400Y99.249000
G1X18.815900Y99.339500
G1X18.818100Y99.340900
G1X18.922300Y99.410600
G1X19.037200Y99.458100
G1X19.040600Y99.459600
G1X19.166200Y99.484600
G1X19.191900Y99.484600
G1X21.356700Y99.484700
G1X21.484800Y99.484700
G1X21.610400Y99.459700
G1X21.728600Y99.410700
G1X21.835100Y99.339600
G1X21.925600Y99.249100
G1X21.929800Y99.242700
G1X21.996700Y99.142700

G0Z0.500
G0X24.025500Y14.164900
G1Z-0.100 f25
G1X23.993800Y14.137400 f200
G1X23.964700Y14.108400
G1X23.946100Y14.096000
G1X23.928800Y14.081000
G1X23.892600Y14.060400
G1X23.858100Y14.037400
G1X23.836900Y14.028700
G1X23.817500Y14.017600
G1X23.778800Y14.004700
G1X23.739800Y13.988600
G1X23.717300Y13.984200
G1X23.696100Y13.977100
G1X23.655000Y13.971900
G1X23.614200Y13.963900
G1X23.591500Y13.963900
G1X23.569100Y13.961100
G1X23.527900Y13.964000
G1X23.486100Y13.964100
G1X23.463700Y13.968600
G1X23.441300Y13.970200
G1X23.401800Y13.981000
G1X23.360500Y13.989300
G1X23.339400Y13.998100
G1X23.317800Y14.004000
G1X23.280600Y14.022600
G1X23.242400Y14.038500
G1X23.223900Y14.051000
G1X23.203300Y14.061200
G1X23.170400Y14.086800
G1X23.136000Y14.109800
G1X23.120000Y14.125900
G1X23.102200Y14.139700
G1X23.074900Y14.171200
G1X23.045700Y14.200500
G1X23.033300Y14.219100
G1X23.018300Y14.236400
G1X22.997700Y14.272600
G1X22.974700Y14.307100
G1X22.966000Y14.328300
G1X22.954900Y14.347700
G1X22.942100Y14.386300
G1X22.925900Y14.425400
G1X22.921500Y14.448100
G1X21.998800Y17.216200
G1X21.986300Y17.243600
G1X21.978600Y17.276700
G1X21.967800Y17.309000
G1X21.964000Y17.339000
G1X21.943300Y17.427700
G1X21.935400Y17.438700
G1X21.921300Y17.469800
G1X21.904000Y17.500100
G1X21.899700Y17.513200
G1X21.840400Y17.581600
G1X21.818100Y17.602400
G1X21.798000Y17.630500
G1X21.776000Y17.655800
G1X21.761300Y17.681700
G1X21.707900Y17.756100
G1X21.696200Y17.763300
G1X21.670700Y17.787200
G1X21.643800Y17.808000
G1X21.635000Y17.818300
G1X21.553700Y17.858900
G1X21.525400Y17.869500
G1X21.496600Y17.887500
G1X21.466200Y17.902600
G1X21.442400Y17.921100
G1X14.444700Y22.268100
G1X14.432400Y22.273300
G1X14.391000Y22.301500
G1X14.347300Y22.328600
G1X14.337300Y22.338000
G1X14.326500Y22.345300
G1X14.291900Y22.380500
G1X14.253800Y22.416100
G1X14.245800Y22.427300
G1X14.236700Y22.436500
G1X14.209100Y22.478500
G1X14.179200Y22.520100
G1X14.173800Y22.532100
G1X14.166300Y22.543400
G1X14.147200Y22.590700
G1X14.126300Y22.636700
G1X14.123200Y22.650000
G1X14.118300Y22.662100
G1X14.108800Y22.711900
G1X14.097200Y22.761400
G1X14.096800Y22.774500
G1X14.094200Y22.787800
G1X14.094600Y22.839100
G1X14.092900Y22.889400
G1X14.095100Y22.902500
G1X14.127600Y27.182600
G1X14.126100Y27.192000
G1X14.128100Y27.244600
G1X14.128500Y27.300600
G1X14.130600Y27.310500
G1X14.130900Y27.320000
G1X14.143200Y27.371700
G1X14.154400Y27.426000
G1X14.158300Y27.435000
G1X14.160500Y27.444600
G1X14.183200Y27.493900
G1X14.204300Y27.543900
G1X14.209900Y27.552000
G1X14.213900Y27.560900
G1X14.245900Y27.605000
G1X14.276300Y27.649800
G1X14.283200Y27.656600
G1X14.289000Y27.664600
G1X14.329900Y27.702500
G1X14.367500Y27.739600
G1X14.375300Y27.744700
G1X14.382800Y27.751700
G1X14.429300Y27.780300
G1X14.474400Y27.810000
G1X14.483800Y27.813700
G1X14.491900Y27.818800
G1X14.543300Y27.837800
G1X14.593100Y27.858000
G1X14.602500Y27.859800
G1X14.611900Y27.863300
G1X14.665000Y27.871800
G1X14.718800Y27.882100
G1X14.729100Y27.882000
G1X14.738300Y27.883500
G1X14.790600Y27.881500
G1X14.846900Y27.881100
G1X14.856800Y27.879000
G1X15.173100Y27.867200
G1X15.227200Y27.867100
G1X15.239000Y27.864700
G1X15.250000Y27.864300
G1X15.299900Y27.852400
G1X15.352700Y27.841800
G1X15.363200Y27.837400
G1X15.374600Y27.834700
G1X15.423500Y27.812200
G1X15.470800Y27.792500
G1X15.480100Y27.786200
G1X15.490900Y27.781300
G1X15.533600Y27.750300
G1X15.577100Y27.721200
G1X15.585400Y27.712800
G1X15.594600Y27.706200
G1X15.630100Y27.667900
G1X15.667400Y27.630500
G1X15.673700Y27.621000
G1X15.681700Y27.612400
G1X15.709500Y27.567200
G1X15.738300Y27.523900
G1X15.742600Y27.513200
G1X15.748800Y27.503300
G1X15.767400Y27.453200
G1X15.787000Y27.405500
G1X15.789200Y27.394400
G1X15.793300Y27.383300
G1X15.801700Y27.330700
G1X15.811700Y27.279900
G1X15.811700Y27.268200
G1X15.813500Y27.256900
G1X15.811600Y27.205800
G1X15.811500Y27.151700
G1X15.809100Y27.139900
G1X15.808700Y27.128900
G1X15.796800Y27.079000
G1X15.786200Y27.026200
G1X15.781800Y27.015700
G1X15.779100Y27.004300
G1X15.756600Y26.955400
G1X15.736900Y26.908100
G1X15.730600Y26.898800
G1X15.725700Y26.888000
G1X15.698100Y26.850000
G1X15.696300Y25.782400
G1X16.439000Y25.037100
G1X17.490900Y25.035300
G1X17.889200Y25.432400
G1X17.919600Y25.462800
G1X17.919900Y25.463000
G1X17.920400Y25.463500
G1X17.987300Y25.507900
G1X18.026100Y25.533900
G1X18.026500Y25.534000
G1X18.027000Y25.534400
G1X18.080700Y25.556500
G1X18.144300Y25.582900
G1X18.145100Y25.583000
G1X18.145400Y25.583200
G1X18.197100Y25.593400
G1X18.269900Y25.607900
G1X18.270500Y25.607900
G1X18.271000Y25.608000
G1X18.335800Y25.607900
G1X18.398000Y25.607900
G1X18.398400Y25.607800
G1X18.399100Y25.607800
G1X18.467600Y25.594000
G1X18.523600Y25.582900
G1X18.524000Y25.582700
G1X18.524600Y25.582600
G1X18.593000Y25.554100
G1X18.641800Y25.533900
G1X18.642100Y25.533600
G1X18.642800Y25.533400
G1X18.696600Y25.497300
G1X18.748300Y25.462800
G1X18.748800Y25.462300
G1X18.749100Y25.462100
G1X18.795000Y25.416100
G1X18.838800Y25.372300
G1X18.839000Y25.372000
G1X18.839500Y25.371500
G1X18.883900Y25.304600
G1X18.909900Y25.265800
G1X18.910000Y25.265400
G1X18.910400Y25.264900
G1X18.932500Y25.211200
G1X18.958900Y25.147600
G1X18.959000Y25.146800
G1X18.959200Y25.146500
G1X18.969400Y25.094800
G1X18.983900Y25.022000
G1X18.983900Y25.021400
G1X18.984000Y25.020900
G1X18.983900Y24.956100
G1X18.983900Y24.080900
G1X18.985700Y24.069900
G1X18.983900Y24.018700
G1X18.983900Y23.964700
G1X18.981600Y23.953200
G1X18.976700Y23.815100
G1X19.030700Y23.684900
G1X19.036800Y23.675100
G1X19.055000Y23.626200
G1X19.075200Y23.577600
G1X19.077400Y23.566100
G1X19.125500Y23.437300
G1X19.225500Y23.337400
G1X19.234900Y23.330700
G1X19.270600Y23.292300
G1X19.307800Y23.255200
G1X19.314200Y23.245500
G1X23.651500Y18.591300
G1X23.689500Y18.553200
G1X23.695600Y18.544000
G1X23.703100Y18.536000
G1X23.730500Y18.491600
G1X23.760500Y18.446700
G1X23.764700Y18.436200
G1X23.770400Y18.427200
G1X23.788800Y18.377600
G1X23.809200Y18.328300
G1X23.811300Y18.317600
G1X23.815200Y18.307200
G1X23.823900Y18.253700
G1X23.834000Y18.202700
G1X23.833900Y18.192000
G1X23.835800Y18.180900
G1X23.833800Y18.127200
G1X23.833600Y17.998700
G1X24.576300Y17.253400
G1X25.786300Y17.251400
G1X25.911800Y17.226200
G1X26.030000Y17.177000
G1X26.136300Y17.105700
G1X26.226700Y17.015000
G1X26.297700Y16.908500
G1X26.346400Y16.790100
G1X26.371200Y16.664500
G1X26.371000Y16.536400
G1X26.370900Y16.536400
G1X26.368900Y15.296300
G1X26.343700Y15.170800
G1X26.294500Y15.052600
G1X26.223200Y14.946300
G1X26.132500Y14.855900
G1X26.026000Y14.784900
G1X25.907600Y14.736200
G1X25.782000Y14.711400
G1X25.653900Y14.711600
G1X25.653900Y14.711700
G1X24.571900Y14.713500
G1X24.039500Y14.183000
G1X24.025500Y14.164900

G0Z0.500
G0X26.366700Y14.124400
G1Z-0.100 f25
G1X26.391900Y14.249900 f200
G1X26.441100Y14.368100
G1X26.512400Y14.474400
G1X26.603100Y14.564800
G1X26.709600Y14.635800
G1X26.828000Y14.684500
G1X26.953600Y14.709300
G1X27.081700Y14.709100
G1X28.163800Y14.707200
G1X28.365400Y14.908100
G1X28.418700Y14.961500
G1X28.419300Y14.961900
G1X28.419600Y14.962200
G1X28.483900Y15.005000
G1X28.525200Y15.032600
G1X28.525500Y15.032700
G1X28.526200Y15.033200
G1X28.617700Y15.070900
G1X28.643400Y15.081600
G1X28.643700Y15.081600
G1X28.644500Y15.082000
G1X28.720800Y15.097000
G1X28.769000Y15.106600
G1X28.769600Y15.106600
G1X28.770100Y15.106700
G1X28.834900Y15.106600
G1X28.897100Y15.106600
G1X28.897500Y15.106500
G1X28.898200Y15.106500
G1X28.973600Y15.091300
G1X29.022700Y15.081600
G1X29.023000Y15.081400
G1X29.023800Y15.081300
G1X29.089200Y15.054000
G1X29.141000Y15.032600
G1X29.141500Y15.032200
G1X29.141900Y15.032100
G1X29.196500Y14.995400
G1X29.247400Y14.961500
G1X29.247700Y14.961200
G1X29.248300Y14.960800
G1X29.293800Y14.915100
G1X29.337900Y14.871000
G1X29.338300Y14.870400
G1X29.338600Y14.870100
G1X29.381400Y14.805800
G1X29.409000Y14.764500
G1X29.409100Y14.764200
G1X29.409600Y14.763500
G1X29.447300Y14.672000
G1X29.458000Y14.646300
G1X29.458000Y14.646000
G1X29.458400Y14.645200
G1X29.473400Y14.568900
G1X29.483000Y14.520700
G1X29.483000Y14.520100
G1X29.483100Y14.519600
G1X29.483000Y14.453700
G1X29.482900Y10.910100
G1X29.483000Y10.909700
G1X29.482900Y10.847500
G1X29.482900Y10.782800
G1X29.482800Y10.782300
G1X29.482800Y10.781600
G1X29.467000Y10.703000
G1X29.457900Y10.657200
G1X29.457700Y10.656900
G1X29.457600Y10.656100
G1X29.426100Y10.580500
G1X29.408900Y10.538900
G1X29.408600Y10.538600
G1X29.408400Y10.537900
G1X29.363800Y10.471400
G1X29.337800Y10.432500
G1X29.337500Y10.432200
G1X29.337100Y10.431600
G1X29.277100Y10.371800
G1X29.247300Y10.342000
G1X29.247000Y10.341800
G1X29.246400Y10.341200
G1X29.167300Y10.288600
G1X29.140800Y10.270900
G1X29.140500Y10.270800
G1X29.139800Y10.270300
G1X29.062600Y10.238500
G1X29.022600Y10.221900
G1X29.022100Y10.221800
G1X29.021400Y10.221500
G1X28.954400Y10.208300
G1X28.897000Y10.196900
G1X28.896300Y10.196900
G1X28.895800Y10.196800
G1X28.832500Y10.196900
G1X28.768900Y10.196900
G1X28.768400Y10.197000
G1X28.767700Y10.197000
G1X28.689100Y10.212800
G1X28.643300Y10.221900
G1X28.643000Y10.222100
G1X28.642200Y10.222200
G1X28.566600Y10.253700
G1X28.525000Y10.270900
G1X28.524700Y10.271200
G1X28.524000Y10.271400
G1X28.457500Y10.316000
G1X28.418600Y10.342000
G1X28.418300Y10.342300
G1X28.417700Y10.342700
G1X28.362800Y10.397800
G1X28.328100Y10.432500
G1X28.327900Y10.432900
G1X27.574200Y11.189300
G1X26.522900Y11.191100
G1X26.519900Y11.186800
G1X26.478800Y11.147700
G1X26.438900Y11.107900
G1X26.432800Y11.103900
G1X26.427200Y11.098500
G1X26.378400Y11.067700
G1X26.332300Y11.036900
G1X26.325400Y11.034100
G1X26.319000Y11.030000
G1X26.267100Y11.010100
G1X26.214000Y10.988100
G1X26.206300Y10.986600
G1X26.199600Y10.984000
G1X26.144800Y10.974500
G1X26.088400Y10.963400
G1X26.080900Y10.963400
G1X26.073400Y10.962100
G1X26.016800Y10.963500
G1X25.960300Y10.963600
G1X25.955200Y10.964700
G1X25.915700Y10.964700
G1X25.908200Y10.966200
G1X25.900800Y10.966400
G1X25.847400Y10.978400
G1X25.790200Y10.989900
G1X25.783000Y10.992900
G1X25.775900Y10.994500
G1X25.724800Y11.017100
G1X25.672000Y11.039100
G1X25.665900Y11.043200
G1X25.658900Y11.046300
G1X25.613300Y11.078500
G1X25.565700Y11.110400
G1X25.560200Y11.116000
G1X25.554300Y11.120100
G1X25.516900Y11.159400
G1X25.475300Y11.201100
G1X25.471100Y11.207500
G1X25.466000Y11.212800
G1X25.436000Y11.260300
G1X25.404400Y11.307700
G1X25.401600Y11.314600
G1X25.397500Y11.321000
G1X25.377200Y11.373800
G1X25.355600Y11.426100
G1X25.354200Y11.433600
G1X25.351500Y11.440400
G1X25.341800Y11.496200
G1X25.330900Y11.551700
G1X25.330900Y11.559100
G1X25.329600Y11.566600
G1X25.331000Y11.623200
G1X25.331100Y11.679800
G1X25.332600Y11.687300
G1X25.332800Y11.694700
G1X25.344800Y11.748100
G1X25.356300Y11.805300
G1X25.359300Y11.812500
G1X25.360900Y11.819600
G1X25.383500Y11.870700
G1X25.405500Y11.923500
G1X25.409600Y11.929600
G1X25.412700Y11.936600
G1X25.444900Y11.982200
G1X25.476800Y12.029800
G1X25.482400Y12.035300
G1X25.486500Y12.041200
G1X25.526100Y12.078800
G1X26.364700Y12.914500
G1X26.366700Y14.124400

G0Z0.500
G0X29.482700Y1.447700
G1Z-0.100 f25
G1X29.482700Y1.447200 f200
G1X29.482800Y1.446700
G1X29.482700Y1.381900
G1X29.482700Y1.230000
G1X29.482700Y1.101900
G1X29.457700Y0.976300
G1X29.408700Y0.858100
G1X29.337600Y0.751600
G1X29.247100Y0.661100
G1X29.140600Y0.590000
G1X29.022400Y0.541000
G1X28.896800Y0.516000
G1X28.677900Y0.516000
G1X28.677400Y0.515900
G1X28.614000Y0.516000
G1X28.550300Y0.516000
G1X28.549800Y0.516100
G1X28.549200Y0.516100
G1X28.482000Y0.529600
G1X28.424700Y0.541000
G1X28.424300Y0.541200
G1X28.423700Y0.541300
G1X28.356800Y0.569200
G1X28.306500Y0.590000
G1X28.306200Y0.590300
G1X28.305500Y0.590500
G1X28.252500Y0.626100
G1X28.200000Y0.661100
G1X28.199500Y0.661600
G1X28.199200Y0.661800
G1X28.154700Y0.706400
G1X28.109500Y0.751600
G1X28.109300Y0.751900
G1X28.108800Y0.752400
G1X28.065100Y0.818200
G1X28.038400Y0.858100
G1X28.038300Y0.858500
G1X28.037900Y0.859000
G1X28.012500Y0.920600
G1X27.989400Y0.976300
G1X27.989300Y0.976900
G1X27.989100Y0.977300
G1X27.976800Y1.040000
G1X27.964400Y1.101900
G1X27.964400Y1.102400
G1X27.964300Y1.102900
G1X27.964400Y1.166300
G1X27.964400Y1.230000
G1X27.964500Y1.230500
G1X27.964500Y1.231100
G1X27.978000Y1.298300
G1X27.989400Y1.355600
G1X27.989600Y1.356000
G1X27.989700Y1.356600
G1X28.017600Y1.423500
G1X28.038400Y1.473800
G1X28.038700Y1.474100
G1X28.038900Y1.474800
G1X28.074500Y1.527800
G1X28.109500Y1.580300
G1X28.110000Y1.580800
G1X28.110200Y1.581100
G1X28.144000Y1.614800
G1X28.200000Y1.670800
G1X28.200500Y1.671100
G1X28.385400Y1.855500
G1X28.418400Y1.888500
G1X28.418700Y1.888700
G1X28.419200Y1.889200
G1X28.486100Y1.933600
G1X28.524900Y1.959600
G1X28.525300Y1.959700
G1X28.525800Y1.960100
G1X28.588600Y1.986000
G1X28.643100Y2.008600
G1X28.643700Y2.008700
G1X28.644100Y2.008900
G1X28.708300Y2.021500
G1X28.768700Y2.033600
G1X28.769200Y2.033600
G1X28.769700Y2.033700
G1X28.834500Y2.033600
G1X28.896800Y2.033600
G1X28.897200Y2.033500
G1X28.897900Y2.033500
G1X28.966400Y2.019700
G1X29.022400Y2.008600
G1X29.022800Y2.008400
G1X29.023400Y2.008300
G1X29.091800Y1.979800
G1X29.140600Y1.959600
G1X29.140900Y1.959300
G1X29.141600Y1.959100
G1X29.195400Y1.922900
G1X29.247100Y1.888500
G1X29.247600Y1.888000
G1X29.247900Y1.887800
G1X29.293800Y1.841800
G1X29.337600Y1.798000
G1X29.337800Y1.797700
G1X29.338300Y1.797200
G1X29.382700Y1.730300
G1X29.408700Y1.691500
G1X29.408800Y1.691100
G1X29.409200Y1.690600
G1X29.435100Y1.627800
G1X29.457700Y1.573300
G1X29.457800Y1.572700
G1X29.458000Y1.572300
G1X29.470600Y1.508100
G1X29.482700Y1.447700

G0Z0.500
G0X21.907700Y47.068700
G1Z-0.100 f25
G1X21.852700Y47.014000 f200
G1X21.817900Y46.979100
G1X21.817500Y46.978900
G1X21.106000Y46.270000
G1X21.050700Y46.214600
G1X21.050000Y46.214200
G1X21.049800Y46.213900
G1X20.988100Y46.172900
G1X20.944200Y46.143500
G1X20.943900Y46.143400
G1X20.943200Y46.142900
G1X20.853500Y46.105900
G1X20.826000Y46.094500
G1X20.825700Y46.094500
G1X20.824900Y46.094100
G1X20.750000Y46.079400
G1X20.700400Y46.069500
G1X20.699700Y46.069500
G1X20.699300Y46.069400
G1X20.636600Y46.069500
G1X20.572300Y46.069500
G1X20.571800Y46.069600
G1X20.571100Y46.069600
G1X20.493200Y46.085300
G1X20.446700Y46.094500
G1X20.446400Y46.094700
G1X20.445600Y46.094800
G1X20.354900Y46.132600
G1X20.328500Y46.143500
G1X20.328400Y46.143700
G1X20.327400Y46.144000
G1X20.253600Y46.193600
G1X20.222000Y46.214600
G1X20.221700Y46.214900
G1X20.221100Y46.215300
G1X20.176700Y46.260000
G1X19.367000Y47.069600
G1X19.295900Y47.176100
G1X19.246900Y47.294300
G1X19.221900Y47.419900
G1X19.221900Y47.548000
G1X19.246900Y47.673600
G1X19.295900Y47.791800
G1X19.367000Y47.898300
G1X19.457500Y47.988800
G1X19.564000Y48.059900
G1X19.682200Y48.108900
G1X19.807800Y48.133900
G1X19.935900Y48.133900
G1X21.340100Y48.133900
G1X21.340600Y48.134000
G1X21.404000Y48.133900
G1X21.467600Y48.133900
G1X21.468100Y48.133800
G1X21.468800Y48.133800
G1X21.547400Y48.118000
G1X21.593200Y48.108900
G1X21.593500Y48.108700
G1X21.594300Y48.108600
G1X21.685700Y48.070500
G1X21.711400Y48.059900
G1X21.711500Y48.059700
G1X21.712500Y48.059400
G1X21.786700Y48.009500
G1X21.817900Y47.988800
G1X21.818200Y47.988500
G1X21.818800Y47.988100
G1X21.863600Y47.943100
G1X21.908400Y47.898300
G1X21.908800Y47.897700
G1X21.909100Y47.897400
G1X21.950700Y47.834800
G1X21.979500Y47.791800
G1X21.979600Y47.791500
G1X21.980100Y47.790800
G1X22.017300Y47.700500
G1X22.028500Y47.673600
G1X22.028500Y47.673300
G1X22.028900Y47.672500
G1X22.043700Y47.597100
G1X22.053500Y47.548000
G1X22.053500Y47.547400
G1X22.053600Y47.546900
G1X22.053500Y47.483500
G1X22.053500Y47.419900
G1X22.053400Y47.419400
G1X22.053400Y47.418700
G1X22.037600Y47.340100
G1X22.028500Y47.294300
G1X22.028300Y47.294000
G1X22.028200Y47.293200
G1X21.990100Y47.201800
G1X21.979500Y47.176100
G1X21.979300Y47.176000
G1X21.979000Y47.175000
G1X21.929100Y47.100800
G1X21.908400Y47.069600
G1X21.908100Y47.069300
G1X21.907700Y47.068700

G0Z0.500
G0X8.669000Y65.941900
G1Z-0.100 f25
G1X9.360600Y66.633500 f200
G1X9.360600Y67.188900
G1X9.385600Y67.314500
G1X9.387000Y67.317900
G1X9.434600Y67.432800
G1X9.504300Y67.537000
G1X9.505700Y67.539200
G1X9.596200Y67.629700
G1X9.702700Y67.700800
G1X9.820900Y67.749800
G1X9.946500Y67.774800
G1X10.074600Y67.774800
G1X10.200200Y67.749800
G1X10.203600Y67.748400
G1X10.318500Y67.700800
G1X10.422700Y67.631100
G1X10.424900Y67.629700
G1X10.515400Y67.539200
G1X10.515400Y67.539100
G1X12.621300Y65.433100
G1X12.866800Y65.331500
G1X13.132900Y65.331500
G1X13.133800Y65.331900
G1X13.259300Y65.356900
G1X13.387400Y65.356900
G1X16.457700Y65.356900
G1X16.583300Y65.331900
G1X16.701500Y65.282900
G1X16.808000Y65.211800
G1X16.898500Y65.121300
G1X16.969600Y65.014800
G1X17.018600Y64.896600
G1X17.043600Y64.771000
G1X17.043600Y64.642900
G1X17.018600Y64.517300
G1X16.969600Y64.399100
G1X16.898500Y64.292600
G1X16.808000Y64.202100
G1X7.105200Y54.499400
G1X7.104800Y54.498800
G1X7.059900Y54.454100
G1X7.015000Y54.409200
G1X7.014400Y54.408800
G1X7.014100Y54.408500
G1X6.951500Y54.366900
G1X6.908500Y54.338100
G1X6.908200Y54.338000
G1X6.907500Y54.337500
G1X6.817200Y54.300300
G1X6.790300Y54.289100
G1X6.790000Y54.289100
G1X6.789200Y54.288700
G1X6.718500Y54.274800
G1X6.664700Y54.264100
G1X6.664000Y54.264100
G1X6.663500Y54.264000
G1X6.600200Y54.264100
G1X6.536600Y54.264100
G1X6.536100Y54.264200
G1X6.535400Y54.264200
G1X6.456800Y54.280000
G1X6.411000Y54.289100
G1X6.410700Y54.289300
G1X6.409900Y54.289400
G1X6.318500Y54.327500
G1X6.292800Y54.338100
G1X6.292700Y54.338300
G1X6.291700Y54.338600
G1X6.217500Y54.388500
G1X6.186300Y54.409200
G1X6.186000Y54.409500
G1X6.185400Y54.409900
G1X6.140600Y54.454900
G1X6.095800Y54.499700
G1X6.095400Y54.500300
G1X6.095100Y54.500600
G1X6.053500Y54.563200
G1X6.024700Y54.606200
G1X6.024600Y54.606500
G1X6.024100Y54.607200
G1X5.986900Y54.697500
G1X5.975700Y54.724400
G1X5.975700Y54.724700
G1X5.975300Y54.725500
G1X5.961400Y54.796200
G1X5.950700Y54.850000
G1X5.950700Y54.850700
G1X5.950600Y54.851200
G1X5.950700Y54.908200
G1X5.950700Y54.978100
G1X5.950900Y54.978700
G1X5.951400Y55.308900
G1X5.949800Y55.318400
G1X5.951500Y55.373000
G1X5.951600Y55.427400
G1X5.953500Y55.436800
G1X5.953800Y55.446500
G1X5.966100Y55.499200
G1X5.976800Y55.552900
G1X5.980600Y55.561900
G1X5.982700Y55.571200
G1X6.005200Y55.620900
G1X6.026000Y55.671100
G1X6.031300Y55.678900
G1X6.035300Y55.687900
G1X6.067600Y55.733000
G1X6.097300Y55.777400
G1X6.104000Y55.784000
G1X8.245300Y58.781600
G1X8.276700Y58.828700
G1X8.284300Y58.836200
G1X8.289800Y58.844000
G1X8.327300Y58.879100
G1X8.366700Y58.918500
G1X8.376200Y58.939600
G1X8.397100Y58.990300
G1X8.403100Y58.999200
G1X8.407200Y59.008400
G1X8.437600Y59.050900
G1X8.452000Y59.072500
G1X8.464000Y59.123900
G1X8.474500Y59.177100
G1X8.478500Y59.186500
G1X8.480700Y59.196400
G1X8.502600Y59.244700
G1X8.523200Y59.294400
G1X8.523900Y59.318900
G1X8.523900Y59.372400
G1X8.525900Y59.382300
G1X8.526200Y59.392500
G1X8.538400Y59.444900
G1X8.543200Y59.469200
G1X8.534300Y59.523000
G1X8.523900Y59.574800
G1X8.523900Y59.585000
G1X8.522200Y59.595200
G1X8.523900Y59.649700
G1X8.523900Y65.463400
G1X8.523900Y65.463500
G1X8.523900Y65.591600
G1X8.548900Y65.717200
G1X8.597900Y65.835400
G1X8.669000Y65.941900

G0Z0.500
G0X12.353800Y1.580000
G1Z-0.100 f25
G1X12.424900Y1.473500 f200
G1X12.464500Y1.377500
G1X12.473700Y1.355500
G1X12.473700Y1.355300
G1X12.473800Y1.355200
G1X12.483200Y1.307400
G1X12.498700Y1.229900
G1X12.498700Y1.101800
G1X12.498700Y1.101500
G1X12.486600Y1.041400
G1X12.473700Y0.976200
G1X12.450500Y0.920400
G1X12.424600Y0.857700
G1X12.382900Y0.795400
G1X12.353600Y0.751500
G1X12.263100Y0.661000
G1X12.262900Y0.660800
G1X12.156400Y0.589700
G1X12.060400Y0.550100
G1X12.038400Y0.540900
G1X12.038200Y0.540900
G1X12.038100Y0.540800
G1X11.990300Y0.531400
G1X11.912800Y0.515900
G1X11.547000Y0.515900
G1X11.421400Y0.540900
G1X11.303200Y0.589900
G1X11.196700Y0.661000
G1X11.106200Y0.751500
G1X11.035100Y0.858000
G1X10.986100Y0.976200
G1X10.961100Y1.101800
G1X10.961100Y1.229900
G1X10.986100Y1.355500
G1X11.035100Y1.473700
G1X11.106200Y1.580200
G1X11.196700Y1.670700
G1X11.315600Y1.789600
G1X11.315800Y1.789800
G1X11.422300Y1.860900
G1X11.519300Y1.900900
G1X11.540300Y1.909700
G1X11.540500Y1.909700
G1X11.540600Y1.909800
G1X11.589800Y1.919500
G1X11.665900Y1.934700
G1X11.794000Y1.934700
G1X11.794300Y1.934700
G1X11.855600Y1.922400
G1X11.919600Y1.909700
G1X11.971900Y1.888000
G1X12.038100Y1.860600
G1X12.101200Y1.818300
G1X12.144300Y1.789600
G1X12.234800Y1.699100
G1X12.234900Y1.698900
G1X12.347200Y1.586500
G1X12.353600Y1.580200
G1X12.353800Y1.580000

G0Z0.500
G0X14.893800Y1.580000
G1Z-0.100 f25
G1X14.964900Y1.473500 f200
G1X15.004500Y1.377500
G1X15.013700Y1.355500
G1X15.013700Y1.355300
G1X15.013800Y1.355200
G1X15.023200Y1.307400
G1X15.038700Y1.229900
G1X15.038700Y1.101800
G1X15.038700Y1.101500
G1X15.026600Y1.041400
G1X15.013700Y0.976200
G1X14.990500Y0.920400
G1X14.964600Y0.857700
G1X14.922900Y0.795500
G1X14.893600Y0.751500
G1X14.803100Y0.661000
G1X14.802900Y0.660800
G1X14.696400Y0.589700
G1X14.600400Y0.550100
G1X14.578400Y0.540900
G1X14.578200Y0.540900
G1X14.578100Y0.540800
G1X14.530300Y0.531400
G1X14.452800Y0.515900
G1X14.087000Y0.515900
G1X13.961400Y0.540900
G1X13.843200Y0.589900
G1X13.736700Y0.661000
G1X13.646200Y0.751500
G1X13.575100Y0.858000
G1X13.526100Y0.976200
G1X13.501100Y1.101800
G1X13.501100Y1.229900
G1X13.526100Y1.355500
G1X13.575100Y1.473700
G1X13.646200Y1.580200
G1X13.736700Y1.670700
G1X13.855600Y1.789600
G1X13.855800Y1.789800
G1X13.962300Y1.860900
G1X14.059300Y1.900900
G1X14.080300Y1.909700
G1X14.080500Y1.909700
G1X14.080600Y1.909800
G1X14.129800Y1.919500
G1X14.205900Y1.934700
G1X14.334000Y1.934700
G1X14.334300Y1.934700
G1X14.395600Y1.922400
G1X14.459600Y1.909700
G1X14.511900Y1.888000
G1X14.578100Y1.860600
G1X14.641200Y1.818300
G1X14.684300Y1.789600
G1X14.774800Y1.699100
G1X14.774900Y1.698900
G1X14.887200Y1.586500
G1X14.893600Y1.580200
G1X14.893800Y1.580000

G0Z0.500
G0X29.484700Y96.546000
G1Z-0.100 f25
G1X29.461100Y96.427700 f200
G1X29.459700Y96.420500
G1X29.458200Y96.417100
G1X29.410700Y96.302200
G1X29.339600Y96.195700
G1X29.250400Y96.106700
G1X29.249100Y96.105300
G1X29.249000Y96.105200
G1X29.142600Y96.034100
G1X29.059900Y96.000000
G1X29.024400Y95.985200
G1X28.898800Y95.960200
G1X28.770700Y95.960200
G1X28.770600Y95.960200
G1X28.652300Y95.983800
G1X28.645100Y95.985200
G1X28.641700Y95.986700
G1X28.526800Y96.034200
G1X28.420300Y96.105300
G1X27.940100Y96.585700
G1X27.869000Y96.692100
G1X27.834100Y96.776800
G1X27.820100Y96.810300
G1X27.795100Y96.935900
G1X27.795100Y96.936000
G1X27.795100Y97.064100
G1X27.820100Y97.189600
G1X27.869100Y97.307900
G1X27.940200Y97.414400
G1X28.030800Y97.504900
G1X28.329900Y97.803900
G1X28.329900Y97.804000
G1X28.420400Y97.894500
G1X28.526900Y97.965600
G1X28.645100Y98.014600
G1X28.770700Y98.039600
G1X28.898800Y98.039600
G1X29.024400Y98.014600
G1X29.142600Y97.965600
G1X29.249100Y97.894500
G1X29.339600Y97.804000
G1X29.410700Y97.697500
G1X29.459700Y97.579300
G1X29.484700Y97.453700
G1X29.484700Y96.546100
G1X29.484700Y96.546000

G0Z0.500
G0X28.418200Y34.474100
G1Z-0.100 f25
G1X28.391400Y34.501000 f200
G1X28.328600Y34.563800
G1X28.328200Y34.564500
G1X28.326800Y34.565900
G1X27.578600Y34.567100
G1X27.520300Y34.567100
G1X27.519900Y34.567200
G1X27.519200Y34.567200
G1X27.450700Y34.581000
G1X27.394700Y34.592100
G1X27.394300Y34.592300
G1X27.393700Y34.592400
G1X27.325300Y34.620900
G1X27.276500Y34.641100
G1X27.276200Y34.641400
G1X27.275500Y34.641600
G1X27.221700Y34.677800
G1X27.170000Y34.712200
G1X27.169600Y34.712700
G1X27.169200Y34.712900
G1X27.138600Y34.743600
G1X27.079500Y34.802700
G1X27.079100Y34.803300
G1X27.078800Y34.803600
G1X27.043200Y34.857200
G1X27.008400Y34.909200
G1X27.008300Y34.909600
G1X27.007900Y34.910100
G1X26.985800Y34.963800
G1X26.959400Y35.027400
G1X26.959300Y35.028200
G1X26.959100Y35.028500
G1X26.949000Y35.080200
G1X26.934400Y35.153000
G1X26.934400Y35.153600
G1X26.934300Y35.154100
G1X26.934400Y35.218900
G1X26.934400Y35.281100
G1X26.934500Y35.281500
G1X26.934500Y35.282200
G1X26.948300Y35.350700
G1X26.959400Y35.406700
G1X26.959600Y35.407100
G1X26.959700Y35.407700
G1X26.988200Y35.476100
G1X27.008400Y35.524900
G1X27.008700Y35.525200
G1X27.008900Y35.525900
G1X27.045100Y35.579700
G1X27.079500Y35.631400
G1X27.080000Y35.631800
G1X27.080200Y35.632200
G1X27.110900Y35.662800
G1X27.622100Y36.174000
G1X27.622500Y36.174600
G1X27.667500Y36.219400
G1X27.712300Y36.264200
G1X27.712900Y36.264600
G1X27.713200Y36.264900
G1X27.775800Y36.306500
G1X27.818800Y36.335300
G1X27.819100Y36.335400
G1X27.819800Y36.335900
G1X27.910100Y36.373100
G1X27.937000Y36.384300
G1X27.937300Y36.384300
G1X27.938100Y36.384700
G1X28.008800Y36.398500
G1X28.062600Y36.409300
G1X28.063300Y36.409300
G1X28.063800Y36.409400
G1X28.120700Y36.409300
G1X28.190700Y36.409300
G1X28.191300Y36.409100
G1X28.362600Y36.408800
G1X28.419100Y36.465400
G1X28.419700Y36.465800
G1X28.419900Y36.466000
G1X28.491600Y36.513700
G1X28.525600Y36.536500
G1X28.525800Y36.536500
G1X28.526400Y36.537000
G1X28.597400Y36.566200
G1X28.643800Y36.585500
G1X28.644400Y36.585600
G1X28.644800Y36.585800
G1X28.709000Y36.598400
G1X28.769400Y36.610500
G1X28.769900Y36.610500
G1X28.770400Y36.610600
G1X28.835200Y36.610500
G1X28.897500Y36.610500
G1X28.897900Y36.610400
G1X28.898500Y36.610400
G1X28.955600Y36.598900
G1X29.023100Y36.585500
G1X29.023600Y36.585200
G1X29.024000Y36.585200
G1X29.111800Y36.548700
G1X29.141300Y36.536500
G1X29.141400Y36.536400
G1X29.142200Y36.536100
G1X29.206600Y36.492800
G1X29.247800Y36.465400
G1X29.248100Y36.465000
G1X29.248500Y36.464800
G1X29.279100Y36.434000
G1X29.338300Y36.374900
G1X29.338700Y36.374300
G1X29.338900Y36.374100
G1X29.386600Y36.302400
G1X29.409400Y36.268400
G1X29.409400Y36.268200
G1X29.409900Y36.267600
G1X29.439100Y36.196600
G1X29.458400Y36.150200
G1X29.458500Y36.149600
G1X29.458700Y36.149200
G1X29.471300Y36.085000
G1X29.483400Y36.024600
G1X29.483400Y36.024100
G1X29.483500Y36.023600
G1X29.483400Y35.958800
G1X29.483400Y35.041500
G1X29.483500Y35.041000
G1X29.483400Y34.977700
G1X29.483400Y34.914100
G1X29.483300Y34.913600
G1X29.483300Y34.912900
G1X29.465900Y34.826500
G1X29.458400Y34.788500
G1X29.458200Y34.788300
G1X29.458100Y34.787300
G1X29.429700Y34.719500
G1X29.409400Y34.670300
G1X29.409000Y34.669800
G1X29.408800Y34.669200
G1X29.380300Y34.626800
G1X29.338300Y34.563800
G1X29.337700Y34.563200
G1X29.337500Y34.562900
G1X29.307700Y34.533300
G1X29.247800Y34.473300
G1X29.247200Y34.472900
G1X29.246800Y34.472500
G1X29.194400Y34.437700
G1X29.141300Y34.402200
G1X29.140700Y34.402000
G1X29.140200Y34.401600
G1X29.070200Y34.372800
G1X29.023100Y34.353200
G1X29.022600Y34.353200
G1X29.021900Y34.352800
G1X28.954900Y34.339700
G1X28.897500Y34.328200
G1X28.896800Y34.328200
G1X28.896300Y34.328100
G1X28.833000Y34.328200
G1X28.769400Y34.328200
G1X28.768900Y34.328300
G1X28.768200Y34.328300
G1X28.681800Y34.345700
G1X28.643800Y34.353200
G1X28.643600Y34.353400
G1X28.642600Y34.353500
G1X28.574800Y34.381900
G1X28.525600Y34.402200
G1X28.525100Y34.402600
G1X28.524500Y34.402800
G1X28.482100Y34.431300
G1X28.419100Y34.473300
G1X28.418500Y34.473900
G1X28.418200Y34.474100

G0Z0.500
G0X11.315500Y98.210200
G1Z-0.100 f25
G1X11.315300Y98.210400 f200
G1X11.224800Y98.300900
G1X11.195900Y98.329800
G1X11.105400Y98.420300
G1X11.034300Y98.526800
G1X10.985300Y98.645000
G1X10.960300Y98.770600
G1X10.960300Y98.898700
G1X10.985300Y99.024300
G1X11.034300Y99.142500
G1X11.105400Y99.249000
G1X11.195900Y99.339500
G1X11.302400Y99.410600
G1X11.420600Y99.459600
G1X11.546200Y99.484600
G1X11.913600Y99.484600
G1X11.913900Y99.484600
G1X11.975200Y99.472300
G1X12.039200Y99.459600
G1X12.091500Y99.437900
G1X12.157700Y99.410500
G1X12.220800Y99.368200
G1X12.263900Y99.339500
G1X12.354400Y99.249000
G1X12.354600Y99.248800
G1X12.425700Y99.142300
G1X12.465700Y99.045300
G1X12.474500Y99.024300
G1X12.474500Y99.024100
G1X12.474600Y99.024000
G1X12.484300Y98.974800
G1X12.499500Y98.898700
G1X12.499500Y98.770600
G1X12.499500Y98.770300
G1X12.487200Y98.709000
G1X12.474500Y98.645000
G1X12.452800Y98.592700
G1X12.425400Y98.526500
G1X12.383100Y98.463400
G1X12.354400Y98.420300
G1X12.263900Y98.329800
G1X12.263700Y98.329700
G1X12.144000Y98.210000
G1X12.037500Y98.138900
G1X11.938500Y98.098000
G1X11.919500Y98.090100
G1X11.919400Y98.090100
G1X11.919200Y98.090000
G1X11.867100Y98.079700
G1X11.793900Y98.065100
G1X11.793600Y98.065100
G1X11.665500Y98.065100
G1X11.601900Y98.077800
G1X11.540200Y98.090100
G1X11.494700Y98.109000
G1X11.421700Y98.139200
G1X11.356900Y98.182600
G1X11.315500Y98.210200

G0Z0.500
G0X25.668300Y93.748300
G1Z-0.100 f25
G1X25.668300Y93.874000 f200
G1X25.693300Y93.999600
G1X25.742300Y94.117800
G1X25.813400Y94.224300
G1X25.903900Y94.314800
G1X26.010400Y94.385900
G1X26.128600Y94.434900
G1X26.254200Y94.459900
G1X26.382300Y94.459900
G1X27.525900Y94.459900
G1X28.329800Y95.263800
G1X28.329800Y95.263900
G1X28.420300Y95.354400
G1X28.433000Y95.362900
G1X28.526700Y95.425500
G1X28.624500Y95.466000
G1X28.645000Y95.474500
G1X28.770600Y95.499500
G1X28.898700Y95.499500
G1X29.024300Y95.474500
G1X29.142500Y95.425500
G1X29.249000Y95.354400
G1X29.339500Y95.263900
G1X29.348000Y95.251200
G1X29.410600Y95.157500
G1X29.451100Y95.059700
G1X29.459600Y95.039200
G1X29.484600Y94.913600
G1X29.484600Y92.465500
G1X29.484600Y92.465100
G1X29.468100Y92.383000
G1X29.459600Y92.339900
G1X29.459500Y92.339700
G1X29.459500Y92.339600
G1X29.410500Y92.221300
G1X29.339700Y92.115600
G1X29.339500Y92.115200
G1X29.339300Y92.114900
G1X29.294700Y92.070400
G1X29.249000Y92.024700
G1X29.142500Y91.953600
G1X29.142200Y91.953400
G1X29.079900Y91.927700
G1X29.024300Y91.904600
G1X29.023900Y91.904600
G1X29.023900Y91.904500
G1X28.999700Y91.899700
G1X28.898700Y91.879600
G1X28.770600Y91.879600
G1X28.770200Y91.879600
G1X28.688100Y91.896100
G1X28.645000Y91.904600
G1X28.644800Y91.904700
G1X28.644700Y91.904700
G1X28.526400Y91.953700
G1X28.420700Y92.024500
G1X28.420300Y92.024700
G1X28.420000Y92.024900
G1X28.378300Y92.066700
G1X28.133000Y92.168300
G1X27.634900Y92.168300
G1X27.618800Y92.152300
G1X28.064200Y92.152300
G1X28.190300Y92.127200
G1X28.309000Y92.078100
G1X28.415800Y92.006700
G1X28.506700Y91.915800
G1X28.578100Y91.809000
G1X28.627200Y91.690300
G1X28.652300Y91.564200
G1X28.652300Y91.435700
G1X28.627200Y91.309600
G1X28.626900Y91.308900
G1X28.626900Y88.938200
G1X28.602800Y88.817000
G1X28.555600Y88.703000
G1X28.486900Y88.600300
G1X28.399600Y88.513000
G1X28.296900Y88.444300
G1X28.182900Y88.397100
G1X28.061700Y88.373000
G1X27.938200Y88.373000
G1X27.653200Y88.373000
G1X27.767100Y88.259200
G1X27.767100Y87.220500
G1X27.032500Y86.485900
G1X25.993800Y86.485900
G1X25.259200Y87.220500
G1X25.259200Y88.259200
G1X25.373100Y88.373000
G1X24.295600Y88.373000
G1X18.363900Y82.441300
G1X18.363900Y81.690600
G1X17.629300Y80.956000
G1X16.590600Y80.956000
G1X15.856000Y81.690600
G1X15.856000Y82.729300
G1X16.590600Y83.463900
G1X17.541300Y83.463900
G1X23.584100Y89.506700
G1X23.690900Y89.578100
G1X23.809600Y89.627200
G1X23.935700Y89.652300
G1X24.064200Y89.652300
G1X24.190300Y89.627200
G1X24.191000Y89.626900
G1X25.392900Y89.626900
G1X25.346100Y89.673600
G1X24.348400Y89.691400
G1X24.237000Y89.669200
G1X21.064200Y89.669200
G1X20.935700Y89.669200
G1X20.809600Y89.694300
G1X20.690900Y89.743400
G1X20.584100Y89.814800
G1X20.493200Y89.905700
G1X20.421800Y90.012500
G1X20.372700Y90.131200
G1X20.347600Y90.257300
G1X20.347600Y95.347600
G1X19.235500Y95.347600
G1X19.333900Y95.249300
G1X19.333900Y94.210600
G1X18.599300Y93.476000
G1X17.560600Y93.476000
G1X16.826000Y94.210600
G1X16.826000Y95.249300
G1X16.924400Y95.347600
G1X16.745700Y95.347600
G1X16.683000Y95.360100
G1X16.793900Y95.249300
G1X16.793900Y94.986800
G1X16.809900Y94.906400
G1X16.809900Y94.778300
G1X16.809900Y94.203900
G1X17.553900Y93.459900
G1X18.605900Y93.459900
G1X19.176700Y94.030700
G1X19.176700Y94.030800
G1X19.253200Y94.107200
G1X19.267200Y94.121300
G1X19.373600Y94.192400
G1X19.491900Y94.241400
G1X19.617500Y94.266400
G1X19.745600Y94.266400
G1X19.752700Y94.265000
G1X19.871200Y94.241400
G1X19.904700Y94.227400
G1X19.989400Y94.192500
G1X20.095900Y94.121300
G1X20.186400Y94.030800
G1X20.257500Y93.924400
G1X20.306500Y93.806100
G1X20.331500Y93.680500
G1X20.331500Y93.552400
G1X20.331500Y90.188400
G1X20.433100Y89.942900
G1X20.621300Y89.754700
G1X20.866800Y89.653100
G1X21.198000Y89.653100
G1X21.198100Y89.653100
G1X22.202800Y89.653100
G1X22.328400Y89.628100
G1X22.446600Y89.579100
G1X22.553100Y89.508000
G1X22.643600Y89.417500
G1X22.714700Y89.311000
G1X22.763700Y89.192800
G1X22.788700Y89.067200
G1X22.788700Y88.939100
G1X22.763700Y88.813500
G1X22.714700Y88.695300
G1X22.643600Y88.588800
G1X22.553100Y88.498300
G1X17.679800Y83.625000
G1X17.573300Y83.553900
G1X17.455100Y83.504900
G1X17.329500Y83.479900
G1X17.201400Y83.479900
G1X16.254200Y83.479900
G1X16.128600Y83.504900
G1X16.010400Y83.553900
G1X15.903900Y83.625000
G1X15.813400Y83.715500
G1X15.742300Y83.822000
G1X15.693300Y83.940200
G1X15.668300Y84.065800
G1X15.668300Y84.193900
G1X15.668300Y91.133000
G1X15.566600Y91.378500
G1X15.310300Y91.634800
G1X14.010300Y92.934700
G1X13.941900Y93.003100
G1X13.919800Y93.025200
G1X13.919700Y93.025300
G1X13.848600Y93.131700
G1X13.820600Y93.199600
G1X13.799700Y93.249900
G1X13.774700Y93.375500
G1X13.774700Y93.503600
G1X13.774700Y93.503700
G1X13.799700Y93.629200
G1X13.848700Y93.747500
G1X13.918400Y93.851700
G1X13.919800Y93.853900
G1X14.010300Y93.944400
G1X14.010400Y93.944400
G1X14.269900Y94.203900
G1X14.269900Y95.414000
G1X14.294900Y95.539600
G1X14.343900Y95.657800
G1X14.415000Y95.764300
G1X14.505500Y95.854800
G1X14.612000Y95.925900
G1X14.730200Y95.974900
G1X14.855800Y95.999900
G1X14.983900Y95.999900
G1X15.659400Y95.999900
G1X15.739800Y95.983900
G1X15.903500Y95.983900
G1X15.871400Y96.016000
G1X15.020600Y96.016000
G1X14.286000Y96.750600
G1X14.286000Y97.789300
G1X15.020600Y98.523900
G1X16.059300Y98.523900
G1X16.793900Y97.789300
G1X16.793900Y96.938500
G1X16.826000Y96.906400
G1X16.826000Y97.789300
G1X17.560600Y98.523900
G1X18.599300Y98.523900
G1X19.276800Y97.846300
G1X22.177300Y97.531200
G1X22.184800Y97.531200
G1X22.086800Y97.629100
G1X22.086800Y98.667800
G1X22.821400Y99.402400
G1X23.860100Y99.402400
G1X24.594700Y98.667800
G1X24.594700Y97.629100
G1X24.496700Y97.531200
G1X24.808900Y97.531200
G1X24.809600Y97.531500
G1X24.935700Y97.556600
G1X25.064200Y97.556600
G1X25.190300Y97.531500
G1X25.309000Y97.482400
G1X25.415800Y97.411000
G1X25.506700Y97.320100
G1X25.578100Y97.213300
G1X25.627200Y97.094600
G1X25.652300Y96.968500
G1X25.652300Y93.732200
G1X25.668300Y93.748300

G0Z0.500
G0X26.480600Y96.983900
G1Z-0.100 f25
G1X27.519300Y96.983900 f200
G1X28.253900Y96.249300
G1X28.253900Y95.210600
G1X27.519300Y94.476000
G1X26.480600Y94.476000
G1X25.746000Y95.210600
G1X25.746000Y96.249300
G1X26.480600Y96.983900

G0Z0.500
G0X26.480600Y99.523900
G1Z-0.100 f25
G1X27.519300Y99.523900 f200
G1X28.253900Y98.789300
G1X28.253900Y97.750600
G1X27.519300Y97.016000
G1X26.480600Y97.016000
G1X25.746000Y97.750600
G1X25.746000Y98.789300
G1X26.480600Y99.523900

G0Z0.500
G0X5.476200Y4.515100
G1Z-0.100 f25
G1X5.424200Y4.536700 f200
G1X5.370800Y4.557400
G1X5.364500Y4.561400
G1X5.358000Y4.564100
G1X5.312300Y4.594700
G1X5.262800Y4.626100
G1X5.257500Y4.631300
G1X5.251500Y4.635200
G1X5.212000Y4.674800
G1X5.170300Y4.714600
G1X5.166100Y4.720700
G1X5.161000Y4.725700
G1X5.130000Y4.772300
G1X5.096900Y4.819400
G1X5.093900Y4.826300
G1X5.089900Y4.832200
G1X5.068800Y4.883100
G1X5.045200Y4.936600
G1X5.043600Y4.944000
G1X5.040900Y4.950400
G1X5.030100Y5.004900
G1X5.017500Y5.061500
G1X5.017400Y5.068800
G1X5.015900Y5.076000
G1X5.015900Y5.132100
G1X5.014600Y5.189600
G1X5.015900Y5.196900
G1X5.015900Y8.797500
G1X5.015400Y8.800100
G1X5.015900Y8.858200
G1X5.015900Y8.922600
G1X5.016500Y8.925500
G1X5.016500Y8.928300
G1X5.029600Y8.991300
G1X5.040900Y9.048200
G1X5.041900Y9.050500
G1X5.042500Y9.053600
G1X5.067800Y9.112900
G1X5.089900Y9.166400
G1X5.091500Y9.168700
G1X5.092600Y9.171400
G1X5.127900Y9.223200
G1X5.161000Y9.272900
G1X5.162900Y9.274800
G1X5.164600Y9.277300
G1X5.210200Y9.322000
G1X5.251500Y9.363400
G1X5.253800Y9.364900
G1X5.255900Y9.367000
G1X5.310400Y9.402700
G1X5.358000Y9.434500
G1X5.360400Y9.435500
G1X5.363000Y9.437200
G1X5.419900Y9.460100
G1X5.476200Y9.483500
G1X5.479300Y9.484100
G1X5.481700Y9.485100
G1X5.538300Y9.495800
G1X5.601800Y9.508500
G1X5.604800Y9.508500
G1X5.607400Y9.509000
G1X5.664900Y9.508500
G1X5.729900Y9.508500
G1X5.732800Y9.507900
G1X8.140900Y9.487000
G1X8.205100Y9.486900
G1X8.207400Y9.486400
G1X8.209900Y9.486400
G1X8.260500Y9.475900
G1X18.501800Y9.475900
G1X18.510600Y9.477400
G1X18.565500Y9.475900
G1X18.620600Y9.475900
G1X18.629300Y9.474100
G1X18.638700Y9.473900
G1X18.693300Y9.461400
G1X18.746200Y9.450900
G1X18.754500Y9.447400
G1X18.763500Y9.445400
G1X18.813700Y9.422800
G1X18.864400Y9.401900
G1X18.872000Y9.396800
G1X18.880300Y9.393100
G1X18.925000Y9.361400
G1X18.970900Y9.330800
G1X18.977200Y9.324400
G1X18.984800Y9.319100
G1X19.023100Y9.278500
G1X19.061400Y9.240300
G1X19.066300Y9.232800
G1X25.577100Y2.349100
G1X25.617900Y2.308300
G1X25.622800Y2.300900
G1X25.628400Y2.295000
G1X25.657300Y2.248900
G1X25.688800Y2.201700
G1X25.692000Y2.193800
G1X25.696600Y2.186600
G1X25.716600Y2.134100
G1X25.737600Y2.083300
G1X25.739200Y2.075000
G1X25.742300Y2.067000
G1X25.751600Y2.011700
G1X25.762300Y1.957700
G1X25.762200Y1.949100
G1X25.763700Y1.940800
G1X25.762100Y1.884900
G1X25.761900Y1.776500
G1X25.904800Y1.633100
G1X25.957700Y1.580300
G1X25.958100Y1.579700
G1X25.958400Y1.579400
G1X26.001100Y1.515100
G1X26.028800Y1.473800
G1X26.028900Y1.473500
G1X26.029400Y1.472800
G1X26.067100Y1.381300
G1X26.077800Y1.355600
G1X26.077800Y1.355300
G1X26.078200Y1.354500
G1X26.093200Y1.278200
G1X26.102800Y1.230000
G1X26.102800Y1.229400
G1X26.102900Y1.228900
G1X26.102800Y1.164100
G1X26.102800Y1.101900
G1X26.102700Y1.101500
G1X26.102700Y1.100800
G1X26.087500Y1.025400
G1X26.077800Y0.976300
G1X26.077600Y0.976000
G1X26.077500Y0.975200
G1X26.038800Y0.882300
G1X26.028800Y0.858100
G1X26.028600Y0.858000
G1X26.028300Y0.857000
G1X25.977900Y0.781900
G1X25.957700Y0.751600
G1X25.957400Y0.751400
G1X25.957000Y0.750700
G1X25.911300Y0.705200
G1X25.867200Y0.661100
G1X25.866600Y0.660700
G1X25.866300Y0.660400
G1X25.802000Y0.617700
G1X25.760700Y0.590000
G1X25.760400Y0.589900
G1X25.759700Y0.589400
G1X25.668200Y0.551700
G1X25.642500Y0.541000
G1X25.642200Y0.541000
G1X25.641400Y0.540600
G1X25.565100Y0.525600
G1X25.516900Y0.516000
G1X25.516300Y0.516000
G1X25.515800Y0.515900
G1X25.451000Y0.516000
G1X19.167000Y0.516000
G1X19.166900Y0.516000
G1X19.048600Y0.539600
G1X19.041400Y0.541000
G1X19.038000Y0.542500
G1X18.923100Y0.590000
G1X18.818900Y0.659700
G1X18.816700Y0.661100
G1X18.726200Y0.751600
G1X18.725300Y0.753100
G1X18.655000Y0.858100
G1X18.620900Y0.940800
G1X18.606100Y0.976300
G1X18.581100Y1.101900
G1X18.581100Y1.230000
G1X18.581100Y1.230100
G1X18.604700Y1.348400
G1X18.606100Y1.355600
G1X18.607600Y1.359000
G1X18.655100Y1.473900
G1X18.724800Y1.578100
G1X18.726200Y1.580300
G1X18.816700Y1.670800
G1X18.816800Y1.670800
G1X19.349900Y2.203900
G1X19.349900Y3.255900
G1X18.605900Y3.999900
G1X17.553900Y3.999900
G1X17.314800Y3.760800
G1X17.314800Y3.760700
G1X17.233100Y3.679100
G1X17.224300Y3.670200
G1X17.117900Y3.599100
G1X16.999600Y3.550100
G1X16.874100Y3.525100
G1X16.746000Y3.525100
G1X16.745900Y3.525100
G1X16.620300Y3.550100
G1X16.586800Y3.564100
G1X16.502100Y3.599000
G1X16.395700Y3.670100
G1X16.305100Y3.760700
G1X16.305100Y3.760800
G1X16.065900Y3.999900
G1X15.013900Y3.999900
G1X14.774800Y3.760800
G1X14.774800Y3.760700
G1X14.693100Y3.679100
G1X14.684300Y3.670200
G1X14.577900Y3.599100
G1X14.459600Y3.550100
G1X14.334100Y3.525100
G1X14.206000Y3.525100
G1X14.205900Y3.525100
G1X14.080300Y3.550100
G1X14.046800Y3.564000
G1X13.962100Y3.599000
G1X13.855700Y3.670100
G1X13.765100Y3.760700
G1X13.525900Y3.999900
G1X12.473900Y3.999900
G1X12.234800Y3.760800
G1X12.234800Y3.760700
G1X12.153100Y3.679100
G1X12.144300Y3.670200
G1X12.037900Y3.599100
G1X11.919600Y3.550100
G1X11.794100Y3.525100
G1X11.666000Y3.525100
G1X11.665900Y3.525100
G1X11.540300Y3.550100
G1X11.506800Y3.564000
G1X11.422100Y3.599000
G1X11.315700Y3.670100
G1X11.225100Y3.760700
G1X10.985900Y3.999900
G1X9.933900Y3.999900
G1X9.694800Y3.760800
G1X9.694800Y3.760700
G1X9.613100Y3.679100
G1X9.604300Y3.670200
G1X9.497900Y3.599100
G1X9.379600Y3.550100
G1X9.254100Y3.525100
G1X9.126000Y3.525100
G1X9.125900Y3.525100
G1X9.000300Y3.550100
G1X8.966800Y3.564000
G1X8.882100Y3.599000
G1X8.775700Y3.670100
G1X8.685100Y3.760700
G1X8.445900Y3.999900
G1X7.331600Y3.999900
G1X7.326000Y3.997600
G1X7.273100Y3.974200
G1X7.265800Y3.972600
G1X7.259300Y3.969900
G1X7.204200Y3.959000
G1X7.148200Y3.946500
G1X7.140900Y3.946400
G1X7.133700Y3.944900
G1X7.077000Y3.944900
G1X7.020100Y3.943600
G1X7.012800Y3.944900
G1X7.005600Y3.944900
G1X6.950600Y3.955900
G1X6.894000Y3.965800
G1X6.887200Y3.968500
G1X6.880000Y3.969900
G1X6.828400Y3.991300
G1X5.483400Y4.513700
G1X5.476200Y4.515100

G0Z0.500
G0X7.400600Y3.983900
G1Z-0.100 f25
G1X8.439300Y3.983900 f200
G1X9.173900Y3.249300
G1X9.173900Y2.210600
G1X8.439300Y1.476000
G1X7.400600Y1.476000
G1X7.140500Y1.736200
G1X7.083600Y1.747500
G1X6.999700Y1.762200
G1X6.989600Y1.766200
G1X6.978200Y1.768400
G1X6.896000Y1.802500
G1X3.719600Y3.036200
G1X3.708200Y3.038400
G1X3.626200Y3.072500
G1X3.546100Y3.103500
G1X3.536700Y3.109600
G1X3.526300Y3.113800
G1X3.454500Y3.161900
G1X3.379900Y3.209200
G1X3.371700Y3.217100
G1X3.362500Y3.223200
G1X3.300600Y3.285200
G1X3.237600Y3.345400
G1X3.231300Y3.354500
G1X3.223200Y3.362500
G1X3.173700Y3.436700
G1X3.124600Y3.506700
G1X3.120200Y3.516800
G1X3.113800Y3.526300
G1X3.079500Y3.609300
G1X3.045200Y3.686900
G1X3.042900Y3.697500
G1X3.038400Y3.708200
G1X3.021200Y3.794800
G1X3.002400Y3.879200
G1X3.002200Y3.890600
G1X3.000000Y3.901400
G1X3.000000Y3.989200
G1X2.998100Y4.076200
G1X3.000000Y4.087000
G1X3.000000Y10.467900
G1X2.995800Y10.534600
G1X3.000000Y10.566400
G1X3.000000Y10.598500
G1X3.013000Y10.663700
G1X3.021800Y10.729800
G1X3.032200Y10.760200
G1X3.038400Y10.791700
G1X3.063800Y10.852800
G1X3.085400Y10.916200
G1X3.101700Y10.944300
G1X3.113800Y10.973600
G1X3.125800Y10.991500
G1X3.486900Y13.967100
G1X3.322200Y14.132300
G1X3.324100Y15.170900
G1X4.059900Y15.904300
G1X5.098500Y15.902400
G1X5.831900Y15.166600
G1X5.830000Y14.128000
G1X5.478600Y13.777800
G1X5.205600Y11.528500
G1X8.366400Y11.501100
G1X8.400600Y11.507900
G1X17.895300Y11.507900
G1X18.460700Y12.071500
G1X19.499300Y12.069600
G1X20.232700Y11.333800
G1X20.232000Y10.957500
G1X27.234700Y3.553900
G1X27.554300Y3.553300
G1X28.287700Y2.817500
G1X28.285800Y1.778900
G1X27.550000Y1.045500
G1X26.511400Y1.047400
G1X25.778000Y1.783200
G1X25.778700Y2.159500
G1X18.803100Y9.534500
G1X18.794000Y9.530700
G1X18.599300Y9.492000
G1X8.400600Y9.492000
G1X8.354200Y9.501300
G1X4.999900Y9.530400
G1X4.999900Y4.684300
G1X7.233500Y3.816700
G1X7.400600Y3.983900

G0Z0.500
G0X9.940600Y3.983900
G1Z-0.100 f25
G1X10.979300Y3.983900 f200
G1X11.713900Y3.249300
G1X11.713900Y2.210600
G1X10.979300Y1.476000
G1X9.940600Y1.476000
G1X9.206000Y2.210600
G1X9.206000Y3.249300
G1X9.940600Y3.983900

G0Z0.500
G0X12.480600Y3.983900
G1Z-0.100 f25
G1X13.519300Y3.983900 f200
G1X14.253900Y3.249300
G1X14.253900Y2.210600
G1X13.519300Y1.476000
G1X12.480600Y1.476000
G1X11.746000Y2.210600
G1X11.746000Y3.249300
G1X12.480600Y3.983900

G0Z0.500
G0X15.020600Y3.983900
G1Z-0.100 f25
G1X16.059300Y3.983900 f200
G1X16.793900Y3.249300
G1X16.793900Y2.210600
G1X16.059300Y1.476000
G1X15.020600Y1.476000
G1X14.286000Y2.210600
G1X14.286000Y3.249300
G1X15.020600Y3.983900

G0Z0.500
G0X17.560600Y3.983900
G1Z-0.100 f25
G1X18.599300Y3.983900 f200
G1X19.333900Y3.249300
G1X19.333900Y2.210600
G1X18.599300Y1.476000
G1X17.560600Y1.476000
G1X16.826000Y2.210600
G1X16.826000Y3.249300
G1X17.560600Y3.983900

G0Z0.500
G0X27.783100Y87.213800
G1Z-0.100 f25
G1X27.783100Y87.715800 f200
G1X27.783100Y87.715900
G1X27.783100Y87.844000
G1X27.808100Y87.969600
G1X27.857100Y88.087900
G1X27.928300Y88.194300
G1X28.018800Y88.284800
G1X28.125300Y88.355900
G1X28.364100Y88.454700
G1X28.418500Y88.509200
G1X28.420000Y88.510700
G1X28.420200Y88.510900
G1X28.461600Y88.538500
G1X28.526400Y88.581900
G1X28.644600Y88.630900
G1X28.644800Y88.630900
G1X28.644900Y88.631000
G1X28.693800Y88.640700
G1X28.770200Y88.656000
G1X28.898300Y88.656000
G1X28.898600Y88.656000
G1X28.971800Y88.641400
G1X29.023900Y88.631100
G1X29.024100Y88.631000
G1X29.024200Y88.631000
G1X29.051100Y88.619800
G1X29.142200Y88.582200
G1X29.248600Y88.511100
G1X29.248900Y88.510900
G1X29.337800Y88.422000
G1X29.339200Y88.420600
G1X29.339400Y88.420400
G1X29.367000Y88.379000
G1X29.410400Y88.314200
G1X29.459400Y88.196000
G1X29.459400Y88.195800
G1X29.459500Y88.195700
G1X29.469200Y88.146800
G1X29.484500Y88.070400
G1X29.484500Y87.942300
G1X29.484300Y80.721900
G1X29.459300Y80.596300
G1X29.410300Y80.478000
G1X29.339200Y80.371600
G1X29.248700Y80.281100
G1X29.142200Y80.210000
G1X29.024000Y80.161000
G1X28.898400Y80.136000
G1X28.770300Y80.136000
G1X28.644700Y80.161000
G1X28.526400Y80.210000
G1X28.420000Y80.281100
G1X28.329500Y80.371600
G1X28.329500Y80.371700
G1X27.508800Y81.192400
G1X26.456700Y81.192400
G1X26.000300Y80.735900
G1X25.893800Y80.664800
G1X25.775600Y80.615800
G1X25.650000Y80.590800
G1X25.521900Y80.590800
G1X25.289300Y80.590800
G1X25.043800Y80.489200
G1X24.719100Y80.164400
G1X23.405900Y78.851300
G1X23.367100Y78.810600
G1X23.361000Y78.806400
G1X23.355800Y78.801100
G1X23.309000Y78.769900
G1X23.262300Y78.737100
G1X23.255300Y78.734100
G1X23.249300Y78.730000
G1X23.198700Y78.709100
G1X23.145200Y78.685400
G1X23.137600Y78.683800
G1X23.131100Y78.681000
G1X23.076900Y78.670200
G1X23.020200Y78.657600
G1X23.012600Y78.657500
G1X23.005500Y78.656000
G1X22.949600Y78.656000
G1X21.873000Y78.631600
G1X21.858400Y78.629000
G1X21.810400Y78.630200
G1X21.760500Y78.629000
G1X21.745300Y78.631700
G1X21.640600Y78.634200
G1X21.626300Y78.631400
G1X21.624100Y78.631500
G1X21.622400Y78.631100
G1X21.567900Y78.631900
G1X17.543800Y78.663900
G1X17.486300Y78.663900
G1X17.484000Y78.664400
G1X17.481100Y78.664400
G1X17.417800Y78.677600
G1X17.360700Y78.688900
G1X17.358400Y78.689900
G1X17.355800Y78.690400
G1X17.294600Y78.716400
G1X17.242500Y78.737900
G1X17.240700Y78.739200
G1X17.237900Y78.740300
G1X17.183200Y78.777600
G1X17.136000Y78.809000
G1X17.134200Y78.810800
G1X17.132000Y78.812300
G1X17.087000Y78.858000
G1X16.069400Y79.875600
G1X15.998300Y79.982100
G1X15.949300Y80.100300
G1X15.924300Y80.225900
G1X15.924300Y80.354000
G1X15.949300Y80.479600
G1X15.998300Y80.597800
G1X16.069400Y80.704300
G1X16.159900Y80.794800
G1X16.266400Y80.865900
G1X16.384600Y80.914900
G1X16.510200Y80.939900
G1X16.638300Y80.939900
G1X17.635900Y80.939900
G1X18.379900Y81.683900
G1X18.379900Y82.229500
G1X18.404900Y82.355100
G1X18.453900Y82.473300
G1X18.525000Y82.579800
G1X18.615500Y82.670300
G1X18.615600Y82.670300
G1X24.157100Y88.211800
G1X24.263600Y88.282900
G1X24.381800Y88.331900
G1X24.507400Y88.356900
G1X24.635500Y88.356900
G1X24.657200Y88.356900
G1X24.782800Y88.331900
G1X24.901000Y88.282900
G1X25.007500Y88.211800
G1X25.098000Y88.121300
G1X25.169100Y88.014800
G1X25.218100Y87.896600
G1X25.243100Y87.771000
G1X25.243100Y87.642900
G1X25.243100Y87.213800
G1X25.987100Y86.469800
G1X27.039200Y86.469800
G1X27.783100Y87.213800

G0Z0.500
G0X28.329300Y71.868500
G1Z-0.100 f25
G1X28.401700Y71.940900 f200
G1X28.419800Y71.959000
G1X28.526200Y72.030100
G1X28.644500Y72.079100
G1X28.770100Y72.104100
G1X28.898200Y72.104100
G1X28.905300Y72.102700
G1X29.023800Y72.079100
G1X29.142100Y72.030100
G1X29.246400Y71.960400
G1X29.248500Y71.959000
G1X29.339000Y71.868500
G1X29.410100Y71.762100
G1X29.459100Y71.643800
G1X29.484100Y71.518200
G1X29.484100Y71.390100
G1X29.484000Y65.487000
G1X29.459000Y65.361400
G1X29.410000Y65.243100
G1X29.338900Y65.136700
G1X29.248400Y65.046200
G1X29.141900Y64.975100
G1X29.023700Y64.926100
G1X28.898100Y64.901100
G1X28.770000Y64.901100
G1X28.644400Y64.926100
G1X28.526100Y64.975100
G1X28.419700Y65.046200
G1X28.329200Y65.136700
G1X28.329200Y65.136800
G1X27.518600Y65.947400
G1X26.466500Y65.947400
G1X26.118300Y65.599100
G1X26.115400Y65.594800
G1X26.072400Y65.553100
G1X26.031300Y65.512000
G1X26.027100Y65.509200
G1X26.023500Y65.505700
G1X25.974800Y65.474300
G1X25.924900Y65.440900
G1X25.920100Y65.438900
G1X25.915900Y65.436200
G1X25.860600Y65.414300
G1X25.806600Y65.391900
G1X25.801800Y65.391000
G1X25.796900Y65.389000
G1X25.738300Y65.378300
G1X25.681100Y65.366900
G1X25.675900Y65.366900
G1X25.671000Y65.366000
G1X25.612800Y65.366900
G1X25.552900Y65.366900
G1X25.547900Y65.367900
G1X25.015100Y65.376200
G1X24.962200Y65.375100
G1X24.950900Y65.377100
G1X24.939500Y65.377300
G1X24.888400Y65.388300
G1X24.836200Y65.397600
G1X24.825500Y65.401800
G1X24.814300Y65.404200
G1X24.766900Y65.424700
G1X24.717000Y65.444200
G1X24.707100Y65.450600
G1X24.696800Y65.455000
G1X24.653300Y65.485100
G1X24.609200Y65.513300
G1X24.602100Y65.520200
G1X24.596600Y65.523800
G1X24.595400Y65.525000
G1X24.591500Y65.527700
G1X24.554400Y65.566000
G1X24.514300Y65.604500
G1X24.510600Y65.609800
G1X24.506100Y65.614300
G1X24.503000Y65.619100
G1X24.502400Y65.619600
G1X24.497500Y65.627200
G1X24.475200Y65.660600
G1X24.441100Y65.709500
G1X24.438400Y65.715800
G1X24.435000Y65.720800
G1X24.414000Y65.771600
G1X24.389800Y65.826800
G1X24.388400Y65.833300
G1X24.386000Y65.839000
G1X24.374800Y65.895400
G1X24.362400Y65.951900
G1X24.362300Y65.958200
G1X24.361000Y65.964600
G1X24.361000Y66.023600
G1X24.359900Y66.080000
G1X24.361000Y66.086100
G1X24.361000Y66.092700
G1X24.372400Y66.149600
G1X24.382400Y66.206000
G1X24.384800Y66.212000
G1X24.386000Y66.218300
G1X24.407200Y66.269400
G1X24.429000Y66.325200
G1X24.432700Y66.331000
G1X24.435000Y66.336500
G1X24.466200Y66.383200
G1X24.498100Y66.433000
G1X24.502500Y66.437500
G1X24.506100Y66.443000
G1X24.547400Y66.484200
G1X24.586800Y66.525300
G1X24.592100Y66.529000
G1X24.845700Y66.782600
G1X24.845700Y67.834600
G1X24.681100Y67.999300
G1X24.644600Y68.032500
G1X24.635700Y68.044700
G1X24.625100Y68.055200
G1X24.598000Y68.095900
G1X24.568700Y68.135600
G1X24.562300Y68.149400
G1X24.554000Y68.161700
G1X24.535500Y68.206400
G1X24.514300Y68.251500
G1X24.510700Y68.266300
G1X24.505000Y68.279900
G1X24.495500Y68.327600
G1X24.483600Y68.375800
G1X24.482900Y68.391000
G1X24.480000Y68.405500
G1X24.480000Y68.453900
G1X24.477700Y68.503800
G1X24.480000Y68.518900
G1X24.480000Y68.533600
G1X24.489400Y68.580600
G1X24.496900Y68.630300
G1X24.502100Y68.644700
G1X24.505000Y68.659200
G1X24.523500Y68.703600
G1X24.625400Y68.985400
G1X24.628300Y69.000300
G1X24.647200Y69.045800
G1X24.663800Y69.091800
G1X24.671600Y69.104700
G1X24.677300Y69.118500
G1X24.704300Y69.158800
G1X24.729900Y69.201400
G1X24.740200Y69.212600
G1X24.748400Y69.225000
G1X24.782900Y69.259500
G1X24.816200Y69.296000
G1X24.828400Y69.304900
G1X24.855000Y69.331600
G1X24.855000Y69.461700
G1X24.851900Y69.495500
G1X24.855000Y69.525100
G1X24.855000Y69.555500
G1X24.861700Y69.588900
G1X24.865200Y69.622900
G1X24.874200Y69.651800
G1X24.880000Y69.681100
G1X24.892900Y69.712200
G1X24.904400Y69.749300
G1X24.906700Y69.764400
G1X24.923300Y69.810200
G1X24.937800Y69.857000
G1X24.945100Y69.870400
G1X24.973500Y69.948800
G1X24.977100Y69.983300
G1X24.981300Y69.996600
G1X24.983300Y70.010500
G1X25.000400Y70.058100
G1X25.246300Y70.849300
G1X25.252300Y70.879300
G1X25.265700Y70.911600
G1X25.275600Y70.943600
G1X25.289600Y70.969300
G1X25.301300Y70.997500
G1X25.320600Y71.026300
G1X25.336700Y71.056100
G1X25.355700Y71.078800
G1X25.372500Y71.104000
G1X25.397100Y71.128500
G1X25.418600Y71.154500
G1X25.441500Y71.173000
G1X25.463000Y71.194500
G1X25.491700Y71.213600
G1X25.518100Y71.235100
G1X25.544600Y71.248900
G1X25.569500Y71.265600
G1X25.601600Y71.278900
G1X25.631400Y71.294600
G1X25.659400Y71.302800
G1X25.687700Y71.314600
G1X25.721900Y71.321400
G1X25.754200Y71.331000
G1X25.783900Y71.333600
G1X25.813300Y71.339500
G1X25.848100Y71.339500
G1X25.881800Y71.342600
G1X25.910800Y71.339500
G1X25.941400Y71.339500
G1X25.975600Y71.332700
G1X26.009100Y71.329200
G1X26.037100Y71.320400
G1X26.067000Y71.314500
G1X26.099300Y71.301100
G1X26.131300Y71.291200
G1X26.157000Y71.277200
G1X26.185200Y71.265500
G1X26.214000Y71.246200
G1X26.243800Y71.230100
G1X26.266500Y71.211100
G1X26.291700Y71.194300
G1X26.316200Y71.169800
G1X26.342200Y71.148200
G1X26.360800Y71.125200
G1X26.447400Y71.038500
G1X27.499400Y71.038500
G1X28.329300Y71.868500

G0Z0.500
G0X7.220600Y90.523900
G1Z-0.100 f25
G1X8.259300Y90.523900 f200
G1X8.993900Y89.789300
G1X8.993900Y88.750600
G1X8.259300Y88.016000
G1X7.220600Y88.016000
G1X6.486000Y88.750600
G1X6.486000Y89.382000
G1X5.368900Y90.203000
G1X5.331100Y90.227500
G1X5.317400Y90.240900
G1X5.301800Y90.252300
G1X5.271400Y90.285600
G1X5.239000Y90.317100
G1X5.228100Y90.333100
G1X5.215100Y90.347200
G1X5.191600Y90.386200
G1X5.166200Y90.423000
G1X5.158700Y90.440400
G1X5.148600Y90.457100
G1X5.133000Y90.500100
G1X5.115400Y90.541000
G1X5.111400Y90.559700
G1X5.104800Y90.577900
G1X5.098000Y90.622900
G1X5.088600Y90.666600
G1X5.088400Y90.685700
G1X5.085400Y90.704900
G1X5.087500Y90.750800
G1X5.015400Y95.954500
G1X5.014300Y95.960100
G1X5.014500Y96.020500
G1X5.013700Y96.077400
G1X5.014700Y96.082700
G1X5.014700Y96.088700
G1X5.026900Y96.148700
G1X5.037000Y96.203800
G1X5.039000Y96.208800
G1X5.040200Y96.214700
G1X5.063200Y96.269500
G1X5.084500Y96.323200
G1X5.087700Y96.328000
G1X5.089800Y96.333200
G1X5.121600Y96.380400
G1X5.154400Y96.431000
G1X5.158600Y96.435200
G1X5.161600Y96.439800
G1X5.201000Y96.478800
G1X5.244000Y96.523100
G1X5.249100Y96.526500
G1X5.252800Y96.530300
G1X5.301100Y96.562300
G1X5.349900Y96.595900
G1X5.354900Y96.598000
G1X5.359800Y96.601300
G1X5.416600Y96.624600
G1X5.467900Y96.646700
G1X5.473200Y96.647800
G1X5.478700Y96.650100
G1X5.538700Y96.661800
G1X5.593500Y96.673500
G1X5.599100Y96.673600
G1X5.604800Y96.674700
G1X5.664400Y96.674500
G1X5.722100Y96.675300
G1X5.727600Y96.674200
G1X6.746000Y96.670700
G1X6.666000Y96.750600
G1X6.666000Y97.789300
G1X7.400600Y98.523900
G1X8.439300Y98.523900
G1X9.173900Y97.789300
G1X9.173900Y96.750600
G1X9.085700Y96.662500
G1X9.294900Y96.661800
G1X9.206000Y96.750600
G1X9.206000Y97.789300
G1X9.940600Y98.523900
G1X10.979300Y98.523900
G1X11.713900Y97.789300
G1X11.713900Y96.750600
G1X11.616900Y96.653600
G1X11.716500Y96.653300
G1X11.772400Y96.724300
G1X11.746000Y96.750600
G1X11.746000Y97.789300
G1X12.480600Y98.523900
G1X13.519300Y98.523900
G1X14.253900Y97.789300
G1X14.253900Y96.750600
G1X13.519300Y96.016000
G1X12.810500Y96.016000
G1X12.785200Y95.983900
G1X13.519300Y95.983900
G1X14.253900Y95.249300
G1X14.253900Y94.210600
G1X13.652300Y93.609100
G1X13.652300Y93.270200
G1X15.415800Y91.506700
G1X15.506700Y91.415800
G1X15.578100Y91.309000
G1X15.627200Y91.190300
G1X15.652300Y91.064200
G1X15.652300Y80.270200
G1X17.272300Y78.650100
G1X21.754800Y78.614500
G1X21.759500Y78.615300
G1X21.807800Y78.614200
G1X23.223700Y78.646200
G1X25.006600Y80.429200
G1X25.113400Y80.500600
G1X25.232100Y80.549700
G1X25.358200Y80.574800
G1X25.486700Y80.574800
G1X25.486800Y80.574800
G1X25.861900Y80.574800
G1X26.463500Y81.176400
G1X27.502200Y81.176400
G1X28.236800Y80.441800
G1X28.236800Y79.403100
G1X27.502200Y78.668500
G1X26.463500Y78.668500
G1X25.861900Y79.270100
G1X25.692700Y79.270100
G1X23.966100Y77.543600
G1X23.927200Y77.502800
G1X23.921100Y77.498600
G1X23.915800Y77.493200
G1X23.867100Y77.460700
G1X23.822000Y77.429000
G1X23.815400Y77.426100
G1X23.809000Y77.421800
G1X23.756100Y77.399900
G1X23.704400Y77.377100
G1X23.696900Y77.375400
G1X23.690300Y77.372700
G1X23.636300Y77.362000
G1X23.579000Y77.349200
G1X23.571300Y77.349000
G1X23.564200Y77.347600
G1X23.508200Y77.347600
G1X22.445900Y77.323600
G1X22.288100Y70.629000
G1X22.558900Y70.604700
G1X23.065700Y71.111600
G1X23.944800Y71.111600
G1X24.366800Y72.469100
G1X24.372700Y72.498900
G1X24.386100Y72.531200
G1X24.396100Y72.563500
G1X24.410100Y72.589200
G1X24.421800Y72.617600
G1X24.441200Y72.646500
G1X24.457400Y72.676500
G1X24.476600Y72.699400
G1X24.493200Y72.724400
G1X24.517700Y72.748900
G1X24.539600Y72.775200
G1X24.562800Y72.793900
G1X24.584100Y72.815300
G1X24.612900Y72.834500
G1X24.639500Y72.856100
G1X24.665900Y72.869900
G1X24.690900Y72.886700
G1X24.722700Y72.899800
G1X24.753200Y72.915900
G1X24.782200Y72.924400
G1X24.809600Y72.935800
G1X24.843200Y72.942500
G1X24.876400Y72.952300
G1X24.906200Y72.955000
G1X24.935700Y72.960900
G1X24.970500Y72.960900
G1X25.004500Y72.964000
G1X25.034000Y72.960900
G1X25.852500Y72.960900
G1X26.454100Y73.562500
G1X27.492800Y73.562500
G1X28.227400Y72.827900
G1X28.227400Y71.789200
G1X27.492800Y71.054600
G1X26.454100Y71.054600
G1X25.852500Y71.656200
G1X25.480300Y71.656200
G1X24.927000Y69.876000
G1X24.924700Y69.860800
G1X24.907500Y69.813300
G1X24.893200Y69.767200
G1X24.886200Y69.754400
G1X24.839000Y69.623700
G1X24.839000Y69.338300
G1X24.677500Y69.176900
G1X24.359800Y68.297900
G1X24.829700Y67.828000
G1X24.829700Y66.789300
G1X24.095100Y66.054700
G1X23.171700Y66.054700
G1X23.241900Y65.983300
G1X24.114600Y65.983300
G1X24.733500Y65.364300
G1X25.888600Y65.346700
G1X26.473300Y65.931400
G1X27.512000Y65.931400
G1X28.246600Y65.196800
G1X28.246600Y64.158100
G1X27.512000Y63.423500
G1X26.473300Y63.423500
G1X25.854400Y64.042500
G1X24.699300Y64.060100
G1X24.114600Y63.475400
G1X23.075900Y63.475400
G1X22.341300Y64.210000
G1X22.341300Y65.110800
G1X22.309200Y65.143500
G1X22.309200Y64.210000
G1X21.574600Y63.475400
G1X20.535900Y63.475400
G1X19.934300Y64.077000
G1X19.760500Y64.077000
G1X19.152300Y63.468800
G1X19.152300Y55.734200
G1X20.486900Y54.399600
G1X20.542400Y54.316500
G1X20.558200Y54.332400
G1X20.545100Y54.364200
G1X19.313400Y55.595800
G1X19.242300Y55.702300
G1X19.193300Y55.820500
G1X19.168300Y55.946100
G1X19.168300Y56.074200
G1X19.168300Y63.257000
G1X19.193300Y63.382600
G1X19.242300Y63.500800
G1X19.313400Y63.607300
G1X19.403900Y63.697800
G1X19.404000Y63.697800
G1X19.433000Y63.726900
G1X19.433100Y63.726900
G1X19.433100Y63.727000
G1X19.539500Y63.798100
G1X19.622200Y63.832200
G1X19.657700Y63.847000
G1X19.783300Y63.872000
G1X19.911400Y63.872000
G1X19.911500Y63.872000
G1X20.029800Y63.848400
G1X20.037000Y63.847000
G1X20.040400Y63.845500
G1X20.155300Y63.798000
G1X20.259500Y63.728300
G1X20.261700Y63.726900
G1X20.352200Y63.636400
G1X20.352200Y63.636300
G1X20.529200Y63.459300
G1X21.581200Y63.459300
G1X21.820300Y63.698400
G1X21.820300Y63.698500
G1X21.902000Y63.780100
G1X21.910800Y63.789000
G1X22.017200Y63.860100
G1X22.135500Y63.909100
G1X22.261000Y63.934100
G1X22.389100Y63.934100
G1X22.389200Y63.934100
G1X22.514800Y63.909100
G1X22.548300Y63.895100
G1X22.633000Y63.860200
G1X22.739400Y63.789100
G1X22.830000Y63.698500
G1X22.830000Y63.698400
G1X23.069100Y63.459300
G1X24.121300Y63.459300
G1X24.469500Y63.807600
G1X24.472400Y63.811900
G1X24.515400Y63.853600
G1X24.556500Y63.894700
G1X24.560700Y63.897500
G1X24.564300Y63.901000
G1X24.613000Y63.932400
G1X24.662900Y63.965800
G1X24.667700Y63.967800
G1X24.671900Y63.970500
G1X24.727200Y63.992400
G1X24.781200Y64.014800
G1X24.786000Y64.015700
G1X24.790900Y64.017700
G1X24.849500Y64.028400
G1X24.906700Y64.039800
G1X24.911900Y64.039800
G1X24.916800Y64.040700
G1X24.975000Y64.039800
G1X25.034900Y64.039800
G1X25.039900Y64.038800
G1X25.577100Y64.030500
G1X25.638300Y64.030500
G1X25.643400Y64.029500
G1X25.648300Y64.029400
G1X25.704600Y64.017300
G1X25.763900Y64.005500
G1X25.768500Y64.003500
G1X25.773500Y64.002500
G1X25.828600Y63.978600
G1X25.882100Y63.956500
G1X25.886100Y63.953800
G1X25.891000Y63.951700
G1X25.941100Y63.917100
G1X25.988600Y63.885400
G1X25.992100Y63.881900
G1X25.996300Y63.879000
G1X26.037700Y63.836300
G1X26.466600Y63.407400
G1X27.518600Y63.407400
G1X28.329200Y64.218100
G1X28.401900Y64.290800
G1X28.419700Y64.308600
G1X28.526100Y64.379700
G1X28.644400Y64.428700
G1X28.770000Y64.453700
G1X28.898100Y64.453700
G1X28.905200Y64.452300
G1X29.023700Y64.428700
G1X29.142000Y64.379700
G1X29.246300Y64.310000
G1X29.248400Y64.308600
G1X29.338900Y64.218100
G1X29.410000Y64.111700
G1X29.459000Y63.993400
G1X29.484000Y63.867800
G1X29.484000Y63.739700
G1X29.483600Y47.097500
G1X29.483700Y47.097100
G1X29.483600Y47.034700
G1X29.483600Y46.970400
G1X29.483500Y46.969900
G1X29.483500Y46.969000
G1X29.469400Y46.899400
G1X29.458600Y46.844800
G1X29.458300Y46.844200
G1X29.458200Y46.843500
G1X29.430200Y46.776300
G1X29.409600Y46.726500
G1X29.409300Y46.726100
G1X29.409000Y46.725300
G1X29.369900Y46.667200
G1X29.338500Y46.620100
G1X29.338000Y46.619600
G1X29.337600Y46.619000
G1X29.292600Y46.574200
G1X29.248000Y46.529600
G1X29.247400Y46.529200
G1X29.246900Y46.528700
G1X29.181200Y46.485100
G1X29.141500Y46.458500
G1X29.141100Y46.458400
G1X29.140300Y46.457800
G1X29.078000Y46.432200
G1X29.023300Y46.409500
G1X29.022400Y46.409400
G1X29.021900Y46.409100
G1X28.971500Y46.399200
G1X28.897700Y46.384500
G1X28.896800Y46.384500
G1X28.896300Y46.384400
G1X28.833000Y46.384500
G1X28.769600Y46.384500
G1X28.769100Y46.384600
G1X28.768200Y46.384600
G1X28.698600Y46.398700
G1X28.644000Y46.409500
G1X28.643400Y46.409800
G1X28.642700Y46.409900
G1X28.575500Y46.437900
G1X28.525700Y46.458500
G1X28.525300Y46.458800
G1X28.524500Y46.459100
G1X28.466400Y46.498200
G1X28.419300Y46.529600
G1X28.418800Y46.530100
G1X28.418200Y46.530500
G1X28.380200Y46.568700
G1X27.328400Y46.570500
G1X26.583100Y45.827800
G1X26.582700Y45.563800
G1X26.582700Y45.505800
G1X26.582600Y45.505400
G1X26.582600Y45.504700
G1X26.568800Y45.436200
G1X26.557700Y45.380200
G1X26.557500Y45.379800
G1X26.557400Y45.379200
G1X26.533400Y45.321700
G1X26.483900Y45.202100
G1X26.483900Y44.601800
G1X26.458900Y44.476200
G1X26.409900Y44.358000
G1X26.338800Y44.251500
G1X26.248300Y44.161000
G1X26.141800Y44.089900
G1X26.023600Y44.040900
G1X25.898000Y44.015900
G1X25.769900Y44.015900
G1X24.078400Y44.015900
G1X24.077900Y44.015800
G1X24.014600Y44.015900
G1X23.951100Y44.015900
G1X23.950600Y44.016000
G1X23.949800Y44.016000
G1X23.859900Y44.034100
G1X23.825500Y44.040900
G1X23.825300Y44.041000
G1X23.824300Y44.041200
G1X23.747000Y44.073500
G1X23.707300Y44.089900
G1X23.706900Y44.090200
G1X23.706100Y44.090500
G1X23.642500Y44.133200
G1X23.600800Y44.161000
G1X23.600400Y44.161400
G1X23.599800Y44.161800
G1X23.555000Y44.206800
G1X23.510300Y44.251500
G1X23.509900Y44.252100
G1X23.509500Y44.252500
G1X23.474700Y44.304900
G1X23.439200Y44.358000
G1X23.439000Y44.358600
G1X23.438600Y44.359100
G1X23.414000Y44.418900
G1X23.390200Y44.476200
G1X23.390100Y44.476900
G1X23.389800Y44.477500
G1X23.378300Y44.536200
G1X23.365200Y44.601800
G1X23.365200Y44.602600
G1X23.365100Y44.603100
G1X23.365200Y44.666400
G1X23.365200Y44.729900
G1X23.365300Y44.730400
G1X23.365300Y44.731200
G1X23.383400Y44.821100
G1X23.390200Y44.855500
G1X23.390300Y44.855700
G1X23.390500Y44.856700
G1X23.422800Y44.934000
G1X23.439200Y44.973700
G1X23.439500Y44.974100
G1X23.439800Y44.974900
G1X23.482500Y45.038500
G1X23.510300Y45.080200
G1X23.510700Y45.080600
G1X23.511100Y45.081200
G1X23.560300Y45.130100
G1X23.596900Y45.166700
G1X23.598700Y46.218500
G1X22.807700Y47.012200
G1X22.750200Y47.069600
G1X22.749800Y47.070200
G1X22.749500Y47.070500
G1X22.678500Y47.177000
G1X22.649500Y47.247600
G1X22.630100Y47.294300
G1X22.630000Y47.295100
G1X22.629800Y47.295400
G1X22.619600Y47.347100
G1X22.605100Y47.419900
G1X22.605100Y47.420500
G1X22.605000Y47.421000
G1X22.605100Y47.485800
G1X22.605100Y47.548000
G1X22.605200Y47.548400
G1X22.605200Y47.549100
G1X22.619000Y47.617600
G1X22.630100Y47.673600
G1X22.630300Y47.674000
G1X22.630400Y47.674600
G1X22.658900Y47.743000
G1X22.679100Y47.791800
G1X22.679400Y47.792100
G1X22.679600Y47.792800
G1X22.715700Y47.846600
G1X22.750200Y47.898300
G1X22.750700Y47.898800
G1X22.750900Y47.899100
G1X22.781600Y47.929700
G1X22.840700Y47.988800
G1X22.841300Y47.989200
G1X22.841600Y47.989500
G1X22.948100Y48.060500
G1X23.018700Y48.089500
G1X23.065400Y48.108900
G1X23.066200Y48.109000
G1X23.066500Y48.109200
G1X23.118200Y48.119400
G1X23.191000Y48.133900
G1X23.191600Y48.133900
G1X23.192100Y48.134000
G1X23.256900Y48.133900
G1X26.309800Y48.133900
G1X26.719700Y48.133900
G1X27.037900Y48.265700
G1X27.281500Y48.509300
G1X27.413300Y48.827500
G1X27.413300Y51.331500
G1X27.413200Y51.332000
G1X27.413300Y51.395300
G1X27.413300Y51.458900
G1X27.413400Y51.459400
G1X27.413400Y51.460100
G1X27.429200Y51.538700
G1X27.438300Y51.584500
G1X27.438500Y51.584800
G1X27.438600Y51.585600
G1X27.476700Y51.677000
G1X27.487300Y51.702700
G1X27.487500Y51.702800
G1X27.487800Y51.703800
G1X27.537700Y51.778000
G1X27.558400Y51.809200
G1X27.558700Y51.809500
G1X27.559100Y51.810100
G1X27.615000Y51.865700
G1X27.648900Y51.899700
G1X27.649300Y51.899900
G1X27.731800Y51.982100
G1X27.946700Y52.498300
G1X27.958100Y59.057000
G1X27.745100Y59.573900
G1X27.350700Y59.969700
G1X26.834500Y60.184600
G1X26.275600Y60.185500
G1X25.758700Y59.972500
G1X25.362900Y59.578100
G1X25.148000Y59.061800
G1X25.136600Y52.503100
G1X25.349600Y51.986200
G1X25.454300Y51.881200
G1X25.536200Y51.799300
G1X25.536700Y51.798500
G1X25.536800Y51.798500
G1X25.550500Y51.777800
G1X25.607300Y51.692800
G1X25.607400Y51.692500
G1X25.607800Y51.692000
G1X25.629600Y51.639000
G1X25.656300Y51.574600
G1X25.656400Y51.573800
G1X25.656600Y51.573600
G1X25.664200Y51.534900
G1X25.681300Y51.449000
G1X25.681300Y51.448300
G1X25.681400Y51.448000
G1X25.681300Y51.408700
G1X25.681300Y50.451800
G1X25.656300Y50.326200
G1X25.607300Y50.208000
G1X25.536200Y50.101500
G1X25.445700Y50.011000
G1X25.339200Y49.939900
G1X25.221000Y49.890900
G1X25.095400Y49.865900
G1X24.967300Y49.865900
G1X23.123500Y49.865900
G1X22.997900Y49.890900
G1X22.879700Y49.939900
G1X22.773200Y50.011000
G1X22.682700Y50.101500
G1X22.611600Y50.208000
G1X22.562600Y50.326200
G1X22.537600Y50.451800
G1X22.537600Y50.579900
G1X22.537600Y51.254500
G1X21.793600Y51.998500
G1X21.228800Y51.998500
G1X21.147900Y52.014600
G1X20.871800Y52.014600
G1X20.903900Y51.982500
G1X21.787000Y51.982500
G1X22.521600Y51.247900
G1X22.521600Y50.209200
G1X22.162200Y49.849900
G1X25.697400Y49.849900
G1X25.697400Y51.677200
G1X25.635400Y51.722300
G1X25.481100Y51.877100
G1X25.352900Y52.054200
G1X25.254000Y52.249200
G1X25.186800Y52.457200
G1X25.153000Y52.673200
G1X25.163900Y58.891800
G1X25.198500Y59.107700
G1X25.266400Y59.315500
G1X25.366000Y59.510100
G1X25.494800Y59.686800
G1X25.649600Y59.841100
G1X25.826700Y59.969300
G1X26.021700Y60.068200
G1X26.229700Y60.135400
G1X26.445700Y60.169200
G1X26.664400Y60.168800
G1X26.880300Y60.134200
G1X27.088100Y60.066300
G1X27.282700Y59.966700
G1X27.459400Y59.837900
G1X27.613700Y59.683100
G1X27.741900Y59.506000
G1X27.840800Y59.311000
G1X27.908000Y59.103000
G1X27.941800Y58.887000
G1X27.930900Y52.668400
G1X27.896300Y52.452500
G1X27.828400Y52.244700
G1X27.728800Y52.050100
G1X27.600000Y51.873400
G1X27.445200Y51.719100
G1X27.397300Y51.684500
G1X27.397300Y48.916200
G1X27.364600Y48.752000
G1X27.300600Y48.597300
G1X27.207600Y48.458100
G1X27.089200Y48.339700
G1X26.950000Y48.246700
G1X26.795300Y48.182700
G1X26.631100Y48.150000
G1X26.463600Y48.150000
G1X18.916200Y48.150000
G1X18.752000Y48.182700
G1X18.597300Y48.246700
G1X18.458100Y48.339700
G1X18.339700Y48.458100
G1X18.067400Y48.730400
G1X17.974400Y48.869600
G1X17.910400Y49.024300
G1X17.877700Y49.188500
G1X17.877700Y49.356000
G1X17.877700Y49.805200
G1X17.473700Y50.209200
G1X17.473700Y51.247900
G1X18.208300Y51.982500
G1X19.247000Y51.982500
G1X19.393400Y51.836100
G1X19.373000Y51.938200
G1X19.373000Y52.140700
G1X19.247000Y52.014600
G1X18.208300Y52.014600
G1X17.473700Y52.749200
G1X17.473700Y53.787900
G1X18.208300Y54.522500
G1X18.590900Y54.522500
G1X18.192000Y54.921400
G1X18.190900Y54.921800
G1X18.084100Y54.993200
G1X17.993200Y55.084100
G1X17.921800Y55.190900
G1X17.872700Y55.309600
G1X17.847600Y55.435700
G1X17.847600Y62.655700
G1X8.137900Y52.946000
G1X8.137900Y46.947200
G1X8.393000Y47.201600
G1X9.431600Y47.199700
G1X10.165000Y46.463900
G1X10.163100Y45.425300
G1X9.999900Y45.262700
G1X9.999900Y43.639500
G1X10.007900Y43.599300
G1X10.007900Y43.400600
G1X9.969200Y43.205900
G1X9.893200Y43.022500
G1X9.782900Y42.857400
G1X6.929900Y40.004500
G1X6.929000Y39.486700
G1X6.193200Y38.753300
G1X5.154600Y38.755200
G1X4.421200Y39.491000
G1X4.423100Y40.529600
G1X5.158900Y41.263000
G1X5.337200Y41.262700
G1X5.363300Y41.288700
G1X5.148400Y41.289100
G1X4.415000Y42.024900
G1X4.416900Y43.063500
G1X5.152700Y43.796900
G1X5.642000Y43.796000
G1X6.325200Y44.479200
G1X6.325200Y45.030200
G1X6.309100Y45.014100
G1X6.309100Y44.690900
G1X6.303800Y44.664600
G1X6.284200Y44.565400
G1X6.235200Y44.447200
G1X6.164100Y44.340700
G1X6.164000Y44.340600
G1X6.158100Y44.334700
G1X5.870900Y44.047500
G1X5.870700Y44.047100
G1X5.821300Y43.997900
G1X5.781100Y43.957600
G1X5.780800Y43.957400
G1X5.780100Y43.956700
G1X5.713200Y43.912300
G1X5.674600Y43.886400
G1X5.674000Y43.886200
G1X5.673500Y43.885800
G1X5.613700Y43.861200
G1X5.556400Y43.837400
G1X5.555700Y43.837300
G1X5.555100Y43.837000
G1X5.496400Y43.825500
G1X5.430800Y43.812400
G1X5.430000Y43.812400
G1X5.429500Y43.812300
G1X5.374000Y43.812400
G1X5.302700Y43.812400
G1X5.302100Y43.812500
G1X5.146000Y43.812800
G1X4.815900Y43.483800
G1X4.709400Y43.412800
G1X4.591000Y43.364100
G1X4.465400Y43.339300
G1X4.337300Y43.339500
G1X4.211800Y43.364700
G1X4.093600Y43.413900
G1X3.987300Y43.485200
G1X3.896900Y43.575900
G1X3.627400Y43.846300
G1X3.627100Y43.846500
G1X3.536700Y43.937200
G1X3.465800Y44.043800
G1X3.417000Y44.162200
G1X3.397500Y44.261600
G1X3.392300Y44.287700
G1X3.392500Y44.415800
G1X3.392500Y44.415900
G1X3.417700Y44.541400
G1X3.466900Y44.659600
G1X3.538200Y44.765900
G1X4.406300Y45.630800
G1X4.408100Y46.681500
G1X4.373800Y46.716900
G1X4.330200Y46.760600
G1X4.327300Y46.765100
G1X4.323800Y46.768600
G1X4.292300Y46.817700
G1X4.259300Y46.867200
G1X4.257400Y46.872000
G1X4.254600Y46.876200
G1X4.232900Y46.931400
G1X4.210500Y46.985500
G1X4.209600Y46.990500
G1X4.207600Y46.995300
G1X4.197100Y47.053800
G1X4.185700Y47.111100
G1X4.185700Y47.116300
G1X4.184800Y47.121300
G1X4.185800Y47.179900
G1X4.185900Y47.239200
G1X4.186900Y47.244200
G1X4.204600Y48.272100
G1X4.202800Y48.318100
G1X4.205700Y48.336300
G1X4.206000Y48.354500
G1X4.215700Y48.399200
G1X4.222900Y48.444500
G1X4.229200Y48.461500
G1X4.233100Y48.479600
G1X4.251600Y48.522100
G1X5.031700Y50.633400
G1X5.034200Y50.646000
G1X5.053900Y50.693400
G1X5.071700Y50.741700
G1X5.078400Y50.752600
G1X5.083200Y50.764200
G1X5.111400Y50.806400
G1X5.138600Y50.850800
G1X5.147300Y50.860100
G1X5.154300Y50.870700
G1X5.190800Y50.907200
G1X5.225600Y50.944800
G1X5.235800Y50.952200
G1X5.244800Y50.961200
G1X5.287100Y50.989400
G1X5.329200Y51.020000
G1X5.341100Y51.025400
G1X5.351300Y51.032300
G1X5.397600Y51.051500
G1X5.445400Y51.073500
G1X5.458000Y51.076500
G1X5.469500Y51.081300
G1X5.519900Y51.091300
G1X5.569900Y51.103300
G1X5.582600Y51.103800
G1X5.595100Y51.106300
G1X5.646700Y51.106300
G1X5.698000Y51.108300
G1X5.710500Y51.106300
G1X5.723200Y51.106300
G1X5.773300Y51.096300
G1X5.824400Y51.088200
G1X5.836300Y51.083800
G1X5.848800Y51.081300
G1X5.896000Y51.061700
G1X5.944500Y51.043800
G1X5.955400Y51.037100
G1X5.967000Y51.032300
G1X6.009200Y51.004100
G1X6.053600Y50.976900
G1X6.062900Y50.968200
G1X6.073500Y50.961200
G1X6.110000Y50.924700
G1X6.147600Y50.889900
G1X6.155000Y50.879700
G1X6.164000Y50.870700
G1X6.192200Y50.828400
G1X6.222800Y50.786300
G1X6.228200Y50.774400
G1X6.235100Y50.764200
G1X6.254300Y50.717900
G1X6.276300Y50.670100
G1X6.279300Y50.657500
G1X6.284100Y50.646000
G1X6.294100Y50.595600
G1X6.306100Y50.545600
G1X6.306600Y50.532900
G1X6.309100Y50.520400
G1X6.309100Y50.468800
G1X6.311100Y50.417500
G1X6.309100Y50.405000
G1X6.309100Y47.296500
G1X6.325200Y47.280300
G1X6.325200Y53.410700
G1X6.360000Y53.585800
G1X6.428300Y53.750700
G1X6.527500Y53.899100
G1X6.653800Y54.025400
G1X6.654000Y54.025500
G1X17.350600Y64.722100
G1X17.350600Y65.213700
G1X17.510000Y65.373000
G1X13.191000Y65.373000
G1X13.190300Y65.372700
G1X13.064200Y65.347600
G1X12.935700Y65.347600
G1X12.809600Y65.372700
G1X12.690900Y65.421800
G1X12.584100Y65.493200
G1X9.584100Y68.493200
G1X9.493200Y68.584100
G1X9.421800Y68.690900
G1X9.372700Y68.809600
G1X9.347600Y68.935700
G1X9.347600Y89.729700
G1X7.584100Y91.493200
G1X7.493200Y91.584100
G1X7.421800Y91.690900
G1X7.372700Y91.809600
G1X7.347600Y91.935700
G1X7.347600Y93.529000
G1X6.666000Y94.210600
G1X6.666000Y95.249300
G1X6.782700Y95.365900
G1X6.328300Y95.367500
G1X6.387700Y91.073400
G1X7.184500Y90.487800
G1X7.220600Y90.523900

G0Z0.500
G0X2.757200Y98.854800
G1Z-0.100 f25
G1X3.795900Y98.854800 f200
G1X4.530500Y98.120200
G1X4.530500Y97.081500
G1X3.795900Y96.346900
G1X2.757200Y96.346900
G1X2.022600Y97.081500
G1X2.022600Y98.120200
G1X2.757200Y98.854800

G0Z0.500
G0X3.069300Y74.586600
G1Z-0.100 f25
G1X4.108000Y74.586600 f200
G1X4.842600Y73.852000
G1X4.842600Y73.349900
G1X7.427700Y73.349900
G1X7.571300Y73.493500
G1X8.610000Y73.493500
G1X9.344600Y72.758900
G1X9.344600Y71.720200
G1X8.610000Y70.985600
G1X7.571300Y70.985600
G1X6.906900Y71.650000
G1X4.083700Y71.650000
G1X3.916200Y71.650000
G1X3.752000Y71.682700
G1X3.597300Y71.746700
G1X3.458100Y71.839700
G1X3.339700Y71.958100
G1X3.259200Y72.078700
G1X3.069300Y72.078700
G1X2.334700Y72.813300
G1X2.334700Y73.852000
G1X3.069300Y74.586600

G0Z0.500
G0X4.365500Y71.633900
G1Z-0.100 f25
G1X6.695100Y71.633900 f200
G1X6.695200Y71.633900
G1X6.813600Y71.610300
G1X6.820700Y71.608900
G1X6.824100Y71.607500
G1X6.939000Y71.559900
G1X7.043200Y71.490200
G1X7.045400Y71.488800
G1X7.135900Y71.398300
G1X7.135900Y71.398200
G1X7.564500Y70.969500
G1X8.745600Y70.969500
G1X8.871200Y70.944500
G1X8.989400Y70.895500
G1X9.095900Y70.824400
G1X9.186400Y70.733900
G1X9.257500Y70.627400
G1X9.306500Y70.509200
G1X9.331500Y70.383600
G1X9.331500Y70.255500
G1X9.331500Y70.231900
G1X9.344600Y70.218900
G1X9.344600Y69.180200
G1X9.331500Y69.167200
G1X9.331500Y69.015400
G1X9.306500Y68.889800
G1X9.257500Y68.771600
G1X9.186400Y68.665100
G1X9.095900Y68.574600
G1X8.989400Y68.503500
G1X8.871200Y68.454500
G1X8.745600Y68.429500
G1X8.617500Y68.429500
G1X7.564500Y68.429500
G1X7.198700Y68.063600
G1X7.198500Y68.063200
G1X7.109100Y67.973900
G1X7.108200Y67.973000
G1X7.107900Y67.972700
G1X7.045200Y67.930900
G1X7.001800Y67.901900
G1X7.001500Y67.901800
G1X7.001400Y67.901700
G1X6.958100Y67.883800
G1X6.919600Y67.867900
G1X6.631600Y67.579900
G1X6.475900Y67.203800
G1X6.475900Y60.514800
G1X6.476000Y60.514300
G1X6.475900Y60.472100
