(This GCode generated with outlines_gcode_excel_mirrored.ulp program)
(running under Eagle CAD.)
(Use with mechanical etching/engraving bits, such as the)
(Think&Tinker Mechanical Etching Bit with 60-degree tip angle)
(X/Y/Z home should be at lower left corner of the board, with the tip just touching)
(C:/Users/Owner/Documents/eagle/nixie_display/untitledpattern_bot_1mm.nc layer 16)

(mm, Absolute mode, lift cutter above work, rapid to X/Y home, turn spindle on.)
G90
G0Z0.500
G0X0Y0
M03

(Begin)
G0Z0.500
G0X5.700700Y27.102300
G1Z-0.100 f25
G1X5.703500Y27.089400 f200
G1X5.715000Y27.051100
G1X5.717300Y27.027100
G1X5.722500Y27.003500
G1X5.723300Y26.963200
G1X5.727100Y26.923600
G1X5.724700Y26.899700
G1X5.770700Y24.706000
G1X5.762100Y27.125900
G1X5.722800Y27.170300
G1X5.700700Y27.102300

G0Z0.500
G0X5.268500Y19.378800
G1Z-0.100 f25
G1X5.293100Y19.426900 f200
G1X5.244900Y19.392000
G1X5.244300Y19.304100
G1X5.268500Y19.378800

G0Z0.500
G0X3.877000Y19.353100
G1Z-0.100 f25
G1X3.717300Y19.469100 f200
G1X3.678500Y19.508000
G1X3.692300Y15.305000
G1X4.025300Y14.972000
G1X4.012000Y14.994900
G1X3.986700Y15.033200
G1X3.979800Y15.050300
G1X3.970600Y15.066100
G1X3.955800Y15.109600
G1X3.938600Y15.151900
G1X3.935200Y15.169900
G1X3.929200Y15.187300
G1X3.923200Y15.232600
G1X3.914500Y15.277600
G1X3.914700Y15.296100
G1X3.912200Y15.314200
G1X3.915100Y15.359500
G1X3.944500Y19.318800
G1X3.877000Y19.353100

G0Z0.500
G0X5.242900Y78.540100
G1Z-0.100 f25
G1X5.197200Y78.506800 f200
G1X5.021300Y78.417200
G1X4.833600Y78.356200
G1X4.638700Y78.325300
G1X4.441200Y78.325300
G1X4.257800Y78.354400
G1X4.396200Y78.216100
G1X4.512200Y78.056400
G1X4.601800Y77.880500
G1X4.662800Y77.692800
G1X4.693700Y77.497900
G1X4.693700Y77.300400
G1X4.662800Y77.105500
G1X4.650700Y77.068400
G1X5.253500Y76.465600
G1X5.242900Y78.540100

G0Z0.500
G0X3.882600Y61.652200
G1Z-0.100 f25
G1X4.058500Y61.741800 f200
G1X4.076500Y61.747600
G1X3.844600Y61.972300
G1X3.842200Y61.973800
G1X3.837900Y61.978100
G1X3.839100Y61.620600
G1X3.882600Y61.652200

G0Z0.500
G0X4.256300Y26.358200
G1Z-0.100 f25
G1X4.394700Y26.219900 f200
G1X4.440100Y26.157300
G1X4.436500Y26.329600
G1X4.256300Y26.358200

G0Z0.500
G0X12.150000Y50.130700
G1Z-0.100 f25
G1X12.140800Y50.140000 f200
G1X12.142600Y50.097700
G1X12.146100Y50.037400
G1X12.145500Y50.033000
G1X12.150000Y49.927500
G1X12.150000Y50.130700

G0Z0.500
G0X9.979800Y50.539200
G1Z-0.100 f25
G1X10.860600Y49.658400 f200
G1X10.856100Y49.761900
G1X9.981700Y50.541800
G1X9.979800Y50.539200

G0Z0.500
G0X11.352200Y56.671300
G1Z-0.100 f25
G1X11.355100Y57.034000 f200
G1X10.980600Y56.299700
G1X11.352200Y56.671300

G0Z0.500
G0X12.556900Y56.058300
G1Z-0.100 f25
G1X12.556900Y56.063200 f200
G1X12.549700Y56.052600
G1X12.556900Y56.058300

G0Z0.500
G0X5.487900Y95.917100
G1Z-0.100 f25
G1X5.584800Y96.013900 f200
G1X5.449900Y95.959900
G1X5.449900Y95.864700
G1X5.487900Y95.917100

G0Z0.500
G0X43.963900Y75.699300
G1Z-0.100 f25
G1X43.963900Y74.660600 f200
G1X43.229300Y73.926000
G1X42.190600Y73.926000
G1X41.456000Y74.660600
G1X41.456000Y75.699300
G1X41.506800Y75.750000
G1X40.249900Y75.750000
G1X40.249900Y69.389600
G1X40.334900Y69.424900
G1X40.460500Y69.449900
G1X40.588600Y69.449900
G1X41.586800Y69.449900
G1X41.456000Y69.580600
G1X41.456000Y70.619300
G1X42.190600Y71.353900
G1X43.229300Y71.353900
G1X43.963900Y70.619300
G1X43.963900Y70.411000
G1X44.265200Y70.694500
G1X44.265200Y75.790100
G1X44.229500Y75.775200
G1X44.228800Y75.775100
G1X44.228700Y75.775000
G1X44.179700Y75.765300
G1X44.103900Y75.750100
G1X44.103500Y75.750100
G1X44.103100Y75.750000
G1X44.040600Y75.750000
G1X43.975800Y75.749900
G1X43.975300Y75.750000
G1X43.913100Y75.750000
G1X43.963900Y75.699300

G0Z0.500
G0X43.291000Y73.929900
G1Z-0.100 f25
G1X43.409200Y73.978900 f200
G1X43.409400Y73.978900
G1X43.409500Y73.979000
G1X43.450200Y73.987100
G1X43.534700Y74.004000
G1X43.662900Y74.004000
G1X43.663200Y74.004000
G1X43.754700Y73.985800
G1X43.788400Y73.979100
G1X43.788500Y73.979000
G1X43.788800Y73.979000
G1X43.842400Y73.956700
G1X43.906700Y73.930200
G1X44.013200Y73.859100
G1X44.013500Y73.858900
G1X44.057800Y73.814600
G1X44.103800Y73.768700
G1X44.175000Y73.662200
G1X44.224000Y73.544000
G1X44.224000Y73.543800
G1X44.224100Y73.543700
G1X44.232200Y73.503000
G1X44.249100Y73.418500
G1X44.249100Y73.290300
G1X44.249100Y71.861700
G1X44.249100Y71.861300
G1X44.232600Y71.779200
G1X44.224100Y71.736100
G1X44.224000Y71.736000
G1X44.224000Y71.735800
G1X44.175000Y71.617600
G1X44.104500Y71.512300
G1X44.104000Y71.511400
G1X44.103800Y71.511100
G1X44.059200Y71.466600
G1X44.013500Y71.420900
G1X43.907000Y71.349800
G1X43.906700Y71.349600
G1X43.844400Y71.323900
G1X43.788800Y71.300800
G1X43.788400Y71.300800
G1X43.788400Y71.300700
G1X43.758200Y71.294700
G1X43.663200Y71.275800
G1X43.535100Y71.275800
G1X43.534700Y71.275800
G1X43.452600Y71.292300
G1X43.409500Y71.300800
G1X43.409400Y71.300900
G1X43.409200Y71.300900
G1X43.291000Y71.349900
G1X43.261100Y71.369900
G1X42.183900Y71.369900
G1X41.420700Y70.606700
G1X41.420700Y70.606600
G1X41.347200Y70.533200
G1X41.330200Y70.516100
G1X41.223800Y70.445000
G1X41.105500Y70.396000
G1X40.979900Y70.371000
G1X40.851800Y70.371000
G1X40.844700Y70.372400
G1X40.726200Y70.396000
G1X40.611500Y70.443600
G1X40.608000Y70.445000
G1X40.501500Y70.516100
G1X40.411000Y70.606600
G1X40.339900Y70.713000
G1X40.290900Y70.831300
G1X40.265900Y70.956900
G1X40.265900Y71.085000
G1X40.265900Y74.322900
G1X40.290900Y74.448500
G1X40.292300Y74.451900
G1X40.339900Y74.566800
G1X40.409600Y74.671000
G1X40.411000Y74.673200
G1X40.501500Y74.763700
G1X40.608000Y74.834800
G1X40.726200Y74.883800
G1X40.851800Y74.908800
G1X40.979900Y74.908800
G1X41.105500Y74.883800
G1X41.108900Y74.882400
G1X41.223800Y74.834800
G1X41.328000Y74.765100
G1X41.330200Y74.763700
G1X41.420700Y74.673200
G1X41.420700Y74.673100
G1X42.183900Y73.909900
G1X43.261100Y73.909900
G1X43.291000Y73.929900

G0Z0.500
G0X36.931000Y65.768200
G1Z-0.100 f25
G1X36.885100Y65.738300 f200
G1X36.824000Y65.698400
G1X36.705200Y65.650700
G1X36.705100Y65.650700
G1X36.704900Y65.650600
G1X36.579100Y65.627000
G1X36.451000Y65.628400
G1X36.450700Y65.628500
G1X36.252500Y65.630600
G1X36.343900Y65.539300
G1X36.343900Y64.500600
G1X35.609300Y63.766000
G1X34.570600Y63.766000
G1X34.488100Y63.848500
G1X34.486000Y63.649200
G1X34.570600Y63.733900
G1X35.609300Y63.733900
G1X36.343900Y62.999300
G1X36.343900Y61.960600
G1X35.609300Y61.226000
G1X34.570600Y61.226000
G1X34.461100Y61.335600
G1X34.458300Y61.081500
G1X34.570600Y61.193900
G1X35.609300Y61.193900
G1X36.343900Y60.459300
G1X36.343900Y59.420600
G1X36.262700Y59.339500
G1X36.993300Y59.346000
G1X36.998600Y65.834400
G1X36.931000Y65.768200

G0Z0.500
G0X36.343900Y72.257900
G1Z-0.100 f25
G1X36.976500Y71.700300 f200
G1X36.996600Y71.686600
G1X37.003300Y71.679700
G1X37.003900Y72.464300
G1X36.343900Y73.010300
G1X36.343900Y72.257900

G0Z0.500
G0X34.093500Y17.859600
G1Z-0.100 f25
G1X34.093000Y17.857100 f200
G1X34.093000Y17.854900
G1X34.081500Y17.798600
G1X34.068900Y17.734000
G1X34.067900Y17.731700
G1X34.067500Y17.729500
G1X34.043200Y17.671700
G1X34.020200Y17.615600
G1X34.019000Y17.613800
G1X34.018000Y17.611400
G1X33.982800Y17.559300
G1X33.949400Y17.508900
G1X33.947600Y17.507100
G1X33.946400Y17.505300
G1X33.905900Y17.465100
G1X33.859200Y17.418100
G1X33.857100Y17.416700
G1X33.855500Y17.415100
G1X33.807200Y17.383200
G1X33.753000Y17.346700
G1X33.750600Y17.345700
G1X33.748800Y17.344500
G1X33.697200Y17.323400
G1X33.634800Y17.297300
G1X33.632200Y17.296800
G1X33.630300Y17.296000
G1X33.571300Y17.284500
G1X33.509300Y17.272000
G1X33.507100Y17.272000
G1X33.504600Y17.271500
G1X33.441000Y17.271800
G1X30.969200Y17.264400
G1X31.065800Y17.167900
G1X31.065800Y16.129200
G1X30.331200Y15.394600
G1X29.292500Y15.394600
G1X28.557900Y16.129200
G1X28.557900Y17.167900
G1X28.647600Y17.257500
G1X26.831800Y17.252100
G1X26.770900Y17.251200
G1X26.767100Y17.251900
G1X26.763100Y17.251900
G1X26.704000Y17.263500
G1X26.645000Y17.274300
G1X26.641400Y17.275800
G1X26.637500Y17.276500
G1X26.584700Y17.298300
G1X26.526000Y17.321500
G1X26.522400Y17.323900
G1X26.519100Y17.325200
G1X26.471400Y17.356900
G1X26.418500Y17.391100
G1X26.415700Y17.393800
G1X26.412400Y17.396000
G1X26.369900Y17.438300
G1X26.326600Y17.480200
G1X26.324400Y17.483500
G1X26.321600Y17.486200
G1X26.288400Y17.535700
G1X26.253900Y17.585600
G1X26.252400Y17.589200
G1X26.250200Y17.592400
G1X26.226600Y17.649000
G1X26.203200Y17.703100
G1X26.202400Y17.706800
G1X26.200800Y17.710600
G1X26.188800Y17.770200
G1X26.176300Y17.828300
G1X26.176300Y17.832500
G1X26.175500Y17.836100
G1X26.175300Y17.894300
G1X26.151800Y19.472900
G1X26.148500Y18.618400
G1X26.158300Y17.956400
G1X26.159100Y17.952800
G1X26.159200Y17.895300
G1X26.160200Y17.832600
G1X26.159400Y17.828600
G1X26.159600Y17.763300
G1X26.187300Y17.699300
G1X26.189700Y17.695800
G1X26.213300Y17.639200
G1X26.236500Y17.585600
G1X26.237300Y17.581600
G1X26.263400Y17.519200
G1X26.310300Y17.473600
G1X26.313800Y17.471400
G1X26.356000Y17.429300
G1X26.399200Y17.387500
G1X26.401500Y17.384000
G1X26.452400Y17.333400
G1X26.514400Y17.308800
G1X26.518400Y17.308100
G1X26.574300Y17.285000
G1X26.629800Y17.263100
G1X26.633100Y17.260900
G1X26.698500Y17.234000
G1X26.769000Y17.235000
G1X26.772600Y17.235800
G1X26.830800Y17.236000
G1X26.893000Y17.236900
G1X26.896900Y17.236200
G1X27.826900Y17.239000
G1X27.827800Y17.239200
G1X27.887900Y17.239200
G1X27.953900Y17.239400
G1X27.954900Y17.239200
G1X27.955900Y17.239200
G1X28.012800Y17.227800
G1X28.079600Y17.214800
G1X28.080600Y17.214400
G1X28.081500Y17.214200
G1X28.125300Y17.196000
G1X28.198000Y17.166200
G1X28.199200Y17.165400
G1X28.199700Y17.165200
G1X28.230900Y17.144400
G1X28.304700Y17.095400
G1X28.305600Y17.094500
G1X28.306200Y17.094100
G1X28.349700Y17.050600
G1X28.395400Y17.005100
G1X28.395800Y17.004500
G1X28.396700Y17.003600
G1X28.430800Y16.952500
G1X28.466900Y16.898900
G1X28.467400Y16.897700
G1X28.467800Y16.897100
G1X28.488900Y16.846100
G1X28.516200Y16.780800
G1X28.516400Y16.779900
G1X28.516800Y16.778900
G1X28.529500Y16.714800
G1X28.541600Y16.655300
G1X28.541600Y16.654200
G1X28.541800Y16.653300
G1X28.541800Y16.591600
G1X28.542000Y16.527200
G1X28.541800Y16.526200
G1X28.541800Y16.122500
G1X28.871500Y15.792800
G1X28.871600Y15.792700
G1X28.942700Y15.686300
G1X28.976800Y15.603600
G1X28.991600Y15.568100
G1X29.016600Y15.442500
G1X29.016600Y15.314400
G1X29.016600Y15.314300
G1X28.993000Y15.195900
G1X28.991600Y15.188800
G1X28.990200Y15.185400
G1X28.942600Y15.070500
G1X28.872900Y14.966200
G1X28.871500Y14.964100
G1X28.781000Y14.873600
G1X28.780900Y14.873600
G1X28.541800Y14.634500
G1X28.541800Y13.582500
G1X29.285800Y12.838500
G1X30.337800Y12.838500
G1X31.081800Y13.582500
G1X31.081800Y14.634500
G1X30.842700Y14.873600
G1X30.842600Y14.873600
G1X30.761000Y14.955300
G1X30.752100Y14.964100
G1X30.681000Y15.070500
G1X30.632000Y15.188800
G1X30.607000Y15.314300
G1X30.607000Y15.442400
G1X30.607000Y15.442500
G1X30.632000Y15.568100
G1X30.645900Y15.601600
G1X30.680900Y15.686300
G1X30.752000Y15.792700
G1X30.842600Y15.883300
G1X31.081800Y16.122500
G1X31.081800Y16.599100
G1X31.081600Y16.662800
G1X31.081800Y16.663800
G1X31.081800Y16.664700
G1X31.092700Y16.719100
G1X31.106200Y16.788400
G1X31.106700Y16.789400
G1X31.106800Y16.790300
G1X31.125200Y16.834700
G1X31.154800Y16.906800
G1X31.155600Y16.907900
G1X31.155800Y16.908500
G1X31.183800Y16.950400
G1X31.225700Y17.013500
G1X31.226300Y17.014100
G1X31.226900Y17.015000
G1X31.271100Y17.059100
G1X31.315900Y17.104300
G1X31.316800Y17.104900
G1X31.317400Y17.105500
G1X31.358400Y17.132800
G1X31.422100Y17.175700
G1X31.423300Y17.176200
G1X31.423900Y17.176600
G1X31.467900Y17.194800
G1X31.540300Y17.225100
G1X31.541500Y17.225300
G1X31.542100Y17.225600
G1X31.593100Y17.235700
G1X31.665700Y17.250400
G1X31.666800Y17.250400
G1X31.667700Y17.250600
G1X31.732900Y17.250600
G1X33.375100Y17.255500
G1X33.377500Y17.256000
G1X33.441200Y17.255700
G1X33.501000Y17.255900
G1X33.503300Y17.255400
G1X33.575400Y17.255100
G1X33.634700Y17.279900
G1X33.636900Y17.281400
G1X33.697000Y17.305900
G1X33.750600Y17.328400
G1X33.753000Y17.328800
G1X33.820500Y17.356500
G1X33.868000Y17.404200
G1X33.869400Y17.406400
G1X33.917100Y17.453600
G1X33.956600Y17.493400
G1X33.958400Y17.494600
G1X34.008200Y17.543900
G1X34.035100Y17.609400
G1X34.035500Y17.611800
G1X34.058600Y17.666700
G1X34.082700Y17.725600
G1X34.084200Y17.727700
G1X34.109700Y17.788700
G1X34.109500Y17.854600
G1X34.109000Y17.857100
G1X34.109300Y17.922900
G1X34.109100Y17.980500
G1X34.109600Y17.982700
G1X34.163500Y30.676200
G1X34.160700Y30.697700
G1X34.163800Y30.741100
G1X34.163900Y30.783100
G1X34.168100Y30.803600
G1X34.169600Y30.825500
G1X34.181100Y30.867500
G1X34.189400Y30.908500
G1X34.197600Y30.927900
G1X34.203300Y30.949000
G1X34.222600Y30.987600
G1X34.238900Y31.026600
G1X34.250800Y31.044100
G1X34.260400Y31.063500
G1X34.287000Y31.097800
G1X34.310500Y31.132700
G1X34.325400Y31.147400
G1X34.338800Y31.164800
G1X34.371600Y31.193200
G1X34.401400Y31.222900
G1X34.419100Y31.234500
G1X34.435400Y31.248800
G1X34.473000Y31.270200
G1X34.508100Y31.293500
G1X34.527800Y31.301500
G1X34.546600Y31.312300
G1X34.587300Y31.325800
G1X34.626600Y31.342000
G1X34.647800Y31.346100
G1X34.668000Y31.352900
G1X34.709900Y31.358200
G1X34.752200Y31.366500
G1X34.773900Y31.366400
G1X34.795000Y31.369100
G1X34.838100Y31.366100
G1X34.880400Y31.365900
G1X34.900900Y31.361700
G1X34.922800Y31.360200
G1X34.964800Y31.348700
G1X35.005800Y31.340400
G1X35.025200Y31.332200
G1X35.046300Y31.326500
G1X35.085000Y31.307200
G1X35.123900Y31.290900
G1X35.141400Y31.279000
G1X37.563100Y30.071700
G1X37.600700Y30.056200
G1X37.619300Y30.043700
G1X37.640100Y30.033400
G1X37.673000Y30.007800
G1X37.707200Y29.985100
G1X37.723200Y29.969000
G1X37.741400Y29.955000
G1X37.768700Y29.923500
G1X37.797700Y29.894600
G1X37.810100Y29.875900
G1X37.825400Y29.858400
G1X37.846300Y29.821800
G1X37.868800Y29.788100
G1X37.877400Y29.767300
G1X37.888900Y29.747200
G1X37.902000Y29.707900
G1X37.917800Y29.669900
G1X37.922200Y29.647300
G1X37.929500Y29.625800
G1X37.934700Y29.584900
G1X37.942800Y29.544300
G1X37.942800Y29.521500
G1X37.945700Y29.498800
G1X37.942800Y29.457100
G1X37.942800Y29.272500
G1X38.686800Y28.528600
G1X39.738800Y28.528600
G1X39.867500Y28.657300
G1X39.867500Y28.680100
G1X39.732200Y28.544700
G1X38.693500Y28.544700
G1X37.958900Y29.279300
G1X37.958900Y29.892400
G1X34.294800Y31.719100
G1X34.257100Y31.734700
G1X34.238500Y31.747200
G1X34.217700Y31.757500
G1X34.184800Y31.783000
G1X34.152200Y31.804800
G1X34.093300Y17.924600
G1X34.093500Y17.859600

G0Z0.500
G0X29.292500Y15.362500
G1Z-0.100 f25
G1X30.331200Y15.362500 f200
G1X31.065800Y14.627900
G1X31.065800Y13.589200
G1X30.331200Y12.854600
G1X29.292500Y12.854600
G1X28.557900Y13.589200
G1X28.557900Y14.627900
G1X29.292500Y15.362500

G0Z0.500
G0X24.979300Y84.946000
G1Z-0.100 f25
G1X24.943100Y84.946000 f200
G1X24.958800Y84.938600
G1X24.999000Y84.922900
G1X25.016100Y84.911900
G1X25.035000Y84.903100
G1X25.070400Y84.877100
G1X25.093500Y84.862300
G1X25.090900Y85.057700
G1X24.979300Y84.946000

G0Z0.500
G0X29.281900Y69.221100
G1Z-0.100 f25
G1X28.547300Y69.955700 f200
G1X28.547300Y70.507200
G1X27.569200Y71.510700
G1X27.558600Y71.518600
G1X27.525800Y71.555200
G1X27.489800Y71.592100
G1X27.482300Y71.603600
G1X27.473100Y71.613900
G1X27.447200Y71.657700
G1X27.420100Y71.699500
G1X27.415000Y71.712300
G1X27.408000Y71.724100
G1X27.391600Y71.770800
G1X27.372600Y71.818300
G1X27.370000Y71.832300
G1X24.318800Y80.516900
G1X24.326600Y80.446000
G1X27.290000Y72.011300
G1X27.308700Y71.964500
G1X27.311100Y71.951500
G1X27.315600Y71.938700
G1X27.320200Y71.906200
G1X27.352800Y71.824400
G1X27.359900Y71.812600
G1X27.376500Y71.765200
G1X27.395200Y71.718500
G1X27.397700Y71.704900
G1X27.420400Y71.640300
G1X27.469700Y71.589700
G1X27.481000Y71.581300
G1X27.514400Y71.543900
G1X27.549300Y71.508200
G1X27.556900Y71.496400
G1X27.614200Y71.432400
G1X27.640900Y71.414100
G1X27.650100Y71.404600
G1X27.661000Y71.396500
G1X27.695000Y71.358500
G1X28.345000Y70.691700
G1X28.386100Y70.650700
G1X28.388300Y70.647300
G1X28.391400Y70.644200
G1X28.426000Y70.590800
G1X28.457200Y70.544200
G1X28.458700Y70.540600
G1X28.461100Y70.536900
G1X28.484300Y70.478700
G1X28.506200Y70.426000
G1X28.507000Y70.422000
G1X28.508600Y70.418000
G1X28.520000Y70.356600
G1X28.531200Y70.300400
G1X28.531200Y70.296400
G1X28.532000Y70.292100
G1X28.531200Y70.231700
G1X28.531200Y69.949000
G1X29.275200Y69.205000
G1X29.460100Y69.205000
G1X29.464300Y69.205800
G1X29.524500Y69.205000
G1X29.584100Y69.205000
G1X29.588300Y69.204100
G1X29.592400Y69.204100
G1X29.649000Y69.192000
G1X29.664400Y69.189000
G1X29.832200Y69.189000
G1X29.800900Y69.221100
G1X29.281900Y69.221100

G0Z0.500
G0X43.229300Y79.006000
G1Z-0.100 f25
G1X42.190600Y79.006000 f200
G1X41.456000Y79.740600
G1X41.456000Y80.077600
G1X38.215800Y81.373700
G1X38.212900Y81.374200
G1X38.152900Y81.398800
G1X38.099100Y81.420300
G1X38.097000Y81.421700
G1X38.094500Y81.422700
G1X38.043000Y81.456900
G1X37.991800Y81.490100
G1X37.990000Y81.492000
G1X37.987700Y81.493400
G1X37.941700Y81.539000
G1X37.900200Y81.579500
G1X37.898900Y81.581500
G1X37.896800Y81.583500
G1X37.861100Y81.636700
G1X37.827800Y81.685100
G1X37.826800Y81.687600
G1X37.825300Y81.689700
G1X37.803200Y81.742500
G1X37.777300Y81.802700
G1X37.776700Y81.805600
G1X37.775800Y81.807700
G1X37.765000Y81.860900
G1X37.750800Y81.928000
G1X37.750800Y81.931000
G1X37.750300Y81.933200
G1X37.750100Y81.991300
G1X37.749300Y82.056100
G1X37.749800Y82.058600
G1X37.711900Y91.126700
G1X36.156400Y91.126700
G1X36.343900Y90.939300
G1X36.343900Y89.900600
G1X35.609300Y89.166000
G1X34.570600Y89.166000
G1X33.836000Y89.900600
G1X33.836000Y90.939300
G1X34.023500Y91.126700
G1X31.916400Y91.126700
G1X32.253900Y90.789300
G1X32.253900Y89.750600
G1X31.519300Y89.016000
G1X30.480600Y89.016000
G1X29.849900Y89.646800
G1X29.849900Y88.353100
G1X30.480600Y88.983900
G1X31.519300Y88.983900
G1X32.253900Y88.249300
G1X32.253900Y87.210600
G1X31.519300Y86.476000
G1X31.449900Y86.476000
G1X31.449900Y83.222800
G1X31.452800Y83.182100
G1X31.449900Y83.159100
G1X31.449900Y83.135900
G1X31.441900Y83.096000
G1X31.436800Y83.055100
G1X31.429400Y83.033000
G1X31.424900Y83.010300
G1X31.409300Y82.972700
G1X31.396300Y82.933700
G1X31.384700Y82.913400
G1X31.375900Y82.892100
G1X31.353400Y82.858500
G1X31.332900Y82.822400
G1X31.317500Y82.804800
G1X31.304800Y82.785600
G1X31.275800Y82.756700
G1X31.249000Y82.725700
G1X31.230600Y82.711500
G1X31.214300Y82.695100
G1X31.180600Y82.672700
G1X31.147900Y82.647200
G1X31.126600Y82.636600
G1X31.107800Y82.624000
G1X31.070900Y82.608700
G1X29.793900Y81.970300
G1X29.793900Y81.680600
G1X29.059300Y80.946000
G1X28.020600Y80.946000
G1X27.286000Y81.680600
G1X27.286000Y82.719300
G1X28.020600Y83.453900
G1X29.059300Y83.453900
G1X29.324400Y83.188800
G1X30.150000Y83.601600
G1X30.150000Y85.036800
G1X30.059300Y84.946000
G1X29.020600Y84.946000
G1X28.286000Y85.680600
G1X28.286000Y86.719300
G1X28.550000Y86.983300
G1X28.550000Y89.329100
G1X28.159900Y89.316600
G1X27.519300Y88.676000
G1X27.093300Y88.676000
G1X27.329100Y88.513300
G1X27.373900Y88.484500
G1X27.381700Y88.477000
G1X27.390500Y88.470900
G1X27.427100Y88.433100
G1X27.466000Y88.395600
G1X27.472300Y88.386500
G1X27.479600Y88.379000
G1X27.508000Y88.335000
G1X27.539000Y88.290400
G1X27.543300Y88.280300
G1X27.549100Y88.271500
G1X27.568300Y88.222900
G1X27.590100Y88.173000
G1X27.592400Y88.162200
G1X27.596300Y88.152500
G1X27.605700Y88.101300
G1X27.617300Y88.047900
G1X27.617500Y88.036900
G1X27.619400Y88.026500
G1X27.618600Y87.973500
G1X27.629700Y87.343400
G1X28.253900Y86.719300
G1X28.253900Y85.680600
G1X27.519300Y84.946000
G1X26.480600Y84.946000
G1X26.391200Y85.035400
G1X26.412400Y83.453900
G1X26.519300Y83.453900
G1X27.253900Y82.719300
G1X27.253900Y81.680600
G1X26.519300Y80.946000
G1X25.545800Y80.946000
G1X28.565600Y72.350800
G1X29.226100Y71.673200
G1X29.281900Y71.729000
G1X30.320600Y71.729000
G1X30.730100Y71.319500
G1X30.733100Y72.173700
G1X30.320600Y71.761100
G1X29.281900Y71.761100
G1X28.547300Y72.495700
G1X28.547300Y73.534400
G1X29.281900Y74.269000
G1X30.320600Y74.269000
G1X30.739100Y73.850500
G1X30.742200Y74.722700
G1X30.320600Y74.301100
G1X29.281900Y74.301100
G1X28.547300Y75.035700
G1X28.547300Y76.074400
G1X29.281900Y76.809000
G1X30.320600Y76.809000
G1X30.748100Y76.381500
G1X30.751300Y77.271900
G1X30.320600Y76.841100
G1X29.281900Y76.841100
G1X28.547300Y77.575700
G1X28.547300Y78.614400
G1X29.281900Y79.349000
G1X30.320600Y79.349000
G1X30.757100Y78.912400
G1X30.762500Y80.418900
G1X30.761200Y80.473900
G1X30.762700Y80.482200
G1X30.762700Y80.490800
G1X30.773800Y80.545400
G1X30.783400Y80.599900
G1X30.786500Y80.607800
G1X30.788200Y80.616300
G1X30.809600Y80.667300
G1X30.829700Y80.719300
G1X30.834400Y80.726500
G1X30.837600Y80.734400
G1X30.868500Y80.780200
G1X30.898400Y80.827300
G1X30.904300Y80.833400
G1X30.909100Y80.840600
G1X30.948900Y80.880000
G1X30.986900Y80.919900
G1X30.993800Y80.924700
G1X30.999900Y80.930800
G1X31.046000Y80.961300
G1X33.836000Y82.917800
G1X33.836000Y83.319300
G1X34.570600Y84.053900
G1X35.609300Y84.053900
G1X36.343900Y83.319300
G1X36.343900Y82.280600
G1X35.609300Y81.546000
G1X34.570600Y81.546000
G1X34.394700Y81.722000
G1X32.061100Y80.085500
G1X32.057700Y79.113800
G1X32.066700Y79.121900
G1X32.098800Y79.154200
G1X32.114700Y79.164800
G1X32.128900Y79.177600
G1X32.168100Y79.200700
G1X32.205100Y79.225600
G1X32.222500Y79.232800
G1X33.836000Y80.185600
G1X33.836000Y80.779300
G1X34.570600Y81.513900
G1X35.609300Y81.513900
G1X36.343900Y80.779300
G1X36.343900Y79.740600
G1X35.609300Y79.006000
G1X34.570600Y79.006000
G1X34.505400Y79.071200
G1X33.165500Y78.280000
G1X33.169000Y76.995300
G1X33.170500Y76.996000
G1X33.238000Y77.024200
G1X33.239200Y77.024400
G1X33.240300Y77.024900
G1X33.296800Y77.036100
G1X33.363500Y77.049700
G1X33.365000Y77.049700
G1X33.365900Y77.049900
G1X33.427900Y77.049900
G1X33.491600Y77.050100
G1X33.492600Y77.049900
G1X33.986800Y77.049900
G1X33.836000Y77.200600
G1X33.836000Y78.239300
G1X34.570600Y78.973900
G1X35.609300Y78.973900
G1X36.343900Y78.239300
G1X36.343900Y77.200600
G1X36.179600Y77.036400
G1X38.696600Y77.017300
G1X38.757700Y77.017300
G1X38.760100Y77.016800
G1X38.762600Y77.016800
G1X38.825800Y77.003700
G1X38.883300Y76.992300
G1X38.885300Y76.991400
G1X38.888000Y76.990900
G1X38.950900Y76.964200
G1X39.001500Y76.943300
G1X39.003300Y76.942100
G1X39.005900Y76.941000
G1X39.062000Y76.902900
G1X39.108000Y76.872200
G1X39.109600Y76.870600
G1X39.111800Y76.869100
G1X39.130700Y76.849800
G1X39.185600Y76.904800
G1X39.292100Y76.975900
G1X39.410300Y77.024900
G1X39.535900Y77.049900
G1X41.606800Y77.049900
G1X41.456000Y77.200600
G1X41.456000Y78.239300
G1X42.190600Y78.973900
G1X43.229300Y78.973900
G1X43.386000Y78.817100
G1X43.385600Y79.162400
G1X43.229300Y79.006000

G0Z0.500
G0X39.413600Y77.043600
G1Z-0.100 f25
G1X39.411500Y77.042200 f200
G1X39.357300Y77.020300
G1X39.298000Y76.995700
G1X39.295200Y76.995200
G1X39.292900Y76.994200
G1X39.234300Y76.983100
G1X39.172400Y76.970700
G1X39.169700Y76.970700
G1X39.167100Y76.970200
G1X39.103200Y76.970700
G1X39.044300Y76.970700
G1X39.041900Y76.971200
G1X39.039000Y76.971200
G1X38.972200Y76.985100
G1X38.918800Y76.995700
G1X38.916700Y76.996600
G1X38.913700Y76.997200
G1X38.850800Y77.023900
G1X38.828100Y77.033300
G1X38.763000Y77.033300
G1X38.760400Y77.032800
G1X38.694600Y77.033300
G1X38.637200Y77.033300
G1X38.635000Y77.033800
G1X37.006700Y77.046100
G1X36.945800Y77.046100
G1X36.943400Y77.046600
G1X36.940900Y77.046600
G1X36.877400Y77.059800
G1X36.820200Y77.071100
G1X36.818200Y77.072000
G1X36.815500Y77.072500
G1X36.752300Y77.099300
G1X36.702000Y77.120100
G1X36.700300Y77.121300
G1X36.697600Y77.122400
G1X36.641300Y77.160700
G1X36.595500Y77.191200
G1X36.593900Y77.192900
G1X36.591700Y77.194300
G1X36.546700Y77.240000
G1X36.505000Y77.281700
G1X36.503700Y77.283800
G1X36.501900Y77.285500
G1X36.466900Y77.338800
G1X36.433900Y77.388200
G1X36.433000Y77.390400
G1X36.431600Y77.392500
G1X36.409100Y77.448100
G1X36.384900Y77.506400
G1X36.384400Y77.509100
G1X36.383500Y77.511200
G1X36.371900Y77.572200
G1X36.359900Y77.632000
G1X36.359900Y77.634300
G1X36.359400Y77.636900
G1X36.359900Y77.701100
G1X36.359900Y78.245900
G1X36.120800Y78.485000
G1X36.120700Y78.485000
G1X36.039100Y78.566700
G1X36.030200Y78.575500
G1X35.959100Y78.681900
G1X35.910100Y78.800200
G1X35.885100Y78.925700
G1X35.885100Y79.053800
G1X35.885100Y79.053900
G1X35.910100Y79.179500
G1X35.924100Y79.213000
G1X35.959000Y79.297700
G1X36.030100Y79.404100
G1X36.120700Y79.494700
G1X36.359900Y79.733900
G1X36.359900Y80.785900
G1X36.030200Y81.115600
G1X36.030100Y81.115700
G1X35.959000Y81.222100
G1X35.924900Y81.304800
G1X35.910100Y81.340300
G1X35.885100Y81.465900
G1X35.885100Y81.594000
G1X35.885100Y81.594100
G1X35.908700Y81.712400
G1X35.910100Y81.719600
G1X35.911600Y81.723000
G1X35.959100Y81.837900
G1X36.028800Y81.942100
G1X36.030200Y81.944300
G1X36.120700Y82.034800
G1X36.120800Y82.034800
G1X36.359900Y82.273900
G1X36.359900Y83.325900
G1X36.030200Y83.655600
G1X36.030200Y83.655700
G1X36.030100Y83.655700
G1X35.959000Y83.762100
G1X35.924900Y83.844800
G1X35.910100Y83.880300
G1X35.885100Y84.005900
G1X35.885100Y84.134000
G1X35.885100Y84.134100
G1X35.908700Y84.252400
G1X35.910100Y84.259600
G1X35.911600Y84.263000
G1X35.959100Y84.377900
G1X36.028800Y84.482100
G1X36.030200Y84.484300
G1X36.120700Y84.574800
G1X36.120800Y84.574800
G1X36.359900Y84.813900
G1X36.359900Y85.865900
G1X36.120900Y86.104900
G1X36.120700Y86.105000
G1X36.030200Y86.195500
G1X35.980700Y86.269700
G1X35.959100Y86.301900
G1X35.959100Y86.302000
G1X35.910100Y86.420200
G1X35.885100Y86.545800
G1X35.885100Y86.673900
G1X35.910100Y86.799500
G1X35.939000Y86.869100
G1X35.959000Y86.917700
G1X36.016000Y87.002900
G1X36.030200Y87.024200
G1X36.359900Y87.353900
G1X36.359900Y88.405900
G1X36.120800Y88.645000
G1X36.120700Y88.645000
G1X36.039100Y88.726700
G1X36.030200Y88.735500
G1X35.959100Y88.841900
G1X35.910100Y88.960200
G1X35.885100Y89.085700
G1X35.885100Y89.213800
G1X35.885100Y89.213900
G1X35.910100Y89.339500
G1X35.924000Y89.373000
G1X35.959000Y89.457700
G1X36.030100Y89.564100
G1X36.120700Y89.654700
G1X36.359900Y89.893900
G1X36.359900Y90.524700
G1X36.384900Y90.650300
G1X36.433900Y90.768500
G1X36.505000Y90.875000
G1X36.595500Y90.965500
G1X36.702000Y91.036600
G1X36.820200Y91.085600
G1X36.945800Y91.110600
G1X37.046400Y91.110600
G1X37.110000Y91.110900
G1X37.111500Y91.110600
G1X37.112700Y91.110600
G1X37.167600Y91.099600
G1X37.235700Y91.086400
G1X37.237000Y91.085800
G1X37.238300Y91.085600
G1X37.292300Y91.063200
G1X37.354100Y91.037900
G1X37.355300Y91.037100
G1X37.356500Y91.036600
G1X37.408100Y91.002100
G1X37.460900Y90.967200
G1X37.461800Y90.966300
G1X37.463000Y90.965500
G1X37.506500Y90.921900
G1X37.551800Y90.877100
G1X37.552600Y90.875900
G1X37.553500Y90.875000
G1X37.587400Y90.824100
G1X37.623300Y90.770900
G1X37.623800Y90.769700
G1X37.624600Y90.768500
G1X37.649300Y90.708900
G1X37.672800Y90.652900
G1X37.673000Y90.651600
G1X37.673600Y90.650300
G1X37.686700Y90.584400
G1X37.698300Y90.527400
G1X37.698300Y90.526100
G1X37.698600Y90.524700
G1X37.698600Y90.455400
G1X37.732700Y82.314100
G1X37.733200Y82.311500
G1X37.732900Y82.254000
G1X37.733200Y82.189300
G1X37.732600Y82.186300
G1X37.732600Y82.183400
G1X37.731600Y82.178700
G1X37.733100Y82.059000
G1X37.733700Y82.056300
G1X37.733900Y81.994800
G1X37.734700Y81.933800
G1X37.734200Y81.931100
G1X37.734400Y81.861900
G1X37.762900Y81.795400
G1X37.764600Y81.793000
G1X37.790200Y81.731700
G1X37.812400Y81.680100
G1X37.812900Y81.677600
G1X37.838000Y81.617700
G1X37.888700Y81.568200
G1X37.890800Y81.566900
G1X37.929100Y81.528800
G1X37.978200Y81.481000
G1X37.979900Y81.478400
G1X38.027000Y81.431700
G1X38.089000Y81.406900
G1X38.091900Y81.406400
G1X38.151800Y81.381800
G1X38.205500Y81.360400
G1X38.207700Y81.358900
G1X38.321700Y81.312200
G1X38.327600Y81.311200
G1X38.329200Y81.310500
G1X38.331200Y81.310200
G1X38.397600Y81.283600
G1X38.446700Y81.264300
G1X38.447900Y81.263400
G1X40.975500Y80.252300
G1X40.979600Y80.251500
G1X41.035600Y80.228200
G1X41.090800Y80.206200
G1X41.094100Y80.204000
G1X41.097800Y80.202500
G1X41.147600Y80.169200
G1X41.198100Y80.136400
G1X41.200900Y80.133600
G1X41.204300Y80.131400
G1X41.248000Y80.087700
G1X41.289700Y80.047000
G1X41.291800Y80.043800
G1X41.294800Y80.040900
G1X41.328800Y79.989900
G1X41.362100Y79.941400
G1X41.363600Y79.937700
G1X41.365900Y79.934400
G1X41.388000Y79.881000
G1X41.412600Y79.823800
G1X41.413500Y79.819600
G1X41.414900Y79.816200
G1X41.425900Y79.760600
G1X41.429400Y79.744400
G1X41.769600Y79.404200
G1X41.769700Y79.404100
G1X41.840800Y79.297700
G1X41.874900Y79.215000
G1X41.889700Y79.179500
G1X41.914700Y79.053900
G1X41.914700Y78.925800
G1X41.914700Y78.925700
G1X41.891100Y78.807400
G1X41.889700Y78.800200
G1X41.888200Y78.796800
G1X41.840700Y78.681900
G1X41.771000Y78.577700
G1X41.769600Y78.575500
G1X41.679100Y78.485000
G1X41.679000Y78.485000
G1X41.439900Y78.245900
G1X41.439900Y77.651800
G1X41.414900Y77.526200
G1X41.365900Y77.408000
G1X41.294800Y77.301500
G1X41.204300Y77.211000
G1X41.097800Y77.139900
G1X40.979600Y77.090900
G1X40.854000Y77.065900
G1X40.725900Y77.065900
G1X39.467400Y77.065900
G1X39.413600Y77.043600

G0Z0.500
G0X31.038700Y82.578000
G1Z-0.100 f25
G1X31.076200Y82.593500 f200
G1X31.112800Y82.611800
G1X31.135500Y82.618000
G1X31.148100Y82.623200
G1X31.197200Y82.644800
G1X31.227600Y82.676700
G1X31.245200Y82.696900
G1X31.258200Y82.716500
G1X31.287400Y82.745600
G1X31.313800Y82.776100
G1X31.332100Y82.790300
G1X31.376700Y82.834800
G1X31.380800Y82.841000
G1X31.384300Y82.847100
G1X31.403900Y82.905900
G1X31.408400Y82.928700
G1X31.423900Y82.965900
G1X31.436900Y83.005200
G1X31.448600Y83.025700
G1X31.472400Y83.083200
G1X31.473900Y83.090400
G1X31.474800Y83.097900
G1X31.470500Y83.159300
G1X31.465900Y83.182000
G1X31.465900Y83.223100
G1X31.463000Y83.263900
G1X31.465900Y83.286900
G1X31.465900Y86.194800
G1X31.490900Y86.320400
G1X31.492300Y86.323800
G1X31.539900Y86.438700
G1X31.609600Y86.542900
G1X31.611000Y86.545100
G1X31.701500Y86.635600
G1X31.701600Y86.635600
G1X32.269900Y87.203900
G1X32.269900Y88.255900
G1X31.940200Y88.585600
G1X31.940100Y88.585700
G1X31.869000Y88.692100
G1X31.834900Y88.774800
G1X31.820100Y88.810300
G1X31.795100Y88.935900
G1X31.795100Y89.064000
G1X31.795100Y89.064100
G1X31.818700Y89.182400
G1X31.820100Y89.189600
G1X31.821500Y89.193000
G1X31.869100Y89.307900
G1X31.938800Y89.412100
G1X31.940200Y89.414300
G1X32.030700Y89.504800
G1X32.030800Y89.504800
G1X32.269900Y89.743900
G1X32.269900Y90.524700
G1X32.294900Y90.650300
G1X32.343900Y90.768500
G1X32.415000Y90.875000
G1X32.505500Y90.965500
G1X32.612000Y91.036600
G1X32.730200Y91.085600
G1X32.855800Y91.110600
G1X32.983900Y91.110600
G1X33.234000Y91.110600
G1X33.359600Y91.085600
G1X33.477800Y91.036600
G1X33.584300Y90.965500
G1X33.674800Y90.875000
G1X33.745900Y90.768500
G1X33.794900Y90.650300
G1X33.819900Y90.524700
G1X33.819900Y90.396600
G1X33.819900Y89.893900
G1X34.149600Y89.564200
G1X34.149700Y89.564100
G1X34.220800Y89.457700
G1X34.254900Y89.375000
G1X34.269700Y89.339500
G1X34.294700Y89.213900
G1X34.294700Y89.085800
G1X34.294700Y89.085700
G1X34.271100Y88.967400
G1X34.269700Y88.960200
G1X34.268200Y88.956800
G1X34.220700Y88.841900
G1X34.151000Y88.737700
G1X34.149600Y88.735500
G1X34.059100Y88.645000
G1X34.059000Y88.645000
G1X33.819900Y88.405900
G1X33.819900Y87.353900
G1X34.149600Y87.024200
G1X34.149700Y87.024100
G1X34.220800Y86.917700
G1X34.254900Y86.835000
G1X34.269700Y86.799500
G1X34.294700Y86.673900
G1X34.294700Y86.545800
G1X34.294700Y86.545700
G1X34.271100Y86.427400
G1X34.269700Y86.420200
G1X34.268200Y86.416800
G1X34.220700Y86.301900
G1X34.151000Y86.197700
G1X34.149600Y86.195500
G1X34.059100Y86.105000
G1X34.059000Y86.105000
G1X33.819900Y85.865900
G1X33.819900Y84.813900
G1X34.059000Y84.574800
G1X34.059100Y84.574800
G1X34.140700Y84.493100
G1X34.149600Y84.484300
G1X34.220700Y84.377900
G1X34.269700Y84.259600
G1X34.294700Y84.134100
G1X34.294700Y84.006000
G1X34.294700Y84.005900
G1X34.269700Y83.880300
G1X34.255700Y83.846800
G1X34.220800Y83.762100
G1X34.149700Y83.655700
G1X34.059100Y83.565100
G1X34.059000Y83.565100
G1X33.819900Y83.326000
G1X33.819900Y83.272100
G1X33.821200Y83.214700
G1X33.819900Y83.207400
G1X33.819900Y83.200100
G1X33.808900Y83.144800
G1X33.799000Y83.088600
G1X33.796300Y83.081800
G1X33.794900Y83.074500
G1X33.773400Y83.022600
G1X33.752700Y82.969300
G1X33.748600Y82.963000
G1X33.745900Y82.956300
G1X33.714700Y82.909600
G1X33.684000Y82.861300
G1X33.678900Y82.856100
G1X33.674800Y82.849800
G1X33.634300Y82.809300
G1X33.595500Y82.768700
G1X33.589500Y82.764500
G1X33.584300Y82.759300
G1X33.538300Y82.728600
G1X32.094700Y81.716300
G1X32.056900Y81.686900
G1X32.042700Y81.679800
G1X32.029600Y81.670600
G1X31.985400Y81.651200
G1X31.942400Y81.629600
G1X31.926900Y81.625400
G1X31.915700Y81.620400
G1X31.913000Y81.617700
G1X31.908700Y81.611100
G1X31.867300Y81.569800
G1X31.829700Y81.530400
G1X31.823700Y81.526200
G1X31.818100Y81.520600
G1X31.770000Y81.488600
G1X31.195700Y81.085800
G1X31.189400Y81.079500
G1X31.143200Y81.049000
G1X31.098100Y81.017300
G1X31.089900Y81.013700
G1X31.082700Y81.008900
G1X31.037100Y80.990300
G1X31.029100Y80.982400
G1X30.990300Y80.941700
G1X30.983400Y80.936900
G1X30.977500Y80.931000
G1X30.932000Y80.900900
G1X30.921600Y80.893600
G1X30.895300Y80.852200
G1X30.889300Y80.846000
G1X30.884100Y80.838200
G1X30.849100Y80.803500
G1X30.844300Y80.792200
G1X30.824400Y80.740800
G1X30.820000Y80.733900
G1X30.816700Y80.726000
G1X30.785300Y80.679500
G1X30.779400Y80.670100
G1X30.770900Y80.621600
G1X30.767700Y80.613600
G1X30.766000Y80.604800
G1X30.746800Y80.559200
G1X30.746800Y80.547400
G1X30.748100Y80.491600
G1X30.746600Y80.483300
G1X30.746600Y80.474800
G1X30.735500Y80.420100
G1X30.733600Y80.409300
G1X30.744300Y80.361400
G1X30.744500Y80.352200
G1X30.746100Y80.344100
G1X30.745900Y80.290300
G1X30.747200Y80.233300
G1X30.745600Y80.224700
G1X30.744900Y80.004700
G1X30.744900Y79.950900
G1X30.744700Y79.950000
G1X30.744700Y79.948500
G1X30.731000Y79.881200
G1X30.719900Y79.825300
G1X30.719400Y79.824300
G1X30.719200Y79.823000
G1X30.690700Y79.754900
G1X30.670900Y79.707100
G1X30.670400Y79.706400
G1X30.669800Y79.704900
G1X30.625700Y79.639500
G1X30.599800Y79.600600
G1X30.599100Y79.600000
G1X30.598300Y79.598700
G1X30.546100Y79.547000
G1X30.509300Y79.510100
G1X30.508400Y79.509600
G1X30.507400Y79.508500
G1X30.440800Y79.464400
G1X30.402800Y79.439000
G1X30.402000Y79.438700
G1X30.400700Y79.437800
G1X30.337900Y79.412200
G1X30.284600Y79.390000
G1X30.283200Y79.389800
G1X30.282200Y79.389300
G1X30.226000Y79.378400
G1X30.159000Y79.365000
G1X30.157600Y79.365000
G1X30.156600Y79.364800
G1X30.092200Y79.365000
G1X29.275200Y79.365000
G1X28.531200Y78.621000
G1X28.531200Y77.569000
G1X28.860900Y77.239300
G1X28.861000Y77.239200
G1X28.932100Y77.132800
G1X28.966200Y77.050100
G1X28.981000Y77.014600
G1X29.006000Y76.889000
G1X29.006000Y76.760900
G1X29.006000Y76.760800
G1X28.982400Y76.642500
G1X28.981000Y76.635300
G1X28.979500Y76.631900
G1X28.932000Y76.517000
G1X28.862300Y76.412800
G1X28.860900Y76.410600
G1X28.770400Y76.320100
G1X28.770300Y76.320100
G1X28.462400Y76.012200
G1X28.457200Y75.999600
G1X28.447300Y75.984900
G1X28.439500Y75.968500
G1X28.411900Y75.931800
G1X28.386100Y75.893100
G1X28.373100Y75.880200
G1X28.362600Y75.866100
G1X28.328500Y75.835600
G1X28.295600Y75.802600
G1X28.280800Y75.792800
G1X28.267300Y75.780600
G1X28.226800Y75.756800
G1X28.189100Y75.731500
G1X28.172600Y75.724700
G1X28.157100Y75.715500
G1X28.113500Y75.700200
G1X28.070900Y75.682500
G1X28.053300Y75.679100
G1X28.036300Y75.673000
G1X27.990400Y75.666500
G1X27.945300Y75.657500
G1X27.927100Y75.657500
G1X27.909600Y75.655000
G1X27.863900Y75.657500
G1X27.817200Y75.657500
G1X27.799500Y75.661100
G1X27.781700Y75.662000
G1X27.737100Y75.673500
G1X27.691600Y75.682500
G1X27.675200Y75.689400
G1X27.657700Y75.693800
G1X27.615700Y75.714000
G1X27.573400Y75.731500
G1X27.558700Y75.741400
G1X27.542300Y75.749200
G1X27.505600Y75.776800
G1X27.466900Y75.802600
G1X27.454000Y75.815600
G1X27.439900Y75.826100
G1X27.409400Y75.860200
G1X27.376400Y75.893100
G1X27.366600Y75.907900
G1X27.354400Y75.921400
G1X27.330600Y75.961900
G1X27.305300Y75.999600
G1X27.298500Y76.016100
G1X27.289300Y76.031600
G1X27.274100Y76.074900
G1X27.256300Y76.117800
G1X27.252800Y76.135700
G1X25.878100Y80.048300
G1X25.860600Y80.090300
G1X25.857200Y80.107800
G1X25.851100Y80.124900
G1X25.844600Y80.170800
G1X25.835600Y80.215900
G1X25.835600Y80.234000
G1X25.833100Y80.251600
G1X25.835600Y80.297300
G1X25.835600Y80.344000
G1X25.839200Y80.361700
G1X25.840100Y80.379500
G1X25.851600Y80.424200
G1X25.860600Y80.469600
G1X25.867500Y80.486000
G1X25.871900Y80.503500
G1X25.892100Y80.545500
G1X25.909600Y80.587800
G1X25.919500Y80.602500
G1X25.927300Y80.618900
G1X25.954900Y80.655600
G1X25.980700Y80.694300
G1X25.993700Y80.707200
G1X26.004200Y80.721300
G1X26.038300Y80.751800
G1X26.071200Y80.784800
G1X26.086000Y80.794600
G1X26.099500Y80.806800
G1X26.140000Y80.830600
G1X26.177700Y80.855900
G1X26.194200Y80.862700
G1X26.209700Y80.871900
G1X26.253400Y80.887200
G1X26.295900Y80.904900
G1X26.313400Y80.908300
G1X26.330500Y80.914400
G1X26.376400Y80.920900
G1X26.421500Y80.929900
G1X26.439600Y80.929900
G1X26.457200Y80.932400
G1X26.502900Y80.929900
G1X26.525900Y80.929900
G1X26.765000Y81.169000
G1X26.765000Y81.169100
G1X26.846700Y81.250700
G1X26.855500Y81.259600
G1X26.961900Y81.330700
G1X27.080200Y81.379700
G1X27.205700Y81.404700
G1X27.333800Y81.404700
G1X27.333900Y81.404700
G1X27.459500Y81.379700
G1X27.493000Y81.365700
G1X27.577700Y81.330800
G1X27.684100Y81.259700
G1X27.774700Y81.169100
G1X27.774700Y81.169000
G1X28.013900Y80.929900
G1X29.065900Y80.929900
G1X29.820600Y81.684600
G1X29.823000Y81.703500
G1X29.830400Y81.725600
G1X29.834900Y81.748300
G1X29.850500Y81.785900
G1X29.863500Y81.824900
G1X29.875100Y81.845200
G1X29.883900Y81.866500
G1X29.906400Y81.900100
G1X29.926900Y81.936200
G1X29.942200Y81.953800
G1X29.955000Y81.973000
G1X29.984000Y82.001900
G1X30.010800Y82.032900
G1X30.029200Y82.047100
G1X30.045500Y82.063500
G1X30.079100Y82.085900
G1X30.111900Y82.111400
G1X30.133200Y82.122000
G1X30.152000Y82.134600
G1X30.189000Y82.149900
G1X31.019300Y82.565000
G1X31.038700Y82.578000

G0Z0.500
G0X34.570600Y89.133900
G1Z-0.100 f25
G1X35.609300Y89.133900 f200
G1X36.343900Y88.399300
G1X36.343900Y87.360600
G1X35.609300Y86.626000
G1X34.570600Y86.626000
G1X33.836000Y87.360600
G1X33.836000Y88.399300
G1X34.570600Y89.133900

G0Z0.500
G0X34.570600Y86.593900
G1Z-0.100 f25
G1X35.609300Y86.593900 f200
G1X36.343900Y85.859300
G1X36.343900Y84.820600
G1X35.609300Y84.086000
G1X34.570600Y84.086000
G1X33.836000Y84.820600
G1X33.836000Y85.859300
G1X34.570600Y86.593900

G0Z0.500
G0X27.684200Y83.140200
G1Z-0.100 f25
G1X27.577700Y83.069100 f200
G1X27.459500Y83.020100
G1X27.333900Y82.995100
G1X27.205800Y82.995100
G1X27.080200Y83.020100
G1X26.962000Y83.069100
G1X26.855500Y83.140200
G1X26.765000Y83.230700
G1X26.615800Y83.380000
G1X26.573800Y83.420800
G1X26.571400Y83.424300
G1X26.568300Y83.427400
G1X26.535400Y83.476700
G1X26.501300Y83.526300
G1X26.499600Y83.530400
G1X26.497200Y83.533900
G1X26.475300Y83.586800
G1X26.450700Y83.643900
G1X26.449800Y83.648400
G1X26.448200Y83.652100
G1X26.437000Y83.708700
G1X26.424100Y83.769100
G1X26.424100Y83.773500
G1X26.423200Y83.777700
G1X26.423200Y83.837200
G1X26.418300Y84.211700
G1X26.417400Y84.215900
G1X26.417400Y84.274900
G1X26.416600Y84.335400
G1X26.417400Y84.339700
G1X26.417400Y84.344000
G1X26.428700Y84.400500
G1X26.439900Y84.461300
G1X26.441600Y84.465500
G1X26.442400Y84.469600
G1X26.463500Y84.520400
G1X26.487300Y84.580200
G1X26.489900Y84.584200
G1X26.491400Y84.587800
G1X26.523000Y84.635100
G1X26.557100Y84.687600
G1X26.560100Y84.690600
G1X26.562500Y84.694300
G1X26.605400Y84.737200
G1X26.646400Y84.779300
G1X26.649900Y84.781700
G1X26.653000Y84.784800
G1X26.702200Y84.817600
G1X26.751900Y84.851800
G1X26.756000Y84.853500
G1X26.759500Y84.855900
G1X26.812300Y84.877700
G1X26.869500Y84.902400
G1X26.874000Y84.903300
G1X26.877700Y84.904900
G1X26.934100Y84.916100
G1X26.994700Y84.929000
G1X26.999100Y84.929000
G1X27.003300Y84.929900
G1X27.062400Y84.929900
G1X27.122800Y84.930700
G1X27.127100Y84.929900
G1X27.525900Y84.929900
G1X27.765000Y85.169000
G1X27.765000Y85.169100
G1X27.846700Y85.250700
G1X27.855500Y85.259600
G1X27.961900Y85.330700
G1X28.080200Y85.379700
G1X28.205700Y85.404700
G1X28.333800Y85.404700
G1X28.333900Y85.404700
G1X28.459500Y85.379700
G1X28.493000Y85.365800
G1X28.577700Y85.330800
G1X28.684100Y85.259700
G1X28.774700Y85.169100
G1X29.013900Y84.929900
G1X29.548000Y84.929900
G1X29.673600Y84.904900
G1X29.791800Y84.855900
G1X29.898300Y84.784800
G1X29.988800Y84.694300
G1X30.059900Y84.587800
G1X30.108900Y84.469600
G1X30.133900Y84.344000
G1X30.133900Y84.215900
G1X30.133900Y84.036600
G1X30.136800Y83.996300
G1X30.133900Y83.973000
G1X30.133900Y83.949100
G1X30.125900Y83.909400
G1X30.121000Y83.869200
G1X30.113400Y83.846600
G1X30.108900Y83.823500
G1X30.093500Y83.786600
G1X30.080700Y83.747700
G1X30.068800Y83.726900
G1X30.059900Y83.705300
G1X30.037500Y83.671800
G1X30.017400Y83.636400
G1X30.002000Y83.618700
G1X29.988800Y83.598800
G1X29.959800Y83.569900
G1X29.933700Y83.539600
G1X29.915100Y83.525200
G1X29.898300Y83.508300
G1X29.864900Y83.486100
G1X29.832700Y83.460900
G1X29.810900Y83.450000
G1X29.791800Y83.437200
G1X29.773800Y83.429800
G1X29.763500Y83.422900
G1X29.725900Y83.407400
G1X29.690200Y83.389400
G1X29.667300Y83.383100
G1X29.645200Y83.374000
G1X29.605600Y83.366200
G1X29.566700Y83.355400
G1X29.542900Y83.353700
G1X29.519600Y83.349100
G1X29.478700Y83.349100
G1X29.439000Y83.346200
G1X29.416000Y83.349100
G1X29.391500Y83.349100
G1X29.351300Y83.357200
G1X29.311900Y83.362000
G1X29.289300Y83.369600
G1X29.266000Y83.374200
G1X29.228900Y83.389600
G1X29.190400Y83.402300
G1X29.169900Y83.414000
G1X29.147700Y83.423200
G1X29.113600Y83.446100
G1X29.079100Y83.465600
G1X29.074200Y83.469900
G1X28.013900Y83.469900
G1X27.684200Y83.140200

G0Z0.500
G0X44.265100Y92.563500
G1Z-0.100 f25
G1X42.867900Y95.325300 f200
G1X42.241700Y95.343000
G1X42.335000Y95.249800
G1X42.335000Y94.211100
G1X41.912300Y93.788500
G1X44.265100Y92.275700
G1X44.265100Y92.563500

G0Z0.500
G0X15.045600Y74.785800
G1Z-0.100 f25
G1X15.025800Y74.779300 f200
G1X14.830900Y74.748400
G1X14.633400Y74.748400
G1X14.438500Y74.779300
G1X14.339000Y74.811700
G1X15.659600Y73.770100
G1X15.674100Y73.761800
G1X15.710700Y73.729800
G1X15.747500Y73.700800
G1X15.757900Y73.688500
G1X15.770500Y73.677600
G1X15.799900Y73.639400
G1X15.830600Y73.603500
G1X15.838600Y73.589200
G1X19.666500Y68.621600
G1X19.680500Y68.607900
G1X19.705400Y68.571200
G1X19.723200Y68.548100
G1X19.715300Y69.793000
G1X15.045600Y74.785800

G0Z0.500
G0X20.169700Y57.275100
G1Z-0.100 f25
G1X20.136400Y57.288600 f200
G1X20.113500Y57.303700
G1X20.088400Y57.316500
G1X20.059400Y57.339400
G1X20.029500Y57.359100
G1X20.009900Y57.378500
G1X19.987900Y57.395800
G1X19.964400Y57.423400
G1X19.938400Y57.449000
G1X19.922600Y57.472400
G1X19.909100Y57.488100
G1X19.929500Y54.780700
G1X20.940400Y53.693700
G1X20.940400Y54.409000
G1X21.675000Y55.143600
G1X22.713700Y55.143600
G1X23.448300Y54.409000
G1X23.448300Y54.144900
G1X24.073100Y53.783900
G1X24.092400Y53.775900
G1X24.127300Y53.752600
G1X24.165200Y53.730700
G1X24.181400Y53.716400
G1X24.198900Y53.704800
G1X24.228800Y53.674900
G1X24.261400Y53.646300
G1X24.274500Y53.629100
G1X24.275900Y53.627700
G1X24.275900Y55.182100
G1X20.169700Y57.275100

G0Z0.500
G0X20.180500Y54.534100
G1Z-0.100 f25
G1X20.144900Y54.572400 f200
G1X20.108200Y54.609100
G1X20.106000Y54.612500
G1X20.091600Y54.626600
G1X20.083700Y54.638300
G1X20.073600Y54.649100
G1X20.047200Y54.692100
G1X20.019700Y54.732500
G1X20.014100Y54.745900
G1X20.006500Y54.758100
G1X19.989200Y54.804700
G1X19.969800Y54.850400
G1X19.966900Y54.864500
G1X19.961800Y54.878100
G1X19.953900Y54.927400
G1X19.943900Y54.975700
G1X19.943800Y54.990300
G1X19.941500Y55.004500
G1X19.943300Y55.053800
G1X19.934200Y56.276200
G1X19.930900Y56.303600
G1X19.933700Y56.339100
G1X19.933400Y56.375700
G1X19.938700Y56.403300
G1X19.940900Y56.431400
G1X19.950800Y56.466400
G1X19.957500Y56.501400
G1X19.968000Y56.527100
G1X19.975700Y56.554600
G1X19.992300Y56.587000
G1X20.005600Y56.620000
G1X20.020900Y56.643300
G1X20.033800Y56.668600
G1X20.056200Y56.697000
G1X20.075900Y56.727000
G1X20.095600Y56.746900
G1X20.113100Y56.769200
G1X20.140800Y56.792800
G1X20.165800Y56.818200
G1X20.189000Y56.833900
G1X20.210500Y56.852300
G1X20.241900Y56.869800
G1X20.271700Y56.890100
G1X20.297800Y56.901100
G1X20.322200Y56.914800
G1X20.356200Y56.925800
G1X20.389600Y56.940000
G1X20.417200Y56.945700
G1X20.443900Y56.954400
G1X20.479700Y56.958600
G1X20.514900Y56.965900
G1X20.543300Y56.966100
G1X20.571000Y56.969400
G1X20.606600Y56.966600
G1X20.643100Y56.966900
G1X20.670700Y56.961600
G1X20.698800Y56.959400
G1X20.733800Y56.949500
G1X20.768800Y56.942800
G1X20.794500Y56.932300
G1X20.822000Y56.924600
G1X20.854400Y56.908000
G1X20.887400Y56.894700
G1X20.910700Y56.879400
G1X21.851300Y56.399900
G1X21.886300Y56.385500
G1X21.907300Y56.371400
G1X21.930600Y56.359600
G1X21.961000Y56.335600
G1X21.992800Y56.314400
G1X22.010800Y56.296300
G1X22.031200Y56.280300
G1X22.056200Y56.251000
G1X22.083300Y56.223900
G1X22.097600Y56.202400
G1X22.114300Y56.182900
G1X22.133100Y56.149300
G1X22.154400Y56.117400
G1X22.164200Y56.093600
G1X22.176800Y56.071200
G1X22.188600Y56.034700
G1X22.203400Y55.999200
G1X22.208400Y55.974100
G1X22.216400Y55.949500
G1X22.220900Y55.911100
G1X22.228400Y55.873600
G1X22.228400Y55.847800
G1X22.231400Y55.822400
G1X22.228400Y55.784000
G1X22.228400Y55.745500
G1X22.223400Y55.720600
G1X22.221400Y55.694600
G1X22.210800Y55.657100
G1X22.203400Y55.619900
G1X22.193600Y55.596500
G1X22.186600Y55.571400
G1X22.168800Y55.536700
G1X22.154400Y55.501700
G1X22.140300Y55.480700
G1X22.128500Y55.457400
G1X22.104500Y55.427000
G1X22.083300Y55.395200
G1X22.065200Y55.377200
G1X22.049200Y55.356800
G1X22.019900Y55.331800
G1X21.992800Y55.304700
G1X21.971300Y55.290400
G1X21.951800Y55.273700
G1X21.918200Y55.254900
G1X21.886300Y55.233600
G1X21.862500Y55.223800
G1X21.840100Y55.211200
G1X21.803600Y55.199400
G1X21.768100Y55.184600
G1X21.743000Y55.179600
G1X21.718400Y55.171600
G1X21.680000Y55.167100
G1X21.674700Y55.166000
G1X21.109400Y54.600700
G1X21.102400Y54.590900
G1X21.064000Y54.555200
G1X21.027400Y54.518600
G1X21.017500Y54.512000
G1X21.008600Y54.503700
G1X20.964200Y54.476400
G1X20.921000Y54.447500
G1X20.909700Y54.442900
G1X20.899600Y54.436600
G1X20.850800Y54.418500
G1X20.802700Y54.398500
G1X20.791100Y54.396200
G1X20.779600Y54.391900
G1X20.727800Y54.383600
G1X20.677200Y54.373500
G1X20.665000Y54.373500
G1X20.653200Y54.371600
G1X20.601500Y54.373500
G1X20.549000Y54.373500
G1X20.537200Y54.375900
G1X20.525200Y54.376300
G1X20.473900Y54.388500
G1X20.423500Y54.398500
G1X20.412800Y54.403000
G1X20.400700Y54.405800
G1X20.353100Y54.427700
G1X20.305200Y54.447400
G1X20.295100Y54.454200
G1X20.284300Y54.459100
G1X20.242300Y54.489500
G1X20.198700Y54.518600
G1X20.190300Y54.527100
G1X20.180500Y54.534100

G0Z0.500
G0X33.841900Y95.984400
G1Z-0.100 f25
G1X33.873100Y96.016500 f200
G1X33.335700Y96.016500
G1X33.303500Y95.984400
G1X33.841900Y95.984400

G0Z0.500
G0X21.675000Y42.443600
G1Z-0.100 f25
G1X22.713700Y42.443600 f200
G1X23.264000Y41.893200
G1X23.261700Y42.334000
G1X22.828500Y42.590600
G1X22.713700Y42.475700
G1X21.675000Y42.475700
G1X20.940400Y43.210300
G1X20.940400Y43.350000
G1X20.335900Y43.350000
G1X20.210300Y43.375000
G1X20.092100Y43.424000
G1X19.985600Y43.495100
G1X19.895100Y43.585600
G1X19.824000Y43.692100
G1X19.775000Y43.810300
G1X19.750000Y43.935900
G1X19.750000Y44.064000
G1X19.750000Y48.864000
G1X19.775000Y48.989600
G1X19.824000Y49.107800
G1X19.895100Y49.214300
G1X19.985600Y49.304800
G1X20.092100Y49.375900
G1X20.210300Y49.424900
G1X20.335900Y49.449900
G1X20.464000Y49.449900
G1X21.061300Y49.449900
G1X21.675000Y50.063600
G1X22.713700Y50.063600
G1X22.923900Y49.853300
G1X23.134600Y49.975000
G1X23.134600Y50.516700
G1X22.713700Y50.095700
G1X21.675000Y50.095700
G1X20.940400Y50.830300
G1X20.940400Y51.784900
G1X18.815700Y54.069600
G1X18.779700Y54.105000
G1X18.771500Y54.117100
G1X18.761900Y54.127400
G1X18.736100Y54.169300
G1X18.715800Y54.199200
G1X18.769500Y42.221500
G1X21.178900Y41.947500
G1X21.675000Y42.443600

G0Z0.500
G0X19.846000Y43.612000
G1Z-0.100 f25
G1X19.887400Y43.570500 f200
G1X19.934600Y43.523800
G1X19.935500Y43.522500
G1X20.022700Y43.435200
G1X20.188400Y43.366600
G1X20.223600Y43.355400
G1X20.247100Y43.342400
G1X20.272400Y43.331900
G1X20.303700Y43.311000
G1X20.335600Y43.293300
G1X20.355900Y43.276000
G1X20.378800Y43.260800
G1X20.405500Y43.234100
G1X20.433300Y43.210600
G1X20.449800Y43.189900
G1X20.469400Y43.170300
G1X20.490200Y43.139100
G1X20.513000Y43.110500
G1X20.525400Y43.086400
G1X20.540500Y43.063800
G1X20.554700Y43.029400
G1X20.571600Y42.996700
G1X20.579000Y42.970800
G1X20.589500Y42.945600
G1X20.596700Y42.909300
G1X20.607000Y42.873600
G1X20.609300Y42.846200
G1X20.614500Y42.820000
G1X20.614500Y42.783300
G1X20.617600Y42.745900
G1X20.614500Y42.718800
G1X20.614500Y42.691900
G1X20.607300Y42.656000
G1X20.603100Y42.618700
G1X20.594700Y42.592500
G1X20.589500Y42.566300
G1X20.575500Y42.532500
G1X20.564100Y42.496800
G1X20.551000Y42.473300
G1X20.540600Y42.448000
G1X20.519700Y42.416700
G1X20.502000Y42.384800
G1X20.484700Y42.364500
G1X20.469500Y42.341600
G1X20.442800Y42.314900
G1X20.419300Y42.287100
G1X20.398600Y42.270600
G1X20.379000Y42.251000
G1X20.347800Y42.230200
G1X20.319200Y42.207400
G1X20.295100Y42.195000
G1X20.272500Y42.179900
G1X20.238100Y42.165700
G1X20.205400Y42.148800
G1X20.179500Y42.141400
G1X20.154300Y42.130900
G1X20.118000Y42.123700
G1X20.082300Y42.113400
G1X20.054900Y42.111100
G1X20.028700Y42.105900
G1X19.992000Y42.105900
G1X19.954600Y42.102800
G1X19.927400Y42.105900
G1X19.900600Y42.105900
G1X19.864900Y42.113000
G1X19.397500Y42.166200
G1X19.371700Y42.166100
G1X19.333800Y42.173500
G1X19.295700Y42.177800
G1X19.271500Y42.185600
G1X19.246000Y42.190500
G1X19.210200Y42.205200
G1X19.173800Y42.216800
G1X19.151400Y42.229200
G1X19.127500Y42.239000
G1X19.095200Y42.260400
G1X19.061800Y42.278900
G1X19.042500Y42.295300
G1X19.020800Y42.309600
G1X18.993200Y42.337000
G1X18.964100Y42.361600
G1X18.948200Y42.381600
G1X18.929800Y42.399800
G1X18.908200Y42.431800
G1X18.884400Y42.461700
G1X18.872700Y42.484400
G1X18.858200Y42.505900
G1X18.843100Y42.542000
G1X18.825800Y42.575500
G1X18.818800Y42.599800
G1X18.808700Y42.623900
G1X18.801100Y42.661600
G1X18.790400Y42.698600
G1X18.788300Y42.724600
G1X18.783200Y42.749400
G1X18.783000Y42.787400
G1X18.779800Y42.826300
G1X18.782700Y42.852000
G1X18.781900Y43.042000
G1X18.781600Y43.043300
G1X18.781600Y43.102000
G1X18.781300Y43.168400
G1X18.781600Y43.169900
G1X18.781600Y43.171500
G1X18.793400Y43.230500
G1X18.805700Y43.294100
G1X18.806300Y43.295600
G1X18.806600Y43.297000
G1X18.830700Y43.355100
G1X18.854200Y43.412600
G1X18.855000Y43.413700
G1X18.855600Y43.415300
G1X18.890000Y43.466600
G1X18.924800Y43.519300
G1X18.926000Y43.520500
G1X18.926800Y43.521700
G1X18.969700Y43.564600
G1X19.015000Y43.610300
G1X19.016300Y43.611100
G1X19.017300Y43.612200
G1X19.065300Y43.644200
G1X19.121100Y43.681900
G1X19.122800Y43.682600
G1X19.123800Y43.683300
G1X19.174100Y43.704100
G1X19.239100Y43.731400
G1X19.240800Y43.731700
G1X19.242100Y43.732300
G1X19.302700Y43.744300
G1X19.364600Y43.756900
G1X19.366200Y43.756900
G1X19.367600Y43.757200
G1X19.428400Y43.757200
G1X19.492700Y43.757500
G1X19.494200Y43.757200
G1X19.495800Y43.757200
G1X19.554800Y43.745400
G1X19.618400Y43.733100
G1X19.619900Y43.732500
G1X19.621300Y43.732200
G1X19.679400Y43.708100
G1X19.736900Y43.684600
G1X19.738000Y43.683800
G1X19.739600Y43.683200
G1X19.790900Y43.648800
G1X19.843600Y43.614000
G1X19.844800Y43.612800
G1X19.846000Y43.612000

G0Z0.500
G0X18.737700Y52.434000
G1Z-0.100 f25
G1X18.739600Y52.483900 f200
G1X18.739300Y52.535600
G1X18.742000Y52.549100
G1X18.742400Y52.562100
G1X18.753700Y52.609700
G1X18.763700Y52.661300
G1X18.769000Y52.674100
G1X18.771900Y52.686600
G1X18.792500Y52.731600
G1X18.812200Y52.779800
G1X18.819700Y52.791000
G1X18.825100Y52.803000
G1X18.854200Y52.843200
G1X18.882800Y52.886500
G1X18.892500Y52.896200
G1X18.900100Y52.906800
G1X18.937300Y52.941300
G1X18.973000Y52.977400
G1X18.983800Y52.984600
G1X18.993800Y52.994000
G1X19.037800Y53.021000
G1X19.079100Y53.049000
G1X19.091400Y53.054100
G1X19.102800Y53.061200
G1X19.149900Y53.078700
G1X19.197100Y53.098600
G1X19.210400Y53.101300
G1X19.222700Y53.105900
G1X19.272900Y53.114000
G1X19.322600Y53.124100
G1X19.335900Y53.124100
G1X19.349100Y53.126300
G1X19.399300Y53.124400
G1X19.450700Y53.124700
G1X19.464200Y53.122000
G1X19.477200Y53.121600
G1X19.524800Y53.110300
G1X19.576400Y53.100300
G1X19.589200Y53.095000
G1X19.601700Y53.092100
G1X19.646700Y53.071500
G1X19.694900Y53.051800
G1X19.706100Y53.044300
G1X19.718100Y53.038900
G1X19.758300Y53.009800
G1X19.801600Y52.981200
G1X19.811300Y52.971500
G1X19.821900Y52.963900
G1X19.856100Y52.927000
G1X19.892500Y52.891000
G1X19.899900Y52.880000
G1X20.742100Y51.974300
G1X20.779200Y51.937300
G1X20.785800Y51.927400
G1X20.793900Y51.918700
G1X20.821400Y51.874000
G1X20.850300Y51.830800
G1X20.854800Y51.819800
G1X20.861100Y51.809700
G1X20.879400Y51.760400
G1X20.899300Y51.712600
G1X20.901600Y51.701100
G1X20.905800Y51.689800
G1X20.914200Y51.637600
G1X20.924300Y51.587000
G1X20.924300Y51.575100
G1X20.926200Y51.563400
G1X20.924300Y51.511600
G1X20.924300Y50.823600
G1X21.127200Y50.620700
G1X21.127300Y50.620700
G1X21.209500Y50.538400
G1X21.217800Y50.530200
G1X21.288900Y50.423800
G1X21.337900Y50.305500
G1X21.362900Y50.180000
G1X21.362900Y50.051900
G1X21.362900Y50.051800
G1X21.337900Y49.926200
G1X21.323900Y49.892700
G1X21.289000Y49.808000
G1X21.217900Y49.701600
G1X21.127300Y49.611000
G1X21.020900Y49.539900
G1X20.902600Y49.490900
G1X20.777100Y49.465900
G1X20.649000Y49.465900
G1X20.597600Y49.465900
G1X20.267400Y49.465900
G1X20.022700Y49.364600
G1X19.858700Y49.200600
G1X19.818700Y49.160200
G1X19.817700Y49.159600
G1X19.816600Y49.158400
G1X19.748700Y49.113000
G1X19.712600Y49.088600
G1X19.711700Y49.088300
G1X19.710200Y49.087200
G1X19.646200Y49.060800
G1X19.594600Y49.039000
G1X19.593100Y49.038700
G1X19.591900Y49.038200
G1X19.530900Y49.026100
G1X19.469100Y49.013500
G1X19.467700Y49.013500
G1X19.466300Y49.013200
G1X19.404800Y49.013200
G1X19.341000Y49.012900
G1X19.339500Y49.013200
G1X19.338200Y49.013200
G1X19.281300Y49.024500
G1X19.215300Y49.037300
G1X19.214000Y49.037900
G1X19.212700Y49.038100
G1X19.158800Y49.060500
G1X19.096800Y49.085800
G1X19.095600Y49.086700
G1X19.094400Y49.087100
G1X19.045700Y49.119700
G1X18.990100Y49.156400
G1X18.989100Y49.157400
G1X18.987900Y49.158200
G1X18.938000Y49.208200
G1X18.899200Y49.246600
G1X18.898600Y49.247600
G1X18.897400Y49.248700
G1X18.852000Y49.316600
G1X18.827600Y49.352700
G1X18.827300Y49.353600
G1X18.826200Y49.355100
G1X18.799800Y49.419100
G1X18.778000Y49.470700
G1X18.777700Y49.472200
G1X18.777200Y49.473400
G1X18.765100Y49.534400
G1X18.752500Y49.596200
G1X18.752500Y49.597600
G1X18.752200Y49.599000
G1X18.752200Y49.663300
G1X18.739800Y52.421000
G1X18.737700Y52.434000

G0Z0.500
G0X18.547300Y65.729000
G1Z-0.100 f25
G1X18.441800Y65.623500 f200
G1X18.551700Y65.137100
G1X18.547300Y65.729000

G0Z0.500
G0X24.275900Y49.172200
G1Z-0.100 f25
G1X24.274500Y49.170800 f200
G1X24.261400Y49.153600
G1X24.228800Y49.125000
G1X24.198900Y49.095100
G1X24.181400Y49.083400
G1X24.165200Y49.069200
G1X24.127300Y49.047400
G1X24.092400Y49.024000
G1X24.073100Y49.016000
G1X23.448300Y48.655000
G1X23.448300Y48.290300
G1X22.713700Y47.555700
G1X21.675000Y47.555700
G1X21.080700Y48.150000
G1X21.049900Y48.150000
G1X21.049900Y46.898400
G1X21.675000Y47.523600
G1X22.713700Y47.523600
G1X22.966900Y47.270300
G1X24.275900Y48.296600
G1X24.275900Y49.172200

G0Z0.500
G0X3.723000Y80.535700
G1Z-0.100 f25
G1X3.882700Y80.651700 f200
G1X4.058600Y80.741300
G1X4.149100Y80.770600
G1X3.627400Y81.306400
G1X3.621500Y81.312400
G1X3.621500Y80.434100
G1X3.723000Y80.535700

G0Z0.500
G0X3.721900Y78.624000
G1Z-0.100 f25
G1X3.621500Y78.724400 f200
G1X3.621500Y78.639900
G1X3.721900Y78.624000

G0Z0.500
G0X3.086200Y75.832900
G1Z-0.100 f25
G1X3.136300Y75.849200 f200
G1X3.331200Y75.880100
G1X3.528700Y75.880100
G1X3.723600Y75.849200
G1X3.911300Y75.788200
G1X4.087200Y75.698600
G1X4.155600Y75.648900
G1X4.154300Y75.726400
G1X3.708500Y76.172200
G1X3.538500Y76.145200
G1X3.341000Y76.145200
G1X3.146100Y76.176100
G1X2.958400Y76.237100
G1X2.782500Y76.326700
G1X2.649300Y76.423500
G1X2.649500Y76.269500
G1X3.086200Y75.832900

G0Z0.500
G0X3.331200Y42.882300
G1Z-0.100 f25
G1X3.528700Y42.882300 f200
G1X3.723600Y42.851400
G1X3.911300Y42.790400
G1X4.087200Y42.700800
G1X4.246900Y42.584800
G1X4.386400Y42.445300
G1X4.502400Y42.285600
G1X4.592000Y42.109700
G1X4.653000Y41.922000
G1X4.683900Y41.727100
G1X4.683900Y41.529600
G1X4.653000Y41.334700
G1X4.592000Y41.147000
G1X4.502400Y40.971100
G1X4.386400Y40.811400
G1X4.246900Y40.671900
G1X4.188600Y40.629600
G1X4.242100Y40.647000
G1X4.437000Y40.677900
G1X4.634500Y40.677900
G1X4.829400Y40.647000
G1X4.860800Y40.636800
G1X5.221500Y41.036000
G1X5.257700Y45.553000
G1X5.197200Y45.509000
G1X5.021300Y45.419400
G1X4.833600Y45.358400
G1X4.638700Y45.327500
G1X4.441200Y45.327500
G1X4.257800Y45.356600
G1X4.396200Y45.218300
G1X4.512200Y45.058600
G1X4.601800Y44.882700
G1X4.662800Y44.695000
G1X4.693700Y44.500100
G1X4.693700Y44.302600
G1X4.662800Y44.107700
G1X4.601800Y43.920000
G1X4.512200Y43.744100
G1X4.396200Y43.584400
G1X4.256700Y43.444900
G1X4.097000Y43.328900
G1X3.921100Y43.239300
G1X3.733400Y43.178300
G1X3.538500Y43.147400
G1X3.341000Y43.147400
G1X3.146100Y43.178300
G1X2.958400Y43.239300
G1X2.797900Y43.321100
G1X3.249700Y42.869400
G1X3.331200Y42.882300

G0Z0.500
G0X2.772600Y56.699100
G1Z-0.100 f25
G1X2.948500Y56.788700 f200
G1X3.136200Y56.849700
G1X3.331100Y56.880600
G1X3.528600Y56.880600
G1X3.723500Y56.849700
G1X3.911200Y56.788700
G1X4.087100Y56.699100
G1X4.246800Y56.583100
G1X4.386300Y56.443600
G1X4.502300Y56.283900
G1X4.591900Y56.108000
G1X4.652900Y55.920300
G1X4.683800Y55.725400
G1X4.683800Y55.527900
G1X4.652900Y55.333000
G1X4.591900Y55.145300
G1X4.502300Y54.969400
G1X4.386300Y54.809700
G1X4.246800Y54.670200
G1X4.188500Y54.627900
G1X4.242000Y54.645300
G1X4.436900Y54.676200
G1X4.634400Y54.676200
G1X4.745000Y54.658600
G1X5.186300Y55.183100
G1X5.174400Y59.495800
G1X5.021200Y59.417700
G1X4.833500Y59.356700
G1X4.638600Y59.325800
G1X4.441100Y59.325800
G1X4.257700Y59.354900
G1X4.396100Y59.216600
G1X4.512100Y59.056900
G1X4.601700Y58.881000
G1X4.662700Y58.693300
G1X4.693600Y58.498400
G1X4.693600Y58.300900
G1X4.662700Y58.106000
G1X4.601700Y57.918300
G1X4.512100Y57.742400
G1X4.396100Y57.582700
G1X4.256600Y57.443200
G1X4.096900Y57.327200
G1X3.921000Y57.237600
G1X3.733300Y57.176600
G1X3.538400Y57.145700
G1X3.340900Y57.145700
G1X3.146000Y57.176600
G1X2.958300Y57.237600
G1X2.782400Y57.327200
G1X2.649900Y57.423500
G1X2.649900Y56.609900
G1X2.772600Y56.699100

G0Z0.500
G0X2.781000Y26.475400
G1Z-0.100 f25
G1X2.956900Y26.565000 f200
G1X3.144600Y26.626000
G1X3.339500Y26.656900
G1X3.537000Y26.656900
G1X3.720400Y26.627800
G1X3.582000Y26.766100
G1X3.466000Y26.925800
G1X3.376400Y27.101700
G1X3.315400Y27.289400
G1X3.284500Y27.484300
G1X3.284500Y27.681800
G1X3.315400Y27.876700
G1X3.376400Y28.064400
G1X3.466000Y28.240300
G1X3.582000Y28.400000
G1X3.721500Y28.539500
G1X3.881200Y28.655500
G1X4.057100Y28.745100
G1X4.244800Y28.806100
G1X4.268700Y28.809900
G1X3.485200Y29.693400
G1X3.453100Y29.725700
G1X3.443000Y29.741000
G1X3.430700Y29.754800
G1X3.407800Y29.794000
G1X3.382300Y29.832400
G1X3.375200Y29.849800
G1X3.366100Y29.865300
G1X3.351200Y29.908300
G1X3.333800Y29.950800
G1X3.330300Y29.968600
G1X3.324200Y29.986300
G1X3.317800Y30.032800
G1X3.309300Y30.076500
G1X3.309400Y30.094500
G1X3.306800Y30.113100
G1X3.309600Y30.159700
G1X3.342000Y38.961300
G1X3.339000Y38.995400
G1X3.342200Y39.024400
G1X3.342300Y39.039400
G1X3.312700Y39.130300
G1X3.281800Y39.325200
G1X3.281800Y39.522700
G1X3.312700Y39.717600
G1X3.373700Y39.905300
G1X3.463300Y40.081200
G1X3.579300Y40.240900
G1X3.718800Y40.380400
G1X3.777100Y40.422700
G1X3.723600Y40.405300
G1X3.528700Y40.374400
G1X3.331200Y40.374400
G1X3.136300Y40.405300
G1X2.948600Y40.466300
G1X2.772700Y40.555900
G1X2.649900Y40.645200
G1X2.649900Y26.380100
G1X2.781000Y26.475400

G0Z0.500
G0X3.082900Y23.836100
G1Z-0.100 f25
G1X3.134800Y23.853000 f200
G1X3.329700Y23.883900
G1X3.527200Y23.883900
G1X3.722100Y23.853000
G1X3.909800Y23.792000
G1X4.085700Y23.702400
G1X4.245400Y23.586400
G1X4.384900Y23.446900
G1X4.500400Y23.287800
G1X4.470900Y24.691000
G1X4.394700Y24.586000
G1X4.255200Y24.446500
G1X4.095500Y24.330500
G1X3.919600Y24.240900
G1X3.731900Y24.179900
G1X3.537000Y24.149000
G1X3.339500Y24.149000
G1X3.144600Y24.179900
G1X2.956900Y24.240900
G1X2.781000Y24.330500
G1X2.649900Y24.425800
G1X2.649900Y24.269200
G1X3.082900Y23.836100

G0Z0.500
G0X5.701900Y93.096700
G1Z-0.100 f25
G1X5.612300Y92.920800 f200
G1X5.496300Y92.761100
G1X5.356800Y92.621600
G1X5.197100Y92.505600
G1X5.021200Y92.416000
G1X4.833500Y92.355000
G1X4.638600Y92.324100
G1X4.441100Y92.324100
G1X4.257700Y92.353200
G1X4.396100Y92.214900
G1X4.512100Y92.055200
G1X4.601700Y91.879300
G1X4.662700Y91.691600
G1X4.693600Y91.496700
G1X4.693600Y91.299200
G1X4.664400Y91.115100
G1X5.330600Y90.514200
G1X5.344800Y90.504800
G1X5.378600Y90.470900
G1X5.413300Y90.439700
G1X5.423200Y90.426300
G1X5.435300Y90.414300
G1X5.461500Y90.375000
G1X5.489800Y90.337100
G1X5.497100Y90.321600
G1X5.506400Y90.307800
G1X5.524400Y90.264300
G1X5.544800Y90.221500
G1X5.548900Y90.205200
G1X5.555400Y90.189600
G1X5.564700Y90.142700
G1X5.576200Y90.097400
G1X5.577000Y90.080800
G1X5.580400Y90.064000
G1X5.580400Y90.015900
G1X5.582800Y89.969400
G1X5.580400Y89.952900
G1X5.580400Y87.933800
G1X5.581700Y87.878200
G1X5.580400Y87.870800
G1X5.580400Y87.862900
G1X5.569300Y87.807300
G1X5.559700Y87.752100
G1X5.556900Y87.744900
G1X5.555400Y87.737300
G1X5.534000Y87.685700
G1X5.513500Y87.632700
G1X5.509200Y87.626100
G1X5.506400Y87.619100
G1X5.475400Y87.572800
G1X5.444900Y87.524600
G1X5.439600Y87.519100
G1X5.435300Y87.512600
G1X5.395600Y87.473000
G1X5.356600Y87.432000
G1X5.350200Y87.427600
G1X5.344800Y87.422100
G1X5.316400Y87.403200
G1X5.352600Y87.377000
G1X5.492100Y87.237500
G1X5.608100Y87.077800
G1X5.697700Y86.901900
G1X5.715500Y86.846900
G1X5.744200Y86.876600
G1X5.748800Y93.241300
G1X5.701900Y93.096700

G0Z0.500
G0X5.677400Y94.107500
G1Z-0.100 f25
G1X5.701900Y94.059400 f200
G1X5.749300Y93.913300
G1X5.749400Y94.055100
G1X5.677400Y94.107500

G0Z0.500
G0X7.927000Y95.059500
G1Z-0.100 f25
G1X7.837400Y95.235400 f200
G1X7.776400Y95.423100
G1X7.745500Y95.618000
G1X7.745500Y95.815500
G1X7.776400Y96.010400
G1X7.837400Y96.198100
G1X7.927000Y96.374000
G1X8.043000Y96.533700
G1X8.059400Y96.550000
G1X6.925000Y96.550000
G1X6.435200Y96.354100
G1X6.543100Y96.354100
G1X6.738000Y96.323200
G1X6.925700Y96.262200
G1X7.101600Y96.172600
G1X7.261300Y96.056600
G1X7.400800Y95.917100
G1X7.516800Y95.757400
G1X7.606400Y95.581500
G1X7.667400Y95.393800
G1X7.698300Y95.198900
G1X7.698300Y95.001400
G1X7.667400Y94.806500
G1X7.606400Y94.618800
G1X7.516800Y94.442900
G1X7.400800Y94.283200
G1X7.261300Y94.143700
G1X7.101600Y94.027700
G1X7.049200Y94.001100
G1X7.045300Y88.677000
G1X8.033200Y94.913400
G1X7.927000Y95.059500

G0Z0.500
G0X6.913300Y86.054500
G1Z-0.100 f25
G1X7.020900Y85.999600 f200
G1X7.016900Y86.420000
G1X6.996200Y86.370100
G1X6.975400Y86.316900
G1X6.972000Y86.311700
G1X6.969600Y86.305800
G1X6.937500Y86.257900
G1X6.906300Y86.209200
G1X6.901900Y86.204700
G1X6.898400Y86.199400
G1X6.857900Y86.159100
G1X6.794300Y86.093100
G1X6.913300Y86.054500

G0Z0.500
G0X9.595300Y58.473100
G1Z-0.100 f25
G1X9.602100Y61.618300 f200
G1X9.480800Y61.556400
G1X9.293100Y61.495400
G1X9.180400Y61.477600
G1X9.180400Y57.810200
G1X9.595300Y58.473100

G0Z0.500
G0X10.988900Y93.559000
G1Z-0.100 f25
G1X11.003800Y93.569100 f200
G1X11.046500Y93.587000
G1X11.087700Y93.607100
G1X11.105100Y93.611600
G1X11.121800Y93.618700
G1X11.167000Y93.627900
G1X12.247200Y93.911700
G1X12.292200Y94.050300
G1X12.319300Y94.103500
G1X12.243300Y94.048200
G1X12.067400Y93.958600
G1X11.879700Y93.897600
G1X11.684800Y93.866700
G1X11.487300Y93.866700
G1X11.292400Y93.897600
G1X11.269600Y93.905000
G1X10.983700Y93.586800
G1X10.983600Y93.556400
G1X10.988900Y93.559000

G0Z0.500
G0X5.613600Y17.941000
G1Z-0.100 f25
G1X5.474100Y18.080500 f200
G1X5.358100Y18.240200
G1X5.268500Y18.416100
G1X5.238400Y18.509000
G1X5.216700Y15.580100
G1X5.263100Y15.527400
G1X5.280900Y15.582400
G1X5.370500Y15.758300
G1X5.486500Y15.918000
G1X5.626000Y16.057500
G1X5.785700Y16.173500
G1X5.961600Y16.263100
G1X6.105000Y16.309700
G1X5.996400Y16.416400
G1X5.994000Y16.417900
G1X5.952500Y16.459400
G1X5.907200Y16.503900
G1X5.905500Y16.506400
G1X5.903500Y16.508400
G1X5.873000Y16.554200
G1X5.835100Y16.609700
G1X5.833800Y16.612900
G1X5.832400Y16.614900
G1X5.810900Y16.666900
G1X5.785100Y16.727600
G1X5.784600Y16.730500
G1X5.783400Y16.733100
G1X5.771500Y16.793200
G1X5.759000Y16.852900
G1X5.759000Y16.855900
G1X5.758400Y16.858700
G1X5.758400Y16.922900
G1X5.757900Y16.981000
G1X5.758400Y16.983600
G1X5.758400Y17.835900
G1X5.613600Y17.941000

G0Z0.500
G0X6.924300Y13.939000
G1Z-0.100 f25
G1X6.736600Y13.878000 f200
G1X6.717900Y13.875100
G1X6.766600Y13.819800
G1X6.795600Y13.791200
G1X6.808300Y13.772400
G1X6.823700Y13.755000
G1X6.844300Y13.719400
G1X6.867500Y13.685300
G1X6.876500Y13.663900
G1X6.887900Y13.644300
G1X6.901000Y13.605700
G1X6.917300Y13.567300
G1X6.921900Y13.544500
G1X6.929300Y13.523100
G1X6.934700Y13.482500
G1X6.943100Y13.441900
G1X6.943200Y13.418900
G1X6.946300Y13.396200
G1X6.943600Y13.355200
G1X6.982600Y7.483200
G1X6.983900Y7.420500
G1X6.983000Y7.415900
G1X6.983100Y7.411700
G1X6.971800Y7.353000
G1X6.961400Y7.294500
G1X6.959800Y7.290700
G1X6.959000Y7.286000
G1X6.934700Y7.226300
G1X6.914800Y7.175300
G1X6.912600Y7.172000
G1X6.910800Y7.167400
G1X6.876300Y7.115200
G1X6.845900Y7.067400
G1X6.842800Y7.064300
G1X6.840400Y7.060500
G1X6.798800Y7.018500
G1X6.757200Y6.975100
G1X6.753400Y6.972500
G1X6.750400Y6.969400
G1X6.700500Y6.935600
G1X6.652200Y6.901800
G1X6.648300Y6.900200
G1X6.644500Y6.897500
G1X6.586800Y6.873200
G1X5.787700Y6.523100
G1X5.788200Y6.520200
G1X5.788200Y6.322700
G1X5.757300Y6.127800
G1X5.696300Y5.940100
G1X5.671700Y5.891900
G1X5.773300Y5.965800
G1X5.949200Y6.055400
G1X6.136900Y6.116400
G1X6.331800Y6.147300
G1X6.529300Y6.147300
G1X6.724200Y6.116400
G1X6.846400Y6.076600
G1X7.105600Y6.288100
G1X7.079500Y14.018100
G1X6.924300Y13.939000

G0Z0.500
G0X10.822700Y82.853200
G1Z-0.100 f25
G1X10.837900Y82.836900 f200
G1X10.859200Y82.802300
G1X10.883800Y82.768100
G1X10.893300Y82.747000
G1X10.905100Y82.728000
G1X10.919300Y82.689700
G1X10.936700Y82.651500
G1X10.941900Y82.629200
G1X10.949800Y82.608000
G1X10.956400Y82.567000
G1X10.965800Y82.526800
G1X10.966500Y82.504100
G1X10.970200Y82.481600
G1X10.968700Y82.440300
G1X10.970100Y82.398800
G1X10.966300Y82.376300
G1X10.960300Y82.210200
G1X10.974200Y82.217300
G1X10.974200Y82.806900
G1X10.676600Y83.056700
G1X10.822700Y82.853200

G0Z0.500
G0X12.354300Y82.113700
G1Z-0.100 f25
G1X12.347600Y83.189400 f200
G1X12.253100Y83.279500
G1X12.256000Y83.264900
G1X12.266100Y83.230200
G1X12.268600Y83.201600
G1X12.274100Y83.173900
G1X12.274100Y83.138200
G1X12.277200Y83.102500
G1X12.274100Y83.074400
G1X12.274100Y82.171900
G1X12.354300Y82.113700

G0Z0.500
G0X11.067200Y86.044000
G1Z-0.100 f25
G1X11.243700Y86.101300 f200
G1X10.959500Y86.408100
G1X10.958100Y85.988400
G1X11.067200Y86.044000

G0Z0.500
G0X9.479400Y30.883800
G1Z-0.100 f25
G1X9.637500Y30.803200 f200
G1X9.637500Y34.599800
G1X9.449900Y34.951400
G1X9.449900Y30.893400
G1X9.479400Y30.883800

G0Z0.500
G0X5.696300Y19.944200
G1Z-0.100 f25
G1X5.671700Y19.896100 f200
G1X5.759900Y19.960100
G1X5.756600Y20.129800
G1X5.696300Y19.944200

G0Z0.500
G0X6.185200Y30.333900
G1Z-0.100 f25
G1X6.344200Y30.359100 f200
G1X6.541700Y30.359100
G1X6.736600Y30.328200
G1X6.924300Y30.267200
G1X6.970300Y30.243700
G1X6.982000Y34.954300
G1X5.996100Y35.887500
G1X5.983500Y35.896200
G1X5.951300Y35.929900
G1X5.915000Y35.964200
G1X5.905600Y35.977600
G1X5.894900Y35.988600
G1X5.869900Y36.028000
G1X5.849900Y36.056200
G1X5.849900Y30.669200
G1X6.185200Y30.333900

G0Z0.500
G0X6.924300Y27.943100
G1Z-0.100 f25
G1X6.808200Y27.905400 f200
G1X6.883500Y27.820500
G1X6.914500Y27.789800
G1X6.926100Y27.772500
G1X6.939900Y27.757000
G1X6.961800Y27.719500
G1X6.964000Y27.716200
G1X6.964600Y27.963700
G1X6.924300Y27.943100

G0Z0.500
G0X5.950600Y50.732100
G1Z-0.100 f25
G1X5.774700Y50.821700 f200
G1X5.615000Y50.937700
G1X5.475500Y51.077200
G1X5.417400Y51.157300
G1X5.398700Y49.917700
G1X6.204800Y49.339600
G1X6.186400Y49.355000
G1X6.170000Y49.375400
G1X6.151500Y49.393600
G1X6.130300Y49.424900
G1X6.106200Y49.454800
G1X6.094100Y49.478100
G1X6.079600Y49.499400
G1X6.064700Y49.534800
G1X6.047100Y49.568400
G1X6.040000Y49.593000
G1X6.029600Y49.617300
G1X6.021800Y49.655300
G1X6.011200Y49.691300
G1X6.009000Y49.716900
G1X6.003600Y49.742700
G1X6.003300Y49.781400
G1X6.000000Y49.818900
G1X6.002800Y49.844400
G1X5.995800Y50.717400
G1X5.950600Y50.732100

G0Z0.500
G0X8.258800Y19.712600
G1Z-0.100 f25
G1X8.273800Y19.759800 f200
G1X8.280400Y19.771700
G1X8.285200Y19.784700
G1X8.311700Y19.828000
G1X8.335800Y19.871700
G1X8.344700Y19.882100
G1X8.731800Y20.516500
G1X8.731900Y20.552900
G1X8.249900Y19.808100
G1X8.249900Y19.688400
G1X8.258800Y19.712600

G0Z0.500
G0X5.774700Y83.820000
G1Z-0.100 f25
G1X5.615000Y83.936000 f200
G1X5.611000Y83.940100
G1X5.623600Y82.906000
G1X5.847000Y82.680600
G1X5.845700Y82.696300
G1X5.840900Y82.718400
G1X5.840300Y82.760700
G1X5.836800Y82.802100
G1X5.839300Y82.824100
G1X5.824800Y83.794500
G1X5.774700Y83.820000

G0Z0.500
G0X8.477000Y65.517900
G1Z-0.100 f25
G1X8.477000Y65.539300 f200
G1X8.474200Y65.560400
G1X8.477000Y65.603500
G1X8.476900Y69.136200
G1X8.318200Y69.217000
G1X8.249900Y69.266700
G1X8.249900Y65.921900
G1X8.484200Y65.482100
G1X8.477000Y65.517900

G0Z0.500
G0X9.293100Y63.941500
G1Z-0.100 f25
G1X9.331300Y63.929000 f200
G1X9.077900Y64.367500
G1X9.162900Y64.208100
G1X9.180100Y64.182400
G1X9.192200Y64.153000
G1X9.207900Y64.123700
G1X9.217100Y64.092900
G1X9.229100Y64.064200
G1X9.235300Y64.032600
G1X9.244900Y64.001100
G1X9.247900Y63.969400
G1X9.252200Y63.947900
G1X9.293100Y63.941500

G0Z0.500
G0X4.901100Y62.758500
G1Z-0.100 f25
G1X5.234400Y62.435600 f200
G1X5.282300Y62.583200
G1X5.287500Y62.593300
G1X4.899500Y62.981200
G1X4.901100Y62.758500

G0Z0.500
G0X6.363200Y63.355800
G1Z-0.100 f25
G1X6.543100Y63.355800 f200
G1X6.738000Y63.324900
G1X6.847300Y63.289300
G1X5.842900Y65.260000
G1X5.848800Y63.870300
G1X6.363200Y63.355800

G0Z0.500
G0X2.782500Y45.473800
G1Z-0.100 f25
G1X2.958400Y45.563400 f200
G1X3.146100Y45.624400
G1X3.341000Y45.655300
G1X3.538500Y45.655300
G1X3.721900Y45.626200
G1X3.583500Y45.764500
G1X3.467500Y45.924200
G1X3.377900Y46.100100
G1X3.316900Y46.287800
G1X3.286000Y46.482700
G1X3.286000Y46.680200
G1X3.316900Y46.875100
G1X3.377900Y47.062800
G1X3.467500Y47.238700
G1X3.583500Y47.398400
G1X3.723000Y47.537900
G1X3.882700Y47.653900
G1X4.058600Y47.743500
G1X4.141800Y47.770500
G1X3.316200Y48.605600
G1X3.275200Y48.646500
G1X3.274300Y48.648000
G1X3.272800Y48.649400
G1X3.237900Y48.702500
G1X3.204100Y48.752900
G1X3.203400Y48.754700
G1X3.202300Y48.756300
G1X3.178100Y48.815800
G1X3.155100Y48.871200
G1X3.154800Y48.873000
G1X3.154000Y48.874800
G1X3.141100Y48.942000
G1X3.130100Y48.996800
G1X3.130100Y48.998500
G1X3.129700Y49.000500
G1X3.130100Y49.064400
G1X3.130000Y52.636200
G1X3.128900Y52.642300
G1X3.130000Y52.701300
G1X3.130000Y52.758300
G1X3.131200Y52.764200
G1X3.131300Y52.770400
G1X3.144000Y52.828400
G1X3.155000Y52.883900
G1X3.157300Y52.889300
G1X3.158600Y52.895500
G1X3.182800Y52.950800
G1X3.204000Y53.002100
G1X3.207300Y53.006900
G1X3.209800Y53.012800
G1X3.243400Y53.061100
G1X3.275100Y53.108600
G1X3.279500Y53.112900
G1X3.282900Y53.117900
G1X3.310200Y53.144100
G1X3.281700Y53.323500
G1X3.281700Y53.521000
G1X3.312600Y53.715900
G1X3.373600Y53.903600
G1X3.463200Y54.079500
G1X3.579200Y54.239200
G1X3.718700Y54.378700
G1X3.777000Y54.421000
G1X3.723500Y54.403600
G1X3.528600Y54.372700
G1X3.331100Y54.372700
G1X3.136200Y54.403600
G1X2.975100Y54.456000
G1X2.649900Y54.130700
G1X2.649900Y45.377400
G1X2.782500Y45.473800

G0Z0.500
G0X3.086000Y9.833000
G1Z-0.100 f25
G1X3.134800Y9.848900 f200
G1X3.329700Y9.879800
G1X3.527200Y9.879800
G1X3.722100Y9.848900
G1X3.909800Y9.787900
G1X4.085700Y9.698300
G1X4.245400Y9.582300
G1X4.384900Y9.442800
G1X4.500900Y9.283100
G1X4.590500Y9.107200
G1X4.651500Y8.919500
G1X4.682400Y8.724600
G1X4.682400Y8.527100
G1X4.651500Y8.332200
G1X4.590500Y8.144500
G1X4.500900Y7.968600
G1X4.384900Y7.808900
G1X4.245400Y7.669400
G1X4.186900Y7.627000
G1X4.240600Y7.644500
G1X4.435500Y7.675400
G1X4.633000Y7.675400
G1X4.827900Y7.644500
G1X4.988700Y7.592200
G1X5.680000Y7.895100
G1X5.646200Y12.991100
G1X5.610900Y12.921700
G1X5.494900Y12.762000
G1X5.355400Y12.622500
G1X5.195700Y12.506500
G1X5.019800Y12.416900
G1X4.832100Y12.355900
G1X4.637200Y12.325000
G1X4.439700Y12.325000
G1X4.256300Y12.354100
G1X4.394700Y12.215800
G1X4.510700Y12.056100
G1X4.600300Y11.880200
G1X4.661300Y11.692500
G1X4.692200Y11.497600
G1X4.692200Y11.300100
G1X4.661300Y11.105200
G1X4.600300Y10.917500
G1X4.510700Y10.741600
G1X4.394700Y10.581900
G1X4.255200Y10.442400
G1X4.095500Y10.326400
G1X3.919600Y10.236800
G1X3.731900Y10.175800
G1X3.537000Y10.144900
G1X3.339500Y10.144900
G1X3.144600Y10.175800
G1X2.956900Y10.236800
G1X2.781000Y10.326400
G1X2.649900Y10.421700
G1X2.649900Y10.269200
G1X3.086000Y9.833000

G0Z0.500
G0X4.587200Y9.262900
G1Z-0.100 f25
G1X4.545200Y9.305000 f200
G1X4.499500Y9.350000
G1X4.498300Y9.351900
G1X4.347700Y9.502400
G1X4.257200Y9.592900
G1X4.257100Y9.593000
G1X4.244200Y9.612500
G1X4.186000Y9.699300
G1X4.137000Y9.817600
G1X4.112000Y9.943200
G1X4.112000Y10.071300
G1X4.112000Y10.071400
G1X4.117500Y10.098900
G1X4.136900Y10.196800
G1X4.185900Y10.315100
G1X4.257000Y10.421600
G1X4.534700Y10.699300
G1X4.580600Y10.745900
G1X4.582500Y10.747100
G1X4.583900Y10.748600
G1X4.634700Y10.782500
G1X4.686600Y10.817800
G1X4.688600Y10.818600
G1X4.690300Y10.819800
G1X4.750500Y10.844700
G1X4.804500Y10.867500
G1X4.806500Y10.867900
G1X4.808600Y10.868800
G1X4.869300Y10.880800
G1X4.929900Y10.893400
G1X4.932300Y10.893400
G1X4.934200Y10.893800
G1X4.994100Y10.893800
G1X5.058000Y10.894200
G1X5.060000Y10.893800
G1X5.062300Y10.893800
G1X5.124400Y10.881400
G1X5.183800Y10.870100
G1X5.185700Y10.869300
G1X5.187800Y10.868900
G1X5.242500Y10.846200
G1X5.302400Y10.821900
G1X5.304300Y10.820600
G1X5.306100Y10.819900
G1X5.354500Y10.787500
G1X5.409300Y10.751500
G1X5.410800Y10.749900
G1X5.412600Y10.748800
G1X5.454900Y10.706400
G1X5.500400Y10.661600
G1X5.501600Y10.659700
G1X5.503100Y10.658300
G1X5.537000Y10.607500
G1X5.572300Y10.555600
G1X5.573100Y10.553600
G1X5.574300Y10.551900
G1X5.599200Y10.491700
G1X5.622000Y10.437700
G1X5.622400Y10.435700
G1X5.623300Y10.433600
G1X5.635300Y10.372900
G1X5.647900Y10.312300
G1X5.647900Y10.309900
G1X5.648300Y10.308000
G1X5.648300Y10.251700
G1X5.651000Y9.833900
G1X5.651500Y9.831800
G1X5.651500Y9.768700
G1X5.651900Y9.708100
G1X5.651500Y9.706100
G1X5.651500Y9.703700
G1X5.639700Y9.644600
G1X5.627800Y9.582300
G1X5.626900Y9.580100
G1X5.626500Y9.578100
G1X5.605800Y9.528300
G1X5.579600Y9.463700
G1X5.578100Y9.461600
G1X5.577500Y9.459900
G1X5.547900Y9.415600
G1X5.509200Y9.356800
G1X5.507500Y9.355200
G1X5.506400Y9.353400
G1X5.464300Y9.311400
G1X5.419300Y9.265700
G1X5.417400Y9.264500
G1X5.415900Y9.262900
G1X5.369800Y9.232200
G1X5.313300Y9.193800
G1X5.310800Y9.192800
G1X5.309400Y9.191800
G1X5.258600Y9.170800
G1X5.195400Y9.144100
G1X5.193200Y9.143700
G1X5.191200Y9.142800
G1X5.133600Y9.131400
G1X5.070000Y9.118200
G1X5.067500Y9.118200
G1X5.065600Y9.117800
G1X5.006100Y9.117800
G1X4.941900Y9.117400
G1X4.939900Y9.117800
G1X4.937500Y9.117800
G1X4.878400Y9.129600
G1X4.816100Y9.141500
G1X4.813900Y9.142400
G1X4.811900Y9.142800
G1X4.762100Y9.163500
G1X4.697500Y9.189700
G1X4.695400Y9.191200
G1X4.693700Y9.191800
G1X4.649400Y9.221400
G1X4.590600Y9.260100
G1X4.589000Y9.261800
G1X4.587200Y9.262900

G0Z0.500
G0X2.781000Y12.471300
G1Z-0.100 f25
G1X2.956900Y12.560900 f200
G1X3.144600Y12.621900
G1X3.339500Y12.652800
G1X3.537000Y12.652800
G1X3.720400Y12.623700
G1X3.582000Y12.762000
G1X3.466000Y12.921700
G1X3.376400Y13.097600
G1X3.315400Y13.285300
G1X3.284500Y13.480200
G1X3.284500Y13.677700
G1X3.311500Y13.847500
G1X2.649900Y14.509100
G1X2.649900Y12.376000
G1X2.781000Y12.471300

G0Z0.500
G0X30.757300Y44.560000
G1Z-0.100 f25
G1X30.773800Y44.543400 f200
G1X30.773800Y44.546700
G1X30.757300Y44.560000

G0Z0.500
G0X28.560400Y51.869000
G1Z-0.100 f25
G1X29.295000Y52.603600 f200
G1X30.333700Y52.603600
G1X30.689200Y52.248100
G1X30.695500Y52.997500
G1X30.333700Y52.635700
G1X29.295000Y52.635700
G1X28.560400Y53.370300
G1X28.560400Y54.409000
G1X29.295000Y55.143600
G1X29.620800Y55.143600
G1X29.624500Y58.703900
G1X29.621400Y58.736600
G1X29.624600Y58.767800
G1X29.624600Y58.799200
G1X29.631000Y58.830900
G1X29.634300Y58.864000
G1X29.643700Y58.894400
G1X29.649700Y58.924700
G1X29.662200Y58.954600
G1X29.671900Y58.986400
G1X29.686900Y59.014200
G1X29.698800Y59.042900
G1X29.711100Y59.061100
G1X29.281900Y59.061100
G1X28.547300Y59.795700
G1X28.547300Y60.834400
G1X29.281900Y61.569000
G1X30.320600Y61.569000
G1X30.352800Y61.536700
G1X30.526800Y61.674000
G1X30.526200Y61.806800
G1X30.320600Y61.601100
G1X29.281900Y61.601100
G1X28.547300Y62.335700
G1X28.547300Y63.374400
G1X29.281900Y64.109000
G1X30.320600Y64.109000
G1X30.517000Y63.912500
G1X30.515100Y64.335700
G1X30.320600Y64.141100
G1X29.281900Y64.141100
G1X28.547300Y64.875700
G1X28.547300Y65.914400
G1X29.281900Y66.649000
G1X30.320600Y66.649000
G1X30.505700Y66.463800
G1X30.504000Y66.864500
G1X30.320600Y66.681100
G1X29.980900Y66.681100
G1X29.970100Y66.679000
G1X29.903000Y66.665300
G1X29.901500Y66.665300
G1X29.900100Y66.665000
G1X29.839200Y66.665000
G1X29.774900Y66.664700
G1X29.773400Y66.665000
G1X29.275200Y66.665000
G1X28.531200Y65.921000
G1X28.531200Y64.869000
G1X28.860900Y64.539300
G1X28.861000Y64.539200
G1X28.932100Y64.432800
G1X28.966200Y64.350100
G1X28.981000Y64.314600
G1X29.006000Y64.189000
G1X29.006000Y64.060900
G1X29.006000Y64.060800
G1X28.982400Y63.942500
G1X28.981000Y63.935300
G1X28.979500Y63.931900
G1X28.932000Y63.817000
G1X28.862300Y63.712800
G1X28.860900Y63.710600
G1X28.770400Y63.620100
G1X28.770300Y63.620100
G1X28.531200Y63.381000
G1X28.531200Y62.329000
G1X28.860900Y61.999300
G1X28.861000Y61.999200
G1X28.932100Y61.892800
G1X28.966200Y61.810100
G1X28.981000Y61.774600
G1X29.006000Y61.649000
G1X29.006000Y61.520900
G1X29.006000Y61.520800
G1X28.982400Y61.402500
G1X28.981000Y61.395300
G1X28.979500Y61.391900
G1X28.932000Y61.277000
G1X28.862300Y61.172800
G1X28.860900Y61.170600
G1X28.770400Y61.080100
G1X28.770300Y61.080100
G1X28.531200Y60.841000
G1X28.531200Y59.789000
G1X29.372700Y58.947500
G1X29.373000Y58.947300
G1X29.417400Y58.902700
G1X29.463000Y58.857200
G1X29.463200Y58.856800
G1X29.463400Y58.856700
G1X29.532400Y58.753100
G1X29.534100Y58.750700
G1X29.534100Y58.750600
G1X29.534500Y58.750100
G1X29.564800Y58.676500
G1X29.583100Y58.632500
G1X29.583100Y58.632000
G1X29.583300Y58.631800
G1X29.598100Y58.557000
G1X29.608100Y58.506900
G1X29.608100Y58.506600
G1X29.608200Y58.506200
G1X29.608100Y58.413000
G1X29.608100Y58.378800
G1X29.608000Y58.378700
G1X29.605300Y55.774200
G1X29.605300Y55.681700
G1X29.605200Y55.681300
G1X29.605200Y55.681000
G1X29.596700Y55.638700
G1X29.580300Y55.556100
G1X29.580100Y55.555800
G1X29.580100Y55.555500
G1X29.562800Y55.514000
G1X29.531300Y55.437800
G1X29.531000Y55.437500
G1X29.531000Y55.437300
G1X29.505700Y55.399600
G1X29.460200Y55.331400
G1X29.460000Y55.331300
G1X29.459800Y55.330900
G1X29.411800Y55.283100
G1X28.544300Y54.415600
G1X28.544300Y53.363500
G1X28.783300Y53.124500
G1X28.783500Y53.124400
G1X28.874100Y53.033800
G1X28.945200Y52.927400
G1X28.994100Y52.809100
G1X29.019100Y52.683500
G1X29.019100Y52.555400
G1X28.994100Y52.429900
G1X28.945100Y52.311600
G1X28.874000Y52.205200
G1X28.544300Y51.875600
G1X28.544300Y51.756900
G1X28.546600Y51.741800
G1X28.544300Y51.692700
G1X28.544300Y51.643800
G1X28.541300Y51.628800
G1X28.540600Y51.613800
G1X28.528900Y51.566700
G1X28.519300Y51.518200
G1X28.513500Y51.504300
G1X28.509900Y51.489600
G1X28.488900Y51.444900
G1X28.470300Y51.400000
G1X28.462000Y51.387600
G1X28.455500Y51.373700
G1X28.426300Y51.334100
G1X28.399200Y51.293500
G1X28.388400Y51.282800
G1X28.379500Y51.270600
G1X28.343500Y51.237800
G1X28.308700Y51.203000
G1X28.296000Y51.194600
G1X28.284900Y51.184400
G1X28.242800Y51.159000
G1X28.202200Y51.131900
G1X28.188300Y51.126200
G1X27.429100Y50.668200
G1X27.388000Y50.640700
G1X27.374000Y50.635000
G1X27.361400Y50.627300
G1X27.315300Y50.610700
G1X27.298100Y50.603600
G1X27.272700Y50.578100
G1X27.260000Y50.569700
G1X27.248900Y50.559500
G1X27.218200Y50.541000
G1X27.206900Y50.525700
G1X27.179800Y50.485100
G1X27.169400Y50.474800
G1X27.160500Y50.462600
G1X27.123700Y50.429100
G1X27.110900Y50.416200
G1X27.097100Y50.382900
G1X27.088600Y50.370300
G1X27.082200Y50.356500
G1X27.060900Y50.327800
G1X27.056300Y50.309100
G1X27.046800Y50.261200
G1X27.041300Y50.248000
G1X27.037700Y50.233300
G1X27.027300Y50.211300
G1X27.027900Y50.114500
G1X27.028600Y50.118100
G1X27.029300Y50.133100
G1X27.041000Y50.180400
G1X27.050600Y50.228700
G1X27.056300Y50.242500
G1X27.060000Y50.257400
G1X27.081300Y50.302600
G1X27.099600Y50.346900
G1X27.107900Y50.359200
G1X27.114400Y50.373200
G1X27.143600Y50.412800
G1X27.170700Y50.453400
G1X27.181500Y50.464100
G1X27.190400Y50.476300
G1X27.226400Y50.509100
G1X27.261200Y50.543900
G1X27.273900Y50.552300
G1X27.285000Y50.562500
G1X27.327100Y50.587900
G1X27.367700Y50.615000
G1X27.381600Y50.620700
G1X28.560400Y51.331800
G1X28.560400Y51.869000

G0Z0.500
G0X27.367700Y47.063100
G1Z-0.100 f25
G1X27.322900Y47.093000 f200
G1X27.269800Y47.127200
G1X27.265600Y47.131300
G1X27.261200Y47.134200
G1X27.220800Y47.174600
G1X27.177800Y47.216200
G1X27.174700Y47.220800
G1X27.170700Y47.224700
G1X27.138900Y47.272400
G1X27.104900Y47.321400
G1X27.102600Y47.326800
G1X27.099600Y47.331200
G1X27.077900Y47.383700
G1X27.053900Y47.438800
G1X27.052700Y47.444400
G1X27.050600Y47.449400
G1X27.043500Y47.485200
G1X27.043900Y47.411100
G1X27.050900Y47.376000
G1X27.052500Y47.368500
G1X27.084300Y47.322800
G1X27.086500Y47.317600
G1X27.089700Y47.312900
G1X27.110800Y47.261700
G1X27.114600Y47.257900
G1X27.159200Y47.214900
G1X27.162300Y47.210300
G1X27.165900Y47.206800
G1X27.197400Y47.159600
G1X27.203500Y47.150800
G1X27.250100Y47.120900
G1X27.254300Y47.116800
G1X27.259300Y47.113500
G1X27.298400Y47.074300
G1X27.303700Y47.072100
G1X27.360600Y47.049700
G1X27.365200Y47.046700
G1X27.370100Y47.044700
G1X27.417100Y47.013200
G1X28.197500Y46.510800
G1X28.202200Y46.508900
G1X28.247000Y46.478900
G1X28.300100Y46.444800
G1X28.304300Y46.440700
G1X28.308700Y46.437800
G1X28.349100Y46.397300
G1X28.392100Y46.355800
G1X28.395200Y46.351200
G1X28.399200Y46.347300
G1X28.431000Y46.299600
G1X28.465000Y46.250600
G1X28.467300Y46.245200
G1X28.470300Y46.240800
G1X28.492500Y46.187100
G1X28.516000Y46.133100
G1X28.517100Y46.127700
G1X28.519300Y46.122600
G1X28.530900Y46.064300
G1X28.543100Y46.008000
G1X28.543200Y46.002500
G1X28.544300Y45.997000
G1X28.544300Y45.938200
G1X28.545300Y45.879900
G1X28.544300Y45.874400
G1X28.544300Y45.743600
G1X28.783400Y45.504500
G1X28.783500Y45.504500
G1X28.865100Y45.422800
G1X28.874000Y45.414000
G1X28.945100Y45.307600
G1X28.994100Y45.189300
G1X29.019100Y45.063800
G1X29.019100Y44.935700
G1X29.019100Y44.935600
G1X28.994100Y44.810000
G1X28.980100Y44.776500
G1X28.945200Y44.691800
G1X28.874100Y44.585400
G1X28.783500Y44.494800
G1X28.783400Y44.494800
G1X28.544300Y44.255600
G1X28.544300Y43.203600
G1X28.874000Y42.873900
G1X28.874000Y42.873800
G1X28.874100Y42.873800
G1X28.945200Y42.767400
G1X28.979300Y42.684700
G1X28.994100Y42.649200
G1X29.019100Y42.523600
G1X29.019100Y42.395500
G1X29.019100Y42.395400
G1X28.995500Y42.277100
G1X28.994100Y42.269900
G1X28.992600Y42.266500
G1X28.945100Y42.151600
G1X28.875400Y42.047400
G1X28.874000Y42.045200
G1X28.783500Y41.954700
G1X28.783400Y41.954700
G1X28.544300Y41.715600
G1X28.544300Y40.663600
G1X28.874000Y40.333900
G1X28.874100Y40.333800
G1X28.945200Y40.227400
G1X28.979300Y40.144700
G1X28.994100Y40.109200
G1X29.019100Y39.983600
G1X29.019100Y39.855500
G1X29.019100Y39.855400
G1X28.995500Y39.737000
G1X28.994100Y39.729900
G1X28.992700Y39.726500
G1X28.945100Y39.611600
G1X28.875400Y39.507300
G1X28.874000Y39.505200
G1X28.783500Y39.414700
G1X28.783400Y39.414700
G1X28.544300Y39.175600
G1X28.544300Y39.104200
G1X28.545000Y39.044500
G1X28.544300Y39.040800
G1X28.544300Y39.036600
G1X28.532500Y38.977500
G1X28.521600Y38.918700
G1X28.520100Y38.914900
G1X28.519300Y38.911000
G1X28.496400Y38.855900
G1X28.474000Y38.799800
G1X28.471800Y38.796500
G1X28.470300Y38.792800
G1X28.436900Y38.742800
G1X28.404200Y38.692500
G1X28.401500Y38.689700
G1X28.399200Y38.686300
G1X28.355300Y38.642500
G1X28.314800Y38.600900
G1X28.311600Y38.598700
G1X28.308700Y38.595800
G1X28.257600Y38.561700
G1X28.209200Y38.528500
G1X28.205500Y38.527000
G1X28.202200Y38.524700
G1X28.145300Y38.501200
G1X26.601400Y37.839400
G1X26.598200Y37.837200
G1X26.545800Y37.815500
G1X26.487700Y37.790600
G1X26.483500Y37.789700
G1X26.418800Y37.762900
G1X26.373400Y37.716400
G1X26.371100Y37.712900
G1X26.328200Y37.670100
G1X26.286900Y37.627700
G1X26.283500Y37.625400
G1X26.232300Y37.574300
G1X26.222900Y37.550700
G1X26.222700Y37.504600
G1X26.224000Y37.507800
G1X26.257400Y37.557800
G1X26.290100Y37.608100
G1X26.292800Y37.610900
G1X26.295100Y37.614300
G1X26.339000Y37.658100
G1X26.379500Y37.699700
G1X26.382700Y37.701900
G1X26.385600Y37.704800
G1X26.436700Y37.738900
G1X26.485100Y37.772100
G1X26.488800Y37.773600
G1X26.492100Y37.775900
G1X26.549100Y37.799500
G1X28.560400Y38.661600
G1X28.560400Y39.169000
G1X29.295000Y39.903600
G1X30.079100Y39.903600
G1X30.039000Y39.935700
G1X29.295000Y39.935700
G1X28.560400Y40.670300
G1X28.560400Y41.709000
G1X29.295000Y42.443600
G1X30.333700Y42.443600
G1X30.773800Y42.003400
G1X30.773800Y42.915900
G1X30.333700Y42.475700
G1X29.295000Y42.475700
G1X28.560400Y43.210300
G1X28.560400Y44.249000
G1X29.295000Y44.983600
G1X30.228800Y44.983600
G1X30.188700Y45.015700
G1X29.295000Y45.015700
G1X28.560400Y45.750300
G1X28.560400Y46.296200
G1X27.372400Y47.061200
G1X27.367700Y47.063100

G0Z0.500
G0X29.295000Y47.523600
G1Z-0.100 f25
G1X30.333700Y47.523600 f200
G1X31.068300Y46.789000
G1X31.068300Y45.976500
G1X31.808500Y45.383200
G1X31.814600Y45.379100
G1X31.838900Y48.881300
G1X31.815400Y48.846600
G1X31.805200Y48.836600
G1X31.796500Y48.824900
G1X31.759600Y48.791800
G1X31.724100Y48.756800
G1X31.711700Y48.748700
G1X31.701300Y48.739300
G1X31.659400Y48.714400
G1X31.617100Y48.686600
G1X31.603600Y48.681200
G1X31.591300Y48.673800
G1X31.544300Y48.657200
G1X31.498400Y48.638600
G1X31.484200Y48.636000
G1X31.068300Y48.488700
G1X31.068300Y48.290300
G1X30.333700Y47.555700
G1X29.295000Y47.555700
G1X28.560400Y48.290300
G1X28.560400Y49.329000
G1X29.295000Y50.063600
G1X30.333700Y50.063600
G1X30.668000Y49.729200
G1X30.674000Y50.436000
G1X30.333700Y50.095700
G1X29.295000Y50.095700
G1X29.194400Y50.196300
G1X28.325500Y49.672100
G1X28.325500Y47.993600
G1X29.201200Y47.429700
G1X29.295000Y47.523600

G0Z0.500
G0X31.055200Y69.955700
G1Z-0.100 f25
G1X30.976700Y69.877200 f200
G1X31.399600Y69.443300
G1X31.399600Y69.451300
G1X31.055200Y70.270400
G1X31.055200Y69.955700

G0Z0.500
G0X29.295000Y37.363600
G1Z-0.100 f25
G1X30.333700Y37.363600 f200
G1X30.338100Y37.359100
G1X30.757200Y37.609500
G1X30.758900Y37.821000
G1X30.333700Y37.395700
G1X29.295000Y37.395700
G1X29.178500Y37.512300
G1X27.449900Y36.771400
G1X27.449900Y35.146500
G1X27.473300Y35.186200
G1X27.485200Y35.199400
G1X27.495100Y35.214300
G1X27.528300Y35.247400
G1X27.558800Y35.281500
G1X27.572800Y35.292000
G1X27.585600Y35.304800
G1X27.624500Y35.330700
G1X28.560400Y36.032700
G1X28.560400Y36.629000
G1X29.295000Y37.363600

G0Z0.500
G0X29.292500Y33.142500
G1Z-0.100 f25
G1X30.009100Y33.142500 f200
G1X31.746900Y35.612600
G1X31.754400Y36.691300
G1X31.750200Y36.688800
G1X31.707400Y36.660600
G1X31.694200Y36.655300
G1X31.068300Y36.281300
G1X31.068300Y35.590300
G1X30.333700Y34.855700
G1X29.295000Y34.855700
G1X29.236100Y34.914700
G1X28.649900Y34.475000
G1X28.649900Y32.499800
G1X29.292500Y33.142500

G0Z0.500
G0X30.499900Y33.868000
G1Z-0.100 f25
G1X30.466400Y33.820500 f200
G1X30.436300Y33.775300
G1X30.430800Y33.769800
G1X30.198900Y33.440200
G1X30.168100Y33.394100
G1X30.162500Y33.388500
G1X30.158000Y33.382100
G1X30.118100Y33.344100
G1X30.077600Y33.303600
G1X30.070800Y33.299100
G1X30.065300Y33.293800
G1X30.017300Y33.263400
G1X29.971100Y33.232500
G1X29.964100Y33.229700
G1X29.957200Y33.225200
G1X29.903300Y33.204400
G1X29.852900Y33.183500
G1X29.845200Y33.182000
G1X29.837800Y33.179100
G1X29.781200Y33.169300
G1X29.727300Y33.158500
G1X29.719700Y33.158500
G1X29.711700Y33.157100
G1X29.654000Y33.158500
G1X29.251800Y33.158500
G1X29.126200Y33.183500
G1X29.008000Y33.232500
G1X28.901500Y33.303600
G1X28.811000Y33.394100
G1X28.739900Y33.500600
G1X28.690900Y33.618800
G1X28.665900Y33.744400
G1X28.665900Y33.872500
G1X28.665900Y34.124200
G1X28.663400Y34.170500
G1X28.665900Y34.188000
G1X28.665900Y34.206000
G1X28.675000Y34.251600
G1X28.681500Y34.297300
G1X28.687400Y34.314100
G1X28.690900Y34.331600
G1X28.708700Y34.374500
G1X28.724000Y34.418000
G1X28.733100Y34.433300
G1X28.739900Y34.449800
G1X28.765600Y34.488200
G1X28.789200Y34.528200
G1X28.801100Y34.541400
G1X28.811000Y34.556300
G1X28.844200Y34.589400
G1X28.874700Y34.623500
G1X28.888700Y34.634000
G1X28.901500Y34.646800
G1X28.940400Y34.672700
G1X28.952300Y34.681700
G1X28.965100Y34.694500
G1X29.004000Y34.720400
G1X29.040700Y34.748000
G1X29.056900Y34.755700
G1X29.071600Y34.765600
G1X29.113800Y34.783100
G1X29.156100Y34.803400
G1X29.173700Y34.807900
G1X29.189800Y34.814600
G1X29.234400Y34.823400
G1X29.280100Y34.835200
G1X29.298300Y34.836200
G1X29.315400Y34.839600
G1X29.361600Y34.839600
G1X29.408000Y34.842100
G1X29.425500Y34.839600
G1X29.875000Y34.839600
G1X29.883000Y34.841000
G1X29.940800Y34.839600
G1X29.995500Y34.839600
G1X30.003000Y34.838100
G1X30.011100Y34.837900
G1X30.067300Y34.825300
G1X30.121100Y34.814600
G1X30.128100Y34.811700
G1X30.136100Y34.809900
G1X30.189900Y34.786000
G1X30.239300Y34.765600
G1X30.245400Y34.761400
G1X30.253100Y34.758100
G1X30.300200Y34.724900
G1X30.345800Y34.694500
G1X30.351400Y34.688900
G1X30.357800Y34.684400
G1X30.395900Y34.644400
G1X30.436300Y34.604000
G1X30.440800Y34.597200
G1X30.446100Y34.591700
G1X30.476600Y34.543600
G1X30.507400Y34.497500
G1X30.510200Y34.490500
G1X30.514700Y34.483600
G1X30.535500Y34.429600
G1X30.556400Y34.379300
G1X30.557900Y34.371600
G1X30.560800Y34.364200
G1X30.570700Y34.307500
G1X30.581400Y34.253700
G1X30.581400Y34.246100
G1X30.582800Y34.238100
G1X30.581400Y34.180300
G1X30.581400Y34.125600
G1X30.579900Y34.118100
G1X30.579700Y34.110000
G1X30.567100Y34.053800
G1X30.556400Y34.000000
G1X30.553500Y33.993000
G1X30.551700Y33.985000
G1X30.527800Y33.931200
G1X30.507400Y33.881800
G1X30.503200Y33.875700
G1X30.499900Y33.868000

G0Z0.500
G0X27.449900Y19.606600
G1Z-0.100 f25
G1X27.465600Y18.553900 f200
G1X28.669700Y18.557500
G1X28.557900Y18.669200
G1X28.557900Y19.707900
G1X29.292500Y20.442500
G1X30.331200Y20.442500
G1X30.509800Y20.263800
G1X31.350000Y20.767900
G1X31.350000Y22.432000
G1X30.349000Y23.032500
G1X30.331200Y23.014600
G1X29.292500Y23.014600
G1X28.557900Y23.749200
G1X28.557900Y24.787900
G1X29.292500Y25.522500
G1X30.331200Y25.522500
G1X30.434800Y25.418800
G1X31.350000Y25.967900
G1X31.350000Y27.632000
G1X30.424100Y28.187500
G1X30.331200Y28.094600
G1X29.292500Y28.094600
G1X28.557900Y28.829200
G1X28.557900Y29.394300
G1X27.729000Y29.808800
G1X27.692100Y29.824000
G1X27.673400Y29.836600
G1X27.652000Y29.847200
G1X27.619200Y29.872700
G1X27.585600Y29.895100
G1X27.569300Y29.911500
G1X27.550900Y29.925700
G1X27.524100Y29.956700
G1X27.495100Y29.985600
G1X27.482400Y30.004800
G1X27.467000Y30.022400
G1X27.449900Y30.052600
G1X27.449900Y19.606600

G0Z0.500
G0X28.871500Y23.412900
G1Z-0.100 f25
G1X28.884400Y23.393500 f200
G1X28.942600Y23.306600
G1X28.991600Y23.188300
G1X29.016600Y23.062700
G1X29.016600Y22.934600
G1X29.016600Y22.934500
G1X29.011100Y22.907000
G1X28.991700Y22.809100
G1X28.942700Y22.690800
G1X28.871600Y22.584300
G1X28.620700Y22.333400
G1X28.620700Y22.333300
G1X28.535600Y22.248300
G1X28.530300Y22.242900
G1X28.530200Y22.242800
G1X28.509900Y22.229300
G1X28.423900Y22.171700
G1X28.305600Y22.122700
G1X28.180000Y22.097700
G1X28.051900Y22.097700
G1X28.051800Y22.097700
G1X28.022500Y22.103600
G1X27.926400Y22.122600
G1X27.808100Y22.171600
G1X27.701600Y22.242700
G1X27.611100Y22.333200
G1X27.611000Y22.333300
G1X27.597500Y22.353600
G1X27.539900Y22.439600
G1X27.490900Y22.557900
G1X27.465900Y22.683500
G1X27.465900Y22.811600
G1X27.465900Y23.313400
G1X27.490900Y23.439000
G1X27.539900Y23.557200
G1X27.611000Y23.663700
G1X27.701500Y23.754200
G1X27.808000Y23.825300
G1X27.926200Y23.874300
G1X28.051800Y23.899300
G1X28.179900Y23.899300
G1X28.305500Y23.874300
G1X28.423700Y23.825300
G1X28.530200Y23.754200
G1X28.620700Y23.663700
G1X28.780900Y23.503500
G1X28.871400Y23.413000
G1X28.871500Y23.412900

G0Z0.500
G0X28.871600Y28.492700
G1Z-0.100 f25
G1X28.942700Y28.386200 f200
G1X28.991700Y28.267900
G1X29.009700Y28.177100
G1X29.016600Y28.142500
G1X29.016600Y28.014400
G1X29.016600Y28.014300
G1X28.991600Y27.888700
G1X28.942600Y27.770400
G1X28.886700Y27.686900
G1X28.871500Y27.664100
G1X28.530200Y27.322800
G1X28.423700Y27.251700
G1X28.305500Y27.202700
G1X28.179900Y27.177700
G1X28.051800Y27.177700
G1X27.926200Y27.202700
G1X27.808000Y27.251700
G1X27.701500Y27.322800
G1X27.611000Y27.413300
G1X27.539900Y27.519800
G1X27.490900Y27.638000
G1X27.465900Y27.763600
G1X27.465900Y27.891700
G1X27.465900Y28.393400
G1X27.465900Y28.393500
G1X27.490900Y28.519100
G1X27.539900Y28.637400
G1X27.596400Y28.721700
G1X27.611000Y28.743700
G1X27.701500Y28.834200
G1X27.701600Y28.834300
G1X27.808100Y28.905400
G1X27.926400Y28.954400
G1X28.019000Y28.972700
G1X28.051800Y28.979300
G1X28.179900Y28.979300
G1X28.180000Y28.979300
G1X28.305600Y28.954300
G1X28.423900Y28.905300
G1X28.508200Y28.848800
G1X28.530200Y28.834200
G1X28.620700Y28.743700
G1X28.620700Y28.743600
G1X28.860900Y28.503300
G1X28.871500Y28.492800
G1X28.871600Y28.492700

G0Z0.500
G0X29.292500Y22.982500
G1Z-0.100 f25
G1X30.331200Y22.982500 f200
G1X31.065800Y22.247900
G1X31.065800Y21.209200
G1X30.331200Y20.474600
G1X29.292500Y20.474600
G1X28.557900Y21.209200
G1X28.557900Y22.247900
G1X29.292500Y22.982500

G0Z0.500
G0X29.292500Y28.062500
G1Z-0.100 f25
G1X30.331200Y28.062500 f200
G1X31.065800Y27.327900
G1X31.065800Y26.289200
G1X30.331200Y25.554600
G1X29.292500Y25.554600
G1X28.557900Y26.289200
G1X28.557900Y27.327900
G1X29.292500Y28.062500

G0Z0.500
G0X28.871600Y25.952700
G1Z-0.100 f25
G1X28.942700Y25.846200 f200
G1X28.991700Y25.727900
G1X29.009700Y25.637100
G1X29.016600Y25.602500
G1X29.016600Y25.474400
G1X29.016600Y25.474300
G1X28.991600Y25.348700
G1X28.942600Y25.230400
G1X28.886700Y25.146900
G1X28.871500Y25.124100
G1X28.530200Y24.782800
G1X28.423700Y24.711700
G1X28.305500Y24.662700
G1X28.179900Y24.637700
G1X28.051800Y24.637700
G1X27.926200Y24.662700
G1X27.808000Y24.711700
G1X27.701500Y24.782800
G1X27.611000Y24.873300
G1X27.539900Y24.979800
G1X27.490900Y25.098000
G1X27.465900Y25.223600
G1X27.465900Y25.351700
G1X27.465900Y25.853400
G1X27.465900Y25.853500
G1X27.490900Y25.979100
G1X27.539900Y26.097400
G1X27.596400Y26.181700
G1X27.611000Y26.203700
G1X27.701500Y26.294200
G1X27.701600Y26.294300
G1X27.808100Y26.365400
G1X27.926400Y26.414400
G1X28.019000Y26.432700
G1X28.051800Y26.439300
G1X28.179900Y26.439300
G1X28.180000Y26.439300
G1X28.305600Y26.414300
G1X28.423900Y26.365300
G1X28.508200Y26.308800
G1X28.530200Y26.294200
G1X28.620700Y26.203700
G1X28.620700Y26.203600
G1X28.860900Y25.963300
G1X28.871500Y25.952800
G1X28.871600Y25.952700

G0Z0.500
G0X28.871600Y20.872700
G1Z-0.100 f25
G1X28.942700Y20.766200 f200
G1X28.991700Y20.647900
G1X29.009700Y20.557100
G1X29.016600Y20.522500
G1X29.016600Y20.394400
G1X29.016600Y20.394300
G1X28.991600Y20.268700
G1X28.942600Y20.150400
G1X28.886700Y20.066900
G1X28.871500Y20.044100
G1X28.530200Y19.702800
G1X28.423700Y19.631700
G1X28.305500Y19.582700
G1X28.179900Y19.557700
G1X28.051800Y19.557700
G1X27.926200Y19.582700
G1X27.808000Y19.631700
G1X27.701500Y19.702800
G1X27.611000Y19.793300
G1X27.539900Y19.899800
G1X27.490900Y20.018000
G1X27.465900Y20.143600
G1X27.465900Y20.271700
G1X27.465900Y20.773400
G1X27.465900Y20.773500
G1X27.490900Y20.899100
G1X27.539900Y21.017400
G1X27.596400Y21.101700
G1X27.611000Y21.123700
G1X27.701500Y21.214200
G1X27.701600Y21.214300
G1X27.808100Y21.285400
G1X27.926400Y21.334400
G1X28.019000Y21.352700
G1X28.051800Y21.359300
G1X28.179900Y21.359300
G1X28.180000Y21.359300
G1X28.305600Y21.334300
G1X28.423900Y21.285300
G1X28.508200Y21.228800
G1X28.530200Y21.214200
G1X28.620700Y21.123700
G1X28.620700Y21.123600
G1X28.860900Y20.883400
G1X28.871500Y20.872800
G1X28.871600Y20.872700

G0Z0.500
G0X29.292500Y30.602500
G1Z-0.100 f25
G1X30.331200Y30.602500 f200
G1X31.065800Y29.867900
G1X31.065800Y29.318400
G1X32.293700Y28.581700
G1X32.307800Y28.575900
G1X32.346200Y28.550200
G1X32.389300Y28.524400
G1X32.401400Y28.513400
G1X32.414300Y28.504800
G1X32.448100Y28.470900
G1X32.484100Y28.438300
G1X32.493500Y28.425500
G1X32.504800Y28.414300
G1X32.531100Y28.374800
G1X32.560300Y28.335500
G1X32.567300Y28.320600
G1X32.575900Y28.307800
G1X32.593900Y28.264300
G1X32.615000Y28.219700
G1X32.618900Y28.204000
G1X32.624900Y28.189600
G1X32.634200Y28.142400
G1X32.646000Y28.095500
G1X32.646700Y28.079700
G1X32.649900Y28.064000
G1X32.649900Y28.015100
G1X32.652200Y27.967600
G1X32.649900Y27.952100
G1X32.649900Y25.647700
G1X32.652200Y25.632300
G1X32.649900Y25.584900
G1X32.649900Y25.535900
G1X32.646700Y25.520200
G1X32.646000Y25.504400
G1X32.634300Y25.457600
G1X32.624900Y25.410300
G1X32.618800Y25.395900
G1X32.615000Y25.380200
G1X32.593900Y25.335700
G1X32.575900Y25.292100
G1X32.567200Y25.279300
G1X32.560300Y25.264400
G1X32.531100Y25.225200
G1X32.504800Y25.185600
G1X32.493500Y25.174400
G1X32.484100Y25.161600
G1X32.448100Y25.129000
G1X32.414300Y25.095100
G1X32.401300Y25.086500
G1X32.389300Y25.075500
G1X32.346300Y25.049800
G1X32.307800Y25.024000
G1X32.293700Y25.018200
G1X31.065800Y24.281500
G1X31.065800Y24.118400
G1X32.293700Y23.381700
G1X32.307800Y23.375900
G1X32.346300Y23.350200
G1X32.389300Y23.324400
G1X32.401300Y23.313400
G1X32.414300Y23.304800
G1X32.448100Y23.270900
G1X32.484100Y23.238300
G1X32.493500Y23.225500
G1X32.504800Y23.214300
G1X32.531200Y23.174700
G1X32.560300Y23.135500
G1X32.567300Y23.120600
G1X32.575900Y23.107800
G1X32.593900Y23.064200
G1X32.615000Y23.019700
G1X32.618900Y23.004000
G1X32.624900Y22.989600
G1X32.634300Y22.942300
G1X32.646000Y22.895500
G1X32.646700Y22.879700
G1X32.649900Y22.864000
G1X32.649900Y22.815000
G1X32.652200Y22.767600
G1X32.649900Y22.752200
G1X32.649900Y20.447800
G1X32.652200Y20.432300
G1X32.649900Y20.384800
G1X32.649900Y20.335900
G1X32.646700Y20.320200
G1X32.646000Y20.304400
G1X32.634300Y20.257500
G1X32.624900Y20.210300
G1X32.618900Y20.195900
G1X32.615000Y20.180200
G1X32.593900Y20.135600
G1X32.575900Y20.092100
G1X32.567300Y20.079300
G1X32.560300Y20.064400
G1X32.531100Y20.025100
G1X32.504800Y19.985600
G1X32.493500Y19.974400
G1X32.484100Y19.961600
G1X32.448100Y19.929000
G1X32.414300Y19.895100
G1X32.401400Y19.886500
G1X32.389300Y19.875500
G1X32.346200Y19.849700
G1X32.307800Y19.824000
G1X32.293700Y19.818200
G1X31.065800Y19.081500
G1X31.065800Y18.669200
G1X30.960800Y18.564300
G1X32.796100Y18.569800
G1X32.865700Y34.943800
G1X31.065800Y32.385400
G1X31.065800Y31.369200
G1X30.331200Y30.634600
G1X29.292500Y30.634600
G1X28.649900Y31.277300
G1X28.649900Y30.801600
G1X29.211100Y30.521000
G1X29.292500Y30.602500

G0Z0.500
G0X31.081800Y32.238600
G1Z-0.100 f25
G1X31.083300Y32.246100 f200
G1X31.083500Y32.254200
G1X31.096100Y32.310300
G1X31.106800Y32.364200
G1X31.109800Y32.371300
G1X31.111500Y32.379100
G1X31.135100Y32.432400
G1X31.155800Y32.482400
G1X31.160000Y32.488500
G1X31.163300Y32.496200
G1X31.197100Y32.544100
G1X31.226900Y32.588900
G1X31.232400Y32.594300
G1X31.654900Y33.194900
G1X31.687500Y33.243400
G1X31.692300Y33.248100
G1X31.695900Y33.253300
G1X31.737800Y33.293200
G1X31.778500Y33.333600
G1X31.783800Y33.337000
G1X31.788500Y33.341600
G1X31.838000Y33.372900
G1X31.885200Y33.404200
G1X31.891100Y33.406600
G1X31.896600Y33.410100
G1X31.951100Y33.431100
G1X32.003700Y33.452700
G1X32.010000Y33.453900
G1X32.016100Y33.456300
G1X32.071400Y33.465900
G1X32.129300Y33.477200
G1X32.136300Y33.477100
G1X32.142200Y33.478200
G1X32.198900Y33.476800
G1X32.257500Y33.476600
G1X32.263600Y33.475300
G1X32.270300Y33.475200
G1X32.328100Y33.462200
G1X32.382900Y33.451100
G1X32.388700Y33.448600
G1X32.395200Y33.447200
G1X32.449300Y33.423200
G1X32.501000Y33.401600
G1X32.506100Y33.398100
G1X32.512300Y33.395400
G1X32.559400Y33.362200
G1X32.607100Y33.330100
G1X32.611700Y33.325300
G1X32.617000Y33.321700
G1X32.656900Y33.279800
G1X32.697300Y33.239100
G1X32.700700Y33.233800
G1X32.705300Y33.229100
G1X32.736600Y33.179600
G1X32.767900Y33.132400
G1X32.770300Y33.126500
