(This GCode generated with outlines_gcode_excel_mirrored.ulp program)
(running under Eagle CAD.)
(Use with mechanical etching/engraving bits, such as the)
(Think&Tinker Mechanical Etching Bit with 60-degree tip angle)
(X/Y/Z home should be at lower left corner of the board, with the tip just touching)
(C:/Users/Owner/Documents/eagle/nixie_display/untitledpattern_bot_0p3mm.nc layer 16)

(mm, Absolute mode, lift cutter above work, rapid to X/Y home, turn spindle on.)
G90
G0Z0.500
G0X0Y0
M03

(Begin)
G0Z0.500
G0X29.164900Y9.318600
G1Z-0.100 f25
G1X30.128600Y8.354900 f200
G1X31.491200Y8.354900
G1X32.454900Y9.318600
G1X32.454900Y10.681200
G1X31.491200Y11.644900
G1X30.128600Y11.644900
G1X29.164900Y10.681200
G1X29.164900Y9.318600

G0Z0.500
G0X30.445900Y10.878900
G1Z-0.100 f25
G1X31.174000Y10.878900 f200
G1X31.688900Y10.364000
G1X31.688900Y9.635900
G1X31.174000Y9.121000
G1X30.445900Y9.121000
G1X29.931000Y9.635900
G1X29.931000Y10.364000
G1X30.445900Y10.878900

G0Z0.500
G0X42.434100Y20.533600
G1Z-0.100 f25
G1X42.854000Y20.953500 f200
G1X42.916700Y20.989700
G1X42.986600Y21.008400
G1X43.059100Y21.008400
G1X43.129000Y20.989700
G1X43.191700Y20.953500
G1X43.242900Y20.902300
G1X43.242900Y20.902200
G1X43.611500Y20.533600
G1X44.974100Y20.533600
G1X45.342700Y20.902200
G1X45.342700Y20.902300
G1X45.385700Y20.945300
G1X45.393900Y20.953500
G1X45.456600Y20.989700
G1X45.526500Y21.008400
G1X45.599000Y21.008400
G1X45.668900Y20.989700
G1X45.731600Y20.953500
G1X45.782800Y20.902300
G1X46.151500Y20.533600
G1X47.514100Y20.533600
G1X48.477800Y21.497300
G1X48.477800Y22.859900
G1X47.514100Y23.823600
G1X46.151500Y23.823600
G1X45.731600Y23.403700
G1X45.668900Y23.367500
G1X45.599000Y23.348800
G1X45.526500Y23.348800
G1X45.456600Y23.367500
G1X45.393900Y23.403700
G1X45.342700Y23.454900
G1X45.342700Y23.455000
G1X44.974100Y23.823600
G1X43.611500Y23.823600
G1X43.242900Y23.454900
G1X43.199900Y23.411900
G1X43.191700Y23.403700
G1X43.129000Y23.367500
G1X43.059100Y23.348800
G1X42.986600Y23.348800
G1X42.916700Y23.367500
G1X42.854000Y23.403700
G1X42.802800Y23.454900
G1X42.434100Y23.823600
G1X41.071500Y23.823600
G1X40.350400Y23.102600
G1X40.107800Y22.704700
G1X40.107800Y21.497300
G1X41.071500Y20.533600
G1X42.434100Y20.533600

G0Z0.500
G0X41.388800Y23.057600
G1Z-0.100 f25
G1X42.116900Y23.057600 f200
G1X42.631800Y22.542700
G1X42.631800Y21.814600
G1X42.116900Y21.299700
G1X41.388800Y21.299700
G1X40.873900Y21.814600
G1X40.873900Y22.542700
G1X41.388800Y23.057600

G0Z0.500
G0X46.468800Y23.057600
G1Z-0.100 f25
G1X47.196900Y23.057600 f200
G1X47.711800Y22.542700
G1X47.711800Y21.814600
G1X47.196900Y21.299700
G1X46.468800Y21.299700
G1X45.953900Y21.814600
G1X45.953900Y22.542700
G1X46.468800Y23.057600

G0Z0.500
G0X43.928800Y23.057600
G1Z-0.100 f25
G1X44.656900Y23.057600 f200
G1X45.171800Y22.542700
G1X45.171800Y21.814600
G1X44.656900Y21.299700
G1X43.928800Y21.299700
G1X43.413900Y21.814600
G1X43.413900Y22.542700
G1X43.928800Y23.057600

G0Z0.500
G0X40.084900Y50.048600
G1Z-0.100 f25
G1X40.125000Y50.008400 f200
G1X40.125000Y51.451400
G1X40.084900Y51.411200
G1X40.084900Y50.048600

G0Z0.500
G0X37.144900Y44.918600
G1Z-0.100 f25
G1X38.108600Y43.954900 f200
G1X39.471200Y43.954900
G1X40.125000Y44.608700
G1X40.125000Y46.591100
G1X39.471200Y47.244900
G1X38.108600Y47.244900
G1X37.144900Y46.281200
G1X37.144900Y44.918600

G0Z0.500
G0X38.425900Y46.478900
G1Z-0.100 f25
G1X39.154000Y46.478900 f200
G1X39.668900Y45.964000
G1X39.668900Y45.235900
G1X39.154000Y44.721000
G1X38.425900Y44.721000
G1X37.911000Y45.235900
G1X37.911000Y45.964000
G1X38.425900Y46.478900

G0Z0.500
G0X44.533300Y33.952500
G1Z-0.100 f25
G1X44.526400Y33.954000 f200
G1X44.519600Y33.954000
G1X44.491900Y33.961500
G1X43.951900Y34.077700
G1X43.943700Y34.077700
G1X43.915300Y34.085600
G1X43.888400Y34.091300
G1X43.881700Y34.094800
G1X43.873900Y34.096900
G1X43.848900Y34.111600
G1X43.824000Y34.124300
G1X43.818300Y34.129500
G1X43.811400Y34.133500
G1X43.791700Y34.153600
G1X43.770300Y34.172800
G1X43.765900Y34.179700
G1X43.760600Y34.185000
G1X43.747200Y34.208600
G1X43.731000Y34.233600
G1X43.728500Y34.241500
G1X43.724800Y34.247900
G1X43.718000Y34.274200
G1X43.708800Y34.302500
G1X43.708400Y34.310700
G1X43.706500Y34.317900
G1X43.706700Y34.345400
G1X43.705200Y34.374900
G1X43.706900Y34.382700
G1X43.709100Y34.729500
G1X43.707400Y34.756200
G1X43.709300Y34.765200
G1X43.709300Y34.774500
G1X43.716500Y34.800600
G1X43.721900Y34.827100
G1X43.726100Y34.835400
G1X43.728500Y34.844300
G1X43.742200Y34.867600
G1X43.754300Y34.891900
G1X43.760400Y34.898700
G1X43.765100Y34.906800
G1X43.784500Y34.925900
G1X43.802300Y34.946000
G1X43.810000Y34.951000
G1X43.816600Y34.957600
G1X43.840200Y34.971000
G1X43.862700Y34.985900
G1X43.871500Y34.988800
G1X43.879500Y34.993400
G1X43.906000Y35.000300
G1X43.931400Y35.008800
G1X43.940600Y35.009300
G1X43.949500Y35.011700
G1X43.976600Y35.011500
G1X44.003700Y35.013200
G1X44.012700Y35.011300
G1X44.022000Y35.011300
G1X44.048100Y35.004100
G1X44.074600Y34.998700
G1X44.082900Y34.994500
G1X44.091800Y34.992100
G1X44.115100Y34.978400
G1X44.487900Y34.792000
G1X44.496100Y34.789900
G1X44.520600Y34.775700
G1X44.545300Y34.763400
G1X44.551400Y34.757900
G1X44.558800Y34.753700
G1X44.578900Y34.733500
G1X44.599400Y34.715400
G1X44.603800Y34.708600
G1X44.610000Y34.702500
G1X44.624400Y34.677500
G1X44.639300Y34.655000
G1X44.641800Y34.647300
G1X44.646200Y34.639800
G1X44.653600Y34.611900
G1X44.662200Y34.586300
G1X44.662700Y34.578100
G1X44.664900Y34.569900
G1X44.664900Y34.542000
G1X44.666600Y34.514000
G1X44.665300Y34.508100
G1X44.745100Y34.428400
G1X44.767100Y34.408600
G1X44.770900Y34.402600
G1X44.775700Y34.397900
G1X44.789700Y34.373400
G1X44.806400Y34.347800
G1X44.808600Y34.340800
G1X44.811900Y34.335200
G1X44.819100Y34.308100
G1X44.828600Y34.278900
G1X44.828900Y34.271700
G1X44.830700Y34.265300
G1X44.830700Y34.236700
G1X44.832200Y34.206500
G1X44.830700Y34.199600
G1X44.830700Y34.192800
G1X44.823000Y34.164400
G1X44.816900Y34.135700
G1X44.813800Y34.129700
G1X44.812000Y34.122900
G1X44.797200Y34.097400
G1X44.783900Y34.071300
G1X44.779200Y34.066200
G1X44.775800Y34.060200
G1X44.755500Y34.039900
G1X44.735400Y34.017600
G1X44.729400Y34.013800
G1X44.724700Y34.009000
G1X44.700200Y33.995000
G1X44.674600Y33.978300
G1X44.667600Y33.976100
G1X44.662000Y33.972800
G1X44.634900Y33.965600
G1X44.605700Y33.956100
G1X44.598500Y33.955800
G1X44.592100Y33.954000
G1X44.563500Y33.954000
G1X44.533300Y33.952500

G0Z0.500
G0X36.734900Y74.974200
G1Z-0.100 f25
G1X36.734900Y74.997300 f200
G1X36.732700Y75.020700
G1X36.734600Y75.031900
G1X36.734900Y75.066600
G1X36.734900Y75.100400
G1X36.735200Y75.101400
G1X36.735200Y75.102500
G1X36.744900Y75.137600
G1X36.753600Y75.170300
G1X36.754100Y75.171100
G1X36.754400Y75.172300
G1X36.774000Y75.205500
G1X36.789800Y75.233000
G1X36.790500Y75.233700
G1X36.791100Y75.234700
G1X36.817200Y75.260400
G1X36.841000Y75.284200
G1X36.841900Y75.284700
G1X36.842700Y75.285500
G1X36.875700Y75.304200
G1X36.903700Y75.320400
G1X36.904700Y75.320600
G1X36.905600Y75.321200
G1X36.943000Y75.330900
G1X36.973600Y75.339100
G1X36.974600Y75.339100
G1X36.975700Y75.339400
G1X37.015000Y75.339100
G1X37.046100Y75.339100
G1X37.047000Y75.338800
G1X37.377300Y75.336300
G1X37.413900Y75.336300
G1X37.414900Y75.336000
G1X37.416000Y75.336000
G1X37.450800Y75.326400
G1X37.483800Y75.317600
G1X37.484600Y75.317100
G1X37.485800Y75.316800
G1X37.518800Y75.297400
G1X37.546500Y75.281400
G1X37.547200Y75.280700
G1X37.548200Y75.280100
G1X37.573700Y75.254200
G1X37.597700Y75.230200
G1X37.598200Y75.229300
G1X37.599000Y75.228500
G1X37.617500Y75.195800
G1X37.633900Y75.167500
G1X37.634100Y75.166500
G1X37.634700Y75.165600
G1X37.644300Y75.128500
G1X37.652600Y75.097600
G1X37.652600Y75.096600
G1X37.652900Y75.095500
G1X37.652600Y75.059100
G1X37.652600Y74.719300
G1X37.654800Y74.695900
G1X37.652600Y74.683000
G1X37.652600Y74.669900
G1X37.646500Y74.647300
G1X37.642700Y74.624600
G1X37.637300Y74.612900
G1X37.633900Y74.600000
G1X37.622200Y74.579800
G1X37.612600Y74.558700
G1X37.604200Y74.548600
G1X37.597700Y74.537300
G1X37.581000Y74.520600
G1X37.566400Y74.503000
G1X37.556000Y74.495700
G1X37.546500Y74.486100
G1X37.525600Y74.474100
G1X37.507400Y74.461100
G1X37.495500Y74.456700
G1X37.483800Y74.449900
G1X37.461100Y74.443900
G1X37.439600Y74.435800
G1X37.426400Y74.434600
G1X37.413900Y74.431200
G1X37.390800Y74.431200
G1X37.367400Y74.429000
G1X37.354500Y74.431200
G1X37.341400Y74.431200
G1X37.318800Y74.437300
G1X37.296100Y74.441100
G1X37.284400Y74.446500
G1X37.271500Y74.449900
G1X37.251300Y74.461600
G1X37.230200Y74.471200
G1X37.220100Y74.479600
G1X37.208800Y74.486100
G1X37.192500Y74.502400
G1X36.852700Y74.783700
G1X36.841000Y74.790400
G1X36.824100Y74.807300
G1X36.806700Y74.821700
G1X36.799400Y74.832100
G1X36.789800Y74.841600
G1X36.777800Y74.862500
G1X36.764800Y74.880700
G1X36.760400Y74.892600
G1X36.753600Y74.904300
G1X36.747600Y74.927000
G1X36.739500Y74.948500
G1X36.738300Y74.961700
G1X36.734900Y74.974200

G0Z0.500
G0X44.391600Y48.807900
G1Z-0.100 f25
G1X44.403200Y48.828600 f200
G1X44.412900Y48.850600
G1X44.420800Y48.860400
G1X44.450500Y48.913600
G1X44.451100Y48.916100
G1X44.470900Y48.950300
G1X44.484700Y48.975200
G1X44.486000Y48.976500
G1X44.487300Y48.978800
G1X44.514400Y49.005800
G1X44.535000Y49.027200
G1X44.536800Y49.028200
G1X44.538500Y49.030000
G1X44.571100Y49.048800
G1X44.597100Y49.064400
G1X44.599100Y49.064900
G1X44.601200Y49.066200
G1X44.635500Y49.075300
G1X44.666700Y49.084300
G1X44.669000Y49.084300
G1X44.671100Y49.084900
G1X44.706400Y49.084900
G1X44.739200Y49.085400
G1X44.741100Y49.084900
G1X44.905200Y49.084900
G1X44.927000Y49.087200
G1X44.941500Y49.084900
G1X44.956200Y49.084900
G1X44.977300Y49.079200
G1X44.998500Y49.075900
G1X45.011600Y49.070100
G1X45.026100Y49.066200
G1X45.045300Y49.055100
G1X45.064700Y49.046500
G1X45.075900Y49.037400
G1X45.088800Y49.030000
G1X45.104300Y49.014400
G1X45.121000Y49.001000
G1X45.129500Y48.989200
G1X45.140000Y48.978800
G1X45.150800Y48.960000
G1X45.163600Y48.942500
G1X45.168900Y48.928700
G1X45.176200Y48.916100
G1X45.181700Y48.895400
G1X45.189600Y48.875000
G1X45.191100Y48.860100
G1X45.194900Y48.846200
G1X45.194900Y48.824700
G1X45.197200Y48.802900
G1X45.194900Y48.788400
G1X45.194900Y48.773700
G1X45.189200Y48.752600
G1X45.185900Y48.731400
G1X45.180100Y48.718300
G1X45.176200Y48.703800
G1X45.165100Y48.684600
G1X45.156500Y48.665200
G1X45.147400Y48.654000
G1X45.140000Y48.641100
G1X45.124400Y48.625600
G1X45.111000Y48.608900
G1X45.099200Y48.600400
G1X45.088800Y48.589900
G1X45.070000Y48.579100
G1X45.052500Y48.566300
G1X45.038700Y48.561000
G1X45.026100Y48.553700
G1X45.005300Y48.548200
G1X44.769900Y48.457600
G1X44.759700Y48.451400
G1X44.737500Y48.445100
G1X44.714500Y48.436200
G1X44.701800Y48.434900
G1X44.690100Y48.431500
G1X44.666600Y48.431200
G1X44.642400Y48.428600
G1X44.629900Y48.430600
G1X44.617600Y48.430400
G1X44.594800Y48.436200
G1X44.570900Y48.439900
G1X44.559500Y48.445000
G1X44.547400Y48.448000
G1X44.526700Y48.459600
G1X44.504700Y48.469300
G1X44.494900Y48.477300
G1X44.484200Y48.483200
G1X44.467500Y48.499400
G1X44.448400Y48.514800
G1X44.441000Y48.525100
G1X44.432200Y48.533500
G1X44.420300Y48.553500
G1X44.405800Y48.573300
G1X44.401200Y48.585300
G1X44.395000Y48.595600
G1X44.388700Y48.617900
G1X44.379800Y48.640800
G1X44.378500Y48.653500
G1X44.375100Y48.665200
G1X44.374800Y48.688700
G1X44.372200Y48.712900
G1X44.374200Y48.725400
G1X44.374000Y48.737700
G1X44.379800Y48.760500
G1X44.383500Y48.784400
G1X44.388600Y48.795800
G1X44.391600Y48.807900

G0Z0.500
G0X45.758900Y31.373300
G1Z-0.100 f25
G1X45.758900Y31.358300 f200
G1X45.759000Y31.358000
G1X45.758900Y31.342600
G1X45.760300Y31.314000
G1X45.758900Y31.307600
G1X45.758900Y31.286300
G1X45.758800Y31.286000
G1X45.758800Y31.285600
G1X45.750300Y31.254300
G1X45.740200Y31.216400
G1X45.740000Y31.216100
G1X45.739900Y31.215700
G1X45.724800Y31.189800
G1X45.704000Y31.153700
G1X45.703600Y31.153400
G1X45.703500Y31.153100
G1X45.685800Y31.135600
G1X45.652800Y31.102500
G1X45.652300Y31.102300
G1X45.652200Y31.102100
G1X45.629800Y31.089300
G1X45.590100Y31.066300
G1X45.589700Y31.066200
G1X45.589400Y31.066000
G1X45.553900Y31.056600
G1X45.520200Y31.047600
G1X45.519700Y31.047600
G1X45.519400Y31.047500
G1X45.482400Y31.047600
G1X45.447700Y31.047600
G1X45.447400Y31.047700
G1X45.447000Y31.047700
G1X45.415700Y31.056200
G1X45.377800Y31.066300
G1X45.377500Y31.066500
G1X45.377100Y31.066600
G1X45.351200Y31.081700
G1X45.315100Y31.102500
G1X45.314800Y31.102900
G1X45.314500Y31.103000
G1X45.296600Y31.121000
G1X45.274600Y31.143000
G1X45.253800Y31.161900
G1X45.249900Y31.168000
G1X45.245100Y31.172800
G1X45.230600Y31.198200
G1X45.214700Y31.222800
G1X45.212600Y31.229400
G1X45.209000Y31.235600
G1X45.201600Y31.263900
G1X45.192600Y31.291700
G1X45.192300Y31.299000
G1X45.190500Y31.305600
G1X45.190600Y31.334700
G1X45.189200Y31.364100
G1X45.190700Y31.370900
G1X45.190700Y31.378000
G1X45.198500Y31.406800
G1X45.204600Y31.434900
G1X45.207800Y31.440900
G1X45.209600Y31.447900
G1X45.224400Y31.473200
G1X45.237700Y31.499200
G1X45.242500Y31.504400
G1X45.246000Y31.510500
G1X45.266400Y31.530700
G1X45.286400Y31.552800
G1X45.292500Y31.556700
G1X45.297300Y31.561500
G1X45.322700Y31.576000
G1X45.347300Y31.591900
G1X45.353900Y31.594000
G1X45.360100Y31.597600
G1X45.388400Y31.605000
G1X45.416200Y31.614000
G1X45.423500Y31.614300
G1X45.430100Y31.616100
G1X45.459200Y31.616000
G1X45.488600Y31.617400
G1X45.495400Y31.615900
G1X45.502500Y31.615900
G1X45.516900Y31.612000
G1X45.520200Y31.612000
G1X45.549600Y31.604100
G1X45.577800Y31.598000
G1X45.583500Y31.595000
G1X45.590100Y31.593300
G1X45.616100Y31.578200
G1X45.642100Y31.564900
G1X45.647000Y31.560400
G1X45.652800Y31.557100
G1X45.673800Y31.536100
G1X45.695700Y31.516200
G1X45.699300Y31.510600
G1X45.704000Y31.505900
G1X45.719000Y31.479800
G1X45.734800Y31.455300
G1X45.736800Y31.449100
G1X45.740200Y31.443200
G1X45.747800Y31.414600
G1X45.756900Y31.386400
G1X45.757200Y31.379500
G1X45.758900Y31.373300

G0Z0.500
G0X50.320200Y67.814900
G1Z-0.100 f25
G1X50.390100Y67.796200 f200
G1X50.452800Y67.760000
G1X50.504000Y67.708800
G1X50.540200Y67.646100
G1X50.558900Y67.576200
G1X50.558900Y67.503700
G1X50.558900Y65.693600
G1X50.540200Y65.623700
G1X50.504000Y65.561000
G1X50.452800Y65.509800
G1X50.390100Y65.473600
G1X50.320200Y65.454900
G1X50.247700Y65.454900
G1X49.598700Y65.454900
G1X49.528800Y65.473600
G1X49.466100Y65.509800
G1X49.414900Y65.561000
G1X49.378700Y65.623700
G1X49.360000Y65.693600
G1X49.360000Y65.766100
G1X49.378700Y65.836000
G1X49.414900Y65.898700
G1X49.466100Y65.949900
G1X49.466400Y65.950000
G1X49.644900Y66.128600
G1X49.644900Y67.576200
G1X49.663600Y67.646100
G1X49.699800Y67.708800
G1X49.751000Y67.760000
G1X49.813700Y67.796200
G1X49.883600Y67.814900
G1X49.956100Y67.814900
G1X50.320200Y67.814900

G0Z0.500
G0X50.951100Y4.911100
G1Z-0.100 f25
G1X50.914900Y4.973800 f200
G1X50.896500Y5.042700
G1X50.896200Y5.043700
G1X50.896200Y5.116100
G1X50.896200Y5.116200
G1X50.914100Y5.183100
G1X50.914900Y5.186100
G1X50.951100Y5.248800
G1X50.951900Y5.249600
G1X51.002300Y5.300000
G1X51.065000Y5.336200
G1X51.133900Y5.354600
G1X51.134900Y5.354900
G1X51.207300Y5.354900
G1X51.221200Y5.354900
G1X51.463700Y5.597400
G1X51.463700Y5.597500
G1X51.508700Y5.642400
G1X51.514900Y5.648700
G1X51.577600Y5.684900
G1X51.647500Y5.703600
G1X51.720000Y5.703600
G1X51.789900Y5.684900
G1X51.852600Y5.648700
G1X51.903800Y5.597500
G1X51.940000Y5.534800
G1X51.958700Y5.464900
G1X51.958700Y5.392400
G1X51.958700Y4.858500
G1X51.940000Y4.788600
G1X51.903800Y4.725900
G1X51.852600Y4.674700
G1X51.789900Y4.638500
G1X51.720000Y4.619800
G1X51.647500Y4.619800
G1X51.577600Y4.638500
G1X51.514900Y4.674700
G1X51.514900Y4.674800
G1X51.422700Y4.728000
G1X51.065000Y4.823700
G1X51.002300Y4.859900
G1X51.001500Y4.860700
G1X50.951100Y4.911100

G0Z0.500
G0X48.166900Y60.834800
G1Z-0.100 f25
G1X48.131000Y60.834900 f200
G1X48.095200Y60.834900
G1X48.094900Y60.835000
G1X48.094400Y60.835000
G1X48.068100Y60.842200
G1X48.025300Y60.853600
G1X48.024700Y60.854000
G1X48.024500Y60.854000
G1X48.000500Y60.868000
G1X47.962600Y60.889800
G1X47.962400Y60.890100
G1X47.961900Y60.890300
G1X47.936600Y60.915800
G1X47.911400Y60.941000
G1X47.911200Y60.941500
G1X47.910900Y60.941700
G1X47.897700Y60.964800
G1X47.875200Y61.003700
G1X47.875100Y61.004300
G1X47.874900Y61.004500
G1X47.867100Y61.034200
G1X47.856500Y61.073600
G1X47.856500Y61.074100
G1X47.856400Y61.074400
G1X47.856500Y61.107200
G1X47.856500Y61.146100
G1X47.856700Y61.146500
G1X47.862100Y62.961900
G1X47.862100Y62.993900
G1X47.862200Y62.994200
G1X47.862200Y62.994700
G1X47.869500Y63.021500
G1X47.880800Y63.063800
G1X47.881200Y63.064300
G1X47.881200Y63.064600
G1X47.895800Y63.089600
G1X47.917000Y63.126500
G1X47.917300Y63.126700
G1X47.917500Y63.127200
G1X47.943400Y63.152900
G1X47.968200Y63.177700
G1X47.968700Y63.177900
G1X47.968900Y63.178200
G1X47.992600Y63.191700
G1X48.030900Y63.213900
G1X48.031500Y63.214000
G1X48.031700Y63.214200
G1X48.062200Y63.222200
G1X48.100800Y63.232600
G1X48.101300Y63.232600
G1X48.101600Y63.232700
G1X48.138200Y63.232600
G1X48.173300Y63.232600
G1X48.173600Y63.232500
G1X48.174100Y63.232500
G1X48.200900Y63.225200
G1X48.243200Y63.213900
G1X48.243700Y63.213500
G1X48.244000Y63.213500
G1X48.269000Y63.198900
G1X48.305900Y63.177700
G1X48.306100Y63.177400
G1X48.306600Y63.177200
G1X48.332600Y63.150900
G1X49.318600Y62.164900
G1X50.320200Y62.164900
G1X50.390100Y62.146200
G1X50.452800Y62.110000
G1X50.504000Y62.058800
G1X50.540200Y61.996100
G1X50.558900Y61.926200
G1X50.558900Y61.853700
G1X50.558900Y58.073600
G1X50.540200Y58.003700
G1X50.504000Y57.941000
G1X50.452800Y57.889800
G1X50.390100Y57.853600
G1X50.320200Y57.834900
G1X50.247700Y57.834900
G1X49.598700Y57.834900
G1X49.528800Y57.853600
G1X49.466100Y57.889800
G1X49.414900Y57.941000
G1X49.378700Y58.003700
G1X49.360000Y58.073600
G1X49.360000Y58.146100
G1X49.378700Y58.216000
G1X49.414900Y58.278700
G1X49.466100Y58.329900
G1X49.466400Y58.330000
G1X49.644900Y58.508500
G1X49.644900Y59.871200
G1X48.681200Y60.834900
G1X48.167200Y60.834900
G1X48.166900Y60.834800

G0Z0.500
G0X17.678400Y90.267700
G1Z-0.100 f25
G1X17.645600Y90.277000 f200
G1X17.616400Y90.284300
G1X17.613000Y90.286200
G1X16.380200Y90.634900
G1X16.363700Y90.637000
G1X16.345200Y90.644800
G1X16.326100Y90.650100
G1X16.312100Y90.658500
G1X16.296900Y90.664800
G1X16.281100Y90.677000
G1X16.263900Y90.687200
G1X16.252600Y90.698900
G1X16.239500Y90.708900
G1X16.227400Y90.724800
G1X16.213400Y90.739100
G1X16.205300Y90.753600
G1X16.195500Y90.766400
G1X16.188100Y90.784500
G1X16.178100Y90.802200
G1X16.174100Y90.818300
G1X16.168900Y90.830900
G1X16.155600Y90.861100
G1X16.155200Y90.863900
G1X16.154000Y90.866700
G1X16.149400Y90.901800
G1X16.144700Y90.932600
G1X16.145000Y90.935400
G1X16.144600Y90.938500
G1X16.149300Y90.973600
G1X16.152700Y91.004700
G1X16.153700Y91.007200
G1X16.154100Y91.010300
G1X16.166700Y91.040500
G1X16.179000Y91.072100
G1X16.180900Y91.074600
G1X16.181900Y91.077100
G1X16.200400Y91.101100
G1X16.221900Y91.130400
G1X16.224400Y91.132300
G1X16.226000Y91.134500
G1X16.250800Y91.153400
G1X16.278500Y91.175600
G1X16.281400Y91.176800
G1X16.283500Y91.178500
G1X16.314100Y91.191100
G1X16.344800Y91.204600
G1X16.347600Y91.205000
G1X16.350400Y91.206200
G1X16.386000Y91.210800
G1X17.271600Y91.345600
G1X17.282100Y91.349300
G1X17.308000Y91.351100
G1X17.332500Y91.354900
G1X17.343300Y91.353700
G1X17.354400Y91.354500
G1X17.379600Y91.349600
G1X17.404600Y91.346900
G1X17.414600Y91.342900
G1X17.425500Y91.340900
G1X17.448100Y91.329900
G1X17.472000Y91.320600
G1X17.481000Y91.313900
G1X17.490600Y91.309300
G1X17.509100Y91.293200
G1X17.530300Y91.277700
G1X17.537300Y91.268800
G1X18.146500Y90.742100
G1X18.155000Y90.737300
G1X18.173300Y90.718900
G1X18.193800Y90.701300
G1X18.199500Y90.692800
G1X18.206200Y90.686200
G1X18.219200Y90.663700
G1X18.234400Y90.641400
G1X18.237600Y90.632100
G1X18.242600Y90.623600
G1X18.249400Y90.598200
G1X18.258200Y90.573000
G1X18.258900Y90.562800
G1X18.261400Y90.553700
G1X18.261400Y90.527700
G1X18.263400Y90.500700
G1X18.262100Y90.494100
G1X18.261600Y90.463100
G1X18.261700Y90.430600
G1X18.261000Y90.428200
G1X18.261000Y90.425500
G1X18.251700Y90.393200
G1X18.243100Y90.360600
G1X18.241700Y90.358400
G1X18.241100Y90.355900
G1X18.223700Y90.327000
G1X18.207000Y90.297800
G1X18.205200Y90.296100
G1X18.203900Y90.293800
G1X18.179400Y90.270200
G1X18.155900Y90.246600
G1X18.153600Y90.245300
G1X18.151800Y90.243500
G1X18.122600Y90.227300
G1X18.093300Y90.210200
G1X18.090800Y90.209600
G1X18.088600Y90.208300
G1X18.053800Y90.199600
G1X18.023400Y90.191400
G1X18.021100Y90.191400
G1X18.018400Y90.190700
G1X17.982900Y90.191300
G1X17.951000Y90.191200
G1X17.948600Y90.191900
G1X17.945900Y90.191900
G1X17.913500Y90.201200
G1X17.900200Y90.202700
G1X17.884900Y90.208800
G1X17.881000Y90.209800
G1X17.878800Y90.211100
G1X17.857400Y90.217200
G1X17.845500Y90.224400
G1X17.738000Y90.266900
G1X17.716800Y90.267200
G1X17.686600Y90.266700
G1X17.682900Y90.267700
G1X17.678400Y90.267700

G0Z0.500
G0X13.311600Y96.158900
G1Z-0.100 f25
G1X13.329600Y96.158900 f200
G1X13.347700Y96.161300
G1X13.365900Y96.158900
G1X19.920200Y96.158900
G1X19.990100Y96.140200
G1X20.052800Y96.104000
G1X20.104000Y96.052800
G1X20.140200Y95.990100
G1X20.158900Y95.920200
G1X20.158900Y95.847700
G1X20.158900Y92.365600
G1X20.160800Y92.339200
G1X20.158900Y92.329300
G1X20.158900Y92.319200
G1X20.152100Y92.294000
G1X20.147200Y92.268100
G1X20.142800Y92.259100
G1X20.140200Y92.249300
G1X20.126800Y92.226200
G1X20.115600Y92.203000
G1X20.109100Y92.195600
G1X20.104000Y92.186600
G1X20.085300Y92.168000
G1X20.068300Y92.148200
G1X20.059900Y92.142600
G1X20.052800Y92.135400
G1X20.029900Y92.122300
G1X20.008400Y92.107600
G1X19.998900Y92.104400
G1X19.990100Y92.099200
G1X19.964800Y92.092500
G1X19.940000Y92.083800
G1X19.929700Y92.083100
G1X19.920200Y92.080500
G1X19.894100Y92.080500
G1X19.867700Y92.078600
G1X19.857800Y92.080500
G1X19.847700Y92.080500
G1X19.822500Y92.087300
G1X19.796600Y92.092200
G1X19.787600Y92.096600
G1X19.777800Y92.099200
G1X19.754700Y92.112600
G1X19.731500Y92.123800
G1X19.724100Y92.130300
G1X19.715100Y92.135400
G1X19.696100Y92.154500
G1X18.600100Y93.102200
G1X18.593600Y93.105800
G1X18.572900Y93.125800
G1X18.551000Y93.144600
G1X18.546900Y93.150700
G1X18.541400Y93.156000
G1X18.526200Y93.181400
G1X18.522800Y93.186300
G1X18.419100Y93.262600
G1X18.408900Y93.267500
G1X18.389300Y93.284500
G1X18.369400Y93.299100
G1X18.362700Y93.307600
G1X18.265200Y93.392000
G1X18.257900Y93.394800
G1X18.231200Y93.403600
G1X18.225000Y93.407700
G1X18.217500Y93.410600
G1X18.193900Y93.428100
G1X18.188900Y93.431400
G1X18.064100Y93.462100
G1X18.053400Y93.462700
G1X18.030000Y93.470500
G1X18.004700Y93.476700
G1X17.994900Y93.482100
G1X17.872200Y93.522900
G1X17.865000Y93.522700
G1X17.836300Y93.520600
G1X17.829200Y93.522000
G1X17.821600Y93.521800
G1X17.792900Y93.528900
G1X17.786900Y93.530100
G1X17.659700Y93.510700
G1X17.649100Y93.507000
G1X17.623100Y93.505100
G1X17.598700Y93.501400
G1X17.588000Y93.502600
G1X17.459000Y93.493300
G1X17.452600Y93.490500
G1X17.427100Y93.477600
G1X17.419800Y93.476100
G1X17.413000Y93.473100
G1X17.384600Y93.468800
G1X17.356300Y93.462900
G1X17.348700Y93.463300
G1X15.430800Y93.171400
G1X15.410400Y93.165900
G1X15.394900Y93.165900
G1X15.379800Y93.163600
G1X15.359000Y93.165900
G1X15.337900Y93.165900
G1X15.323000Y93.169900
G1X15.307700Y93.171600
G1X15.288300Y93.179200
G1X15.268000Y93.184600
G1X15.254700Y93.192300
G1X15.240300Y93.197900
G1X15.223300Y93.210400
G1X15.205300Y93.220800
G1X15.194500Y93.231600
G1X15.182000Y93.240800
G1X15.168900Y93.257200
G1X15.154100Y93.272000
G1X15.146300Y93.285500
G1X15.136800Y93.297400
G1X15.128600Y93.316300
G1X15.117900Y93.334700
G1X15.113900Y93.349900
G1X15.107800Y93.363700
G1X15.104700Y93.384100
G1X15.099200Y93.404600
G1X15.099200Y93.420200
G1X15.096900Y93.435200
G1X15.099200Y93.456000
G1X15.099200Y93.896200
G1X14.848800Y94.500600
G1X14.385900Y94.963500
G1X13.781500Y95.213900
G1X13.469700Y95.213900
G1X13.399800Y95.232600
G1X13.337100Y95.268800
G1X13.285900Y95.320000
G1X13.249700Y95.382700
G1X13.234700Y95.439000
G1X13.100900Y95.761800
G1X13.091600Y95.777800
G1X13.086900Y95.795600
G1X13.080000Y95.812100
G1X13.077700Y95.830100
G1X13.072900Y95.847700
G1X13.072900Y95.865700
G1X13.070500Y95.883800
G1X13.072900Y95.902000
G1X13.072900Y95.920200
G1X13.077700Y95.937900
G1X13.080000Y95.955700
G1X13.086900Y95.972200
G1X13.091600Y95.990100
G1X13.100700Y96.005800
G1X13.107600Y96.022600
G1X13.118800Y96.037000
G1X13.127800Y96.052800
G1X13.140800Y96.065700
G1X13.151700Y96.080000
G1X13.166000Y96.090900
G1X13.179000Y96.104000
G1X13.194900Y96.113100
G1X13.209100Y96.124100
G1X13.225800Y96.131000
G1X13.241700Y96.140200
G1X13.259500Y96.144900
G1X13.276000Y96.151800
G1X13.294000Y96.154100
G1X13.311600Y96.158900

G0Z0.500
G0X15.528900Y27.256800
G1Z-0.100 f25
G1X15.537500Y27.261700 f200
G1X15.538100Y27.262200
G1X15.556400Y27.278100
G1X15.567900Y27.283600
G1X15.577800Y27.290800
G1X15.599700Y27.299000
G1X15.621600Y27.309700
G1X15.634200Y27.312100
G1X15.645500Y27.316400
G1X15.668900Y27.318700
G1X15.692700Y27.323300
G1X15.705400Y27.322300
G1X15.717600Y27.323600
G1X15.740600Y27.319800
G1X15.765000Y27.318100
G1X15.776800Y27.313900
G1X15.789000Y27.312000
G1X15.810900Y27.302000
G1X15.833300Y27.294300
G1X15.843400Y27.287400
G1X15.855000Y27.282200
G1X15.873600Y27.266900
G1X15.893200Y27.253700
G1X15.901300Y27.244300
G1X16.435800Y26.807200
G1X16.448900Y26.799500
G1X16.463500Y26.784500
G1X16.480000Y26.771100
G1X16.488900Y26.758600
G1X16.499600Y26.747800
G1X16.509900Y26.729400
G1X16.522300Y26.712300
G1X16.527600Y26.698100
G1X16.535200Y26.684800
G1X16.540400Y26.664200
G1X16.547900Y26.644600
G1X16.549400Y26.629400
G1X16.553200Y26.614700
G1X16.553000Y26.593600
G1X16.555100Y26.572500
G1X16.552600Y26.557400
G1X16.539300Y25.189400
G1X16.539300Y25.151200
G1X16.538900Y25.149800
G1X16.538900Y25.148500
G1X16.530500Y25.118600
G1X16.520600Y25.081300
G1X16.519800Y25.080000
G1X16.519500Y25.078800
G1X16.504200Y25.053000
G1X16.484400Y25.018600
G1X16.483200Y25.017500
G1X16.482700Y25.016500
G1X16.461900Y24.996200
G1X16.433200Y24.967400
G1X16.431800Y24.966600
G1X16.431000Y24.965800
G1X16.404000Y24.950600
G1X16.370500Y24.931200
G1X16.369100Y24.930900
G1X16.368000Y24.930200
G1X16.337000Y24.922300
G1X16.300600Y24.912500
G1X16.299000Y24.912500
G1X16.297900Y24.912200
G1X16.266700Y24.912500
G1X16.228100Y24.912500
G1X16.226700Y24.912900
G1X16.225400Y24.912900
G1X16.195500Y24.921300
G1X16.158200Y24.931200
G1X16.156900Y24.932000
G1X16.155700Y24.932300
G1X16.129900Y24.947600
G1X16.095500Y24.967400
G1X16.094400Y24.968600
G1X16.093400Y24.969100
G1X16.072900Y24.990100
G1X15.662300Y25.400800
G1X15.057900Y25.651100
G1X14.509500Y25.651100
G1X14.491100Y25.648700
G1X14.473000Y25.651100
G1X14.455200Y25.651100
G1X14.437800Y25.655800
G1X14.419400Y25.658200
G1X14.402700Y25.665200
G1X14.385300Y25.669800
G1X14.369500Y25.679000
G1X14.352500Y25.686000
G1X14.338300Y25.697000
G1X14.322600Y25.706000
G1X14.309600Y25.719100
G1X14.295200Y25.730100
G1X14.284400Y25.744300
G1X14.271400Y25.757200
G1X14.262300Y25.773200
G1X14.251100Y25.787600
G1X14.244300Y25.804300
G1X14.235200Y25.819900
G1X14.230500Y25.837700
G1X14.223500Y25.854500
G1X14.221200Y25.872400
G1X14.216500Y25.889800
G1X14.216500Y25.908000
G1X14.214100Y25.926400
G1X14.216500Y25.944500
G1X14.216500Y25.962300
G1X14.221200Y25.979700
G1X14.223600Y25.998100
G1X14.230600Y26.014800
G1X14.235200Y26.032200
G1X14.244400Y26.048000
G1X14.251400Y26.065000
G1X14.262400Y26.079200
G1X14.271400Y26.094900
G1X14.284500Y26.107900
G1X14.295500Y26.122300
G1X14.309700Y26.133100
G1X14.322600Y26.146100
G1X14.338600Y26.155200
G1X14.353000Y26.166400
G1X14.369700Y26.173200
G1X14.385300Y26.182300
G1X14.388400Y26.183100
G1X14.847500Y26.642200
G1X14.915200Y26.805700
G1X14.915200Y26.805900
G1X14.942900Y26.872800
G1X14.987000Y26.930300
G1X14.987100Y26.930300
G1X14.987100Y26.930400
G1X15.001200Y26.941200
G1X15.044400Y26.974400
G1X15.131000Y27.010300
G1X15.139300Y27.015800
G1X15.164400Y27.024100
G1X15.188600Y27.034200
G1X15.198500Y27.035500
G1X15.325100Y27.077600
G1X15.327500Y27.079400
G1X15.347800Y27.097100
G1X15.355000Y27.100600
G1X15.362000Y27.106000
G1X15.388500Y27.116900
G1X15.389900Y27.117600
G1X15.485200Y27.213000
G1X15.490600Y27.221100
G1X15.510000Y27.237800
G1X15.512000Y27.239800
G1X15.519000Y27.248500
G1X15.524600Y27.252500
G1X15.528900Y27.256800

G0Z0.500
G0X16.586100Y76.641000
G1Z-0.100 f25
G1X16.601000Y76.642600 f200
G1X16.615800Y76.646600
G1X16.637200Y76.646600
G1X17.758400Y76.769500
G1X17.770900Y76.773100
G1X17.794700Y76.773500
G1X17.817700Y76.776000
G1X17.830300Y76.774000
G1X17.970000Y76.776300
G1X17.971600Y76.776800
G1X18.002300Y76.776800
G1X18.040000Y76.777500
G1X18.042000Y76.777000
G1X18.044000Y76.777000
G1X18.074500Y76.768800
G1X18.110200Y76.759900
G1X18.112200Y76.758700
G1X18.114000Y76.758300
G1X18.142300Y76.742000
G1X18.173500Y76.724700
G1X18.174900Y76.723300
G1X18.176700Y76.722300
G1X18.200800Y76.698300
G1X18.225500Y76.674400
G1X18.226500Y76.672600
G1X18.228000Y76.671200
G1X18.244700Y76.642200
G1X18.262700Y76.612300
G1X18.263300Y76.610200
G1X18.264300Y76.608500
G1X18.272400Y76.578300
G1X18.282600Y76.542700
G1X18.282600Y76.540300
G1X18.283100Y76.538600
G1X18.283100Y76.509500
G1X18.283800Y76.470200
G1X18.283200Y76.467900
G1X18.284400Y75.794300
G1X18.286400Y75.783400
G1X18.284400Y75.759200
G1X18.284500Y75.733600
G1X18.281500Y75.722400
G1X18.271300Y75.596000
G1X18.273700Y75.586800
G1X18.282500Y75.560000
G1X18.282800Y75.552700
G1X18.284800Y75.545600
G1X18.284800Y75.516200
G1X18.285200Y75.507900
G1X18.334100Y75.390700
G1X18.340400Y75.381000
G1X18.348000Y75.357300
G1X18.357600Y75.334400
G1X18.359100Y75.322900
G1X18.398300Y75.201600
G1X18.403300Y75.195100
G1X18.422500Y75.172600
G1X18.425500Y75.166200
G1X18.429800Y75.160700
G1X18.440800Y75.134000
G1X18.444600Y75.126000
G1X18.535200Y75.035800
G1X18.544400Y75.029500
G1X18.560200Y75.010800
G1X18.578300Y74.992900
G1X18.584000Y74.982900
G1X18.666300Y74.886300
G1X18.673400Y74.882200
G1X18.699500Y74.869000
G1X18.705000Y74.864000
G1X18.711300Y74.860400
G1X18.731900Y74.839700
G1X18.738300Y74.834000
G1X18.856000Y74.785500
G1X18.867500Y74.783000
G1X18.890100Y74.771400
G1X18.912600Y74.762200
G1X18.921500Y74.755300
G1X19.034900Y74.697300
G1X19.044300Y74.696000
G1X19.072600Y74.693800
G1X19.079000Y74.691500
G1X19.086100Y74.690600
G1X19.113500Y74.679300
G1X19.121000Y74.676600
G1X19.248900Y74.676900
G1X19.259900Y74.678900
G1X19.284300Y74.676900
G1X19.309800Y74.677000
G1X19.321000Y74.674000
G1X20.463600Y74.582400
G1X20.475500Y74.583600
G1X20.500100Y74.579500
G1X20.524200Y74.577600
G1X20.535000Y74.573700
G1X20.546900Y74.571800
G1X20.559200Y74.566200
G1X20.706500Y74.561400
G1X20.714200Y74.562800
G1X20.742100Y74.560300
G1X20.758400Y74.559800
G1X20.772200Y74.559800
G1X20.784200Y74.556600
G1X20.796400Y74.555500
G1X20.818400Y74.547400
G1X20.842100Y74.541100
G1X20.853100Y74.534700
G1X20.864400Y74.530600
G1X20.883500Y74.517200
G1X20.904800Y74.504900
G1X20.913600Y74.496000
G1X20.923700Y74.489000
G1X20.939000Y74.470700
G1X20.956000Y74.453700
G1X20.962200Y74.442900
G1X20.970100Y74.433500
G1X20.980200Y74.411800
G1X20.992200Y74.391000
G1X20.995300Y74.379100
G1X21.000600Y74.367900
G1X21.004700Y74.344200
G1X21.010900Y74.321100
G1X21.010900Y74.308600
G1X21.013000Y74.296500
G1X21.010900Y74.272800
G1X21.010900Y74.248600
G1X21.007700Y74.236600
G1X21.006600Y74.224400
G1X20.998500Y74.202400
G1X20.992200Y74.178700
G1X20.985800Y74.167700
G1X20.981700Y74.156400
G1X20.968300Y74.137300
G1X20.956000Y74.116000
G1X20.947100Y74.107200
G1X20.940100Y74.097100
G1X20.921700Y74.081800
G1X20.536200Y73.696300
G1X20.536200Y72.333700
G1X20.956100Y71.913800
G1X20.992300Y71.851100
G1X21.011000Y71.781200
G1X21.011000Y71.708700
G1X20.992300Y71.638800
G1X20.956100Y71.576100
G1X20.904900Y71.524900
G1X20.872700Y71.492800
G1X20.870300Y71.488800
G1X20.847600Y71.467700
G1X20.824900Y71.444900
G1X20.820600Y71.442500
G1X20.817400Y71.439400
G1X20.790100Y71.424900
G1X20.762200Y71.408700
G1X20.757700Y71.407500
G1X20.753600Y71.405300
G1X20.722100Y71.398000
G1X20.692300Y71.390000
G1X20.687800Y71.390000
G1X20.683100Y71.388900
G1X20.651200Y71.390000
G1X20.619800Y71.390000
G1X20.615200Y71.391300
G1X20.610600Y71.391400
G1X20.581100Y71.400400
G1X20.549900Y71.408700
G1X20.545800Y71.411100
G1X20.541400Y71.412400
G1X20.514900Y71.429000
G1X20.487200Y71.444900
G1X20.483900Y71.448300
G1X20.479900Y71.450700
G1X20.458300Y71.473900
G1X20.436000Y71.496100
G1X20.433700Y71.500200
G1X16.455400Y75.753900
G1X16.432000Y75.777200
G1X16.429600Y75.781500
G1X16.426500Y75.784700
G1X16.411900Y75.812100
G1X16.395800Y75.839900
G1X16.394600Y75.844400
G1X16.392400Y75.848500
G1X16.385100Y75.880100
G1X16.377100Y75.909800
G1X16.377100Y75.914300
G1X16.376000Y75.919000
G1X16.377100Y75.950900
G1X16.377100Y76.356700
G1X16.374800Y76.377700
G1X16.377100Y76.392600
G1X16.377100Y76.407900
G1X16.382600Y76.428400
G1X16.385800Y76.449300
G1X16.391900Y76.463100
G1X16.395800Y76.477800
G1X16.406400Y76.496100
G1X16.414900Y76.515500
G1X16.424500Y76.527300
G1X16.432000Y76.540500
G1X16.446900Y76.555300
G1X16.460200Y76.572000
G1X16.472600Y76.581000
G1X16.483200Y76.591700
G1X16.501500Y76.602200
G1X16.518600Y76.614800
G1X16.532700Y76.620200
G1X16.545900Y76.627900
G1X16.566700Y76.633400
G1X16.586100Y76.641000

G0Z0.500
G0X20.436300Y54.809800
G1Z-0.100 f25
G1X20.416500Y54.831200 f200
G1X20.393000Y54.854600
G1X20.391100Y54.858100
G1X20.374600Y54.874200
G1X20.371500Y54.879600
G1X20.367300Y54.884000
G1X20.353500Y54.910200
G1X20.337900Y54.936600
G1X20.336300Y54.942700
G1X20.333400Y54.948000
G1X20.326800Y54.977200
G1X20.318700Y55.006400
G1X20.318700Y55.012600
G1X20.317300Y55.018500
G1X20.318400Y55.048600
G1X20.308900Y56.309600
G1X20.307400Y56.338300
G1X20.308700Y56.344100
G1X20.308600Y56.350600
G1X20.316300Y56.380000
G1X20.322400Y56.409100
G1X20.325300Y56.414600
G1X20.326800Y56.420700
G1X20.341500Y56.446400
G1X20.355300Y56.473600
G1X20.359700Y56.478400
G1X20.362600Y56.483600
G1X20.382300Y56.503600
G1X20.403700Y56.527400
G1X20.409300Y56.531000
G1X20.413400Y56.535200
G1X20.438700Y56.550100
G1X20.464500Y56.566800
G1X20.470400Y56.568700
G1X20.475800Y56.571900
G1X20.505200Y56.579900
G1X20.533300Y56.589100
G1X20.539600Y56.589400
G1X20.545600Y56.591100
G1X20.576300Y56.591300
G1X20.605700Y56.592900
G1X20.611600Y56.591600
G1X20.618000Y56.591700
G1X20.647400Y56.584000
G1X20.676500Y56.577900
G1X20.682000Y56.575000
G1X20.688100Y56.573500
G1X20.713500Y56.559000
G1X21.677500Y56.067700
G1X21.684600Y56.065800
G1X21.709800Y56.051200
G1X21.735600Y56.038100
G1X21.741000Y56.033200
G1X21.747300Y56.029600
G1X21.767400Y56.009400
G1X21.789400Y55.989700
G1X21.793400Y55.983400
G1X21.798500Y55.978400
G1X21.813000Y55.953200
G1X21.828800Y55.928900
G1X21.831000Y55.922100
G1X21.834700Y55.915700
G1X21.842300Y55.887000
G1X21.851100Y55.860100
G1X21.851400Y55.853000
G1X21.853400Y55.845800
G1X21.853400Y55.816300
G1X21.854900Y55.787700
G1X21.853400Y55.780700
G1X21.853400Y55.773300
G1X21.845900Y55.745500
G1X21.839900Y55.716900
G1X21.836500Y55.710400
G1X21.834700Y55.703400
G1X21.820200Y55.678400
G1X21.807000Y55.652400
G1X21.802100Y55.647000
G1X21.798500Y55.640700
G1X21.778300Y55.620600
G1X21.758600Y55.598600
G1X21.752300Y55.594600
G1X21.747300Y55.589500
G1X21.722100Y55.575000
G1X21.697800Y55.559200
G1X21.691000Y55.557000
G1X21.684600Y55.553300
G1X21.655900Y55.545700
G1X21.629000Y55.536900
G1X21.621900Y55.536600
G1X21.614700Y55.534600
G1X21.585200Y55.534600
G1X21.556600Y55.533100
G1X21.549600Y55.534600
G1X21.513000Y55.534600
G1X20.829200Y54.850800
G1X20.826700Y54.846700
G1X20.805200Y54.826700
G1X20.781900Y54.803400
G1X20.777200Y54.800800
G1X20.773700Y54.797400
G1X20.747100Y54.783400
G1X20.719200Y54.767200
G1X20.714100Y54.765900
G1X20.709700Y54.763500
G1X20.680100Y54.756800
G1X20.649300Y54.748500
G1X20.644000Y54.748500
G1X20.639200Y54.747400
G1X20.608600Y54.748500
G1X20.576800Y54.748500
G1X20.571900Y54.749800
G1X20.566800Y54.750000
G1X20.537700Y54.759000
G1X20.506900Y54.767200
G1X20.502300Y54.769900
G1X20.497600Y54.771300
G1X20.472600Y54.787000
G1X20.444200Y54.803400
G1X20.440400Y54.807300
G1X20.436300Y54.809800

G0Z0.500
G0X15.376500Y61.104300
G1Z-0.100 f25
G1X15.376700Y61.104400 f200
G1X15.582300Y61.310000
G1X15.582400Y61.310300
G1X15.633600Y61.361500
G1X15.696300Y61.397700
G1X15.765200Y61.416100
G1X15.766200Y61.416400
G1X15.838600Y61.416400
G1X15.838700Y61.416400
G1X15.905600Y61.398500
G1X15.908600Y61.397700
G1X15.909900Y61.396900
G1X15.971300Y61.361500
G1X16.022500Y61.310300
G1X16.058700Y61.247600
G1X16.077100Y61.178700
G1X16.077400Y61.177700
G1X16.077400Y61.105300
G1X16.077400Y58.655600
G1X16.079800Y58.637500
G1X16.077400Y58.619300
G1X16.077400Y58.601200
G1X16.072700Y58.583600
G1X16.070300Y58.565600
G1X16.063400Y58.549100
G1X16.058700Y58.531300
G1X16.049500Y58.515400
G1X16.042600Y58.498700
G1X16.031600Y58.484500
G1X16.022500Y58.468600
G1X16.009400Y58.455600
G1X15.998500Y58.441300
G1X15.984300Y58.430500
G1X15.971300Y58.417400
G1X15.955100Y58.408100
G1X15.941100Y58.397300
G1X15.924800Y58.390600
G1X15.908600Y58.381200
G1X15.890500Y58.376400
G1X15.874200Y58.369600
G1X15.856400Y58.367300
G1X15.838700Y58.362500
G1X15.820600Y58.362500
G1X15.802500Y58.360100
G1X15.784300Y58.362500
G1X15.766200Y58.362500
G1X15.748600Y58.367200
G1X15.730600Y58.369600
G1X15.714100Y58.376500
G1X15.696300Y58.381200
G1X15.680300Y58.390500
G1X15.059200Y58.647800
G1X14.481900Y58.647800
G1X14.412000Y58.666500
G1X14.349300Y58.702700
G1X14.298100Y58.753900
G1X14.261900Y58.816600
G1X14.243200Y58.886500
G1X14.243200Y58.915500
G1X14.240800Y58.934100
G1X14.243200Y58.951800
G1X14.243200Y58.959000
G1X14.243200Y58.969500
G1X14.248100Y58.987500
G1X14.250500Y59.005800
G1X14.257200Y59.021800
G1X14.261900Y59.039400
G1X14.271400Y59.055900
G1X14.278400Y59.072600
G1X14.289000Y59.086300
G1X14.298100Y59.102100
G1X14.311500Y59.115400
G1X14.322600Y59.129900
G1X14.336600Y59.140500
G1X14.349300Y59.153300
G1X14.365500Y59.162600
G1X14.380100Y59.173800
G1X14.386200Y59.176300
G1X14.848800Y59.638900
G1X15.099200Y60.243300
G1X15.099200Y60.749300
G1X15.117900Y60.819200
G1X15.154100Y60.881900
G1X15.205300Y60.933100
G1X15.376500Y61.104300

G0Z0.500
G0X14.352400Y71.017200
G1Z-0.100 f25
G1X14.371400Y71.025000 f200
G1X14.388700Y71.034700
G1X14.401400Y71.037800
G1X14.883500Y71.520000
G1X14.894400Y71.534400
G1X14.909100Y71.545600
G1X14.922100Y71.558700
G1X14.938000Y71.567800
G1X14.951800Y71.578500
G1X14.968400Y71.585400
G1X14.984800Y71.594900
G1X15.002300Y71.599500
G1X15.018600Y71.606400
G1X15.037000Y71.608800
G1X15.054700Y71.613600
G1X15.072400Y71.613600
G1X15.090300Y71.616000
G1X15.108900Y71.613600
G1X15.127200Y71.613600
G1X15.144300Y71.609000
G1X15.162200Y71.606700
G1X15.179100Y71.599700
G1X15.197100Y71.594900
G1X15.212800Y71.585800
G1X15.229100Y71.579100
G1X15.243500Y71.568000
G1X15.259800Y71.558700
G1X15.272400Y71.546100
G1X15.286700Y71.535200
G1X15.298100Y71.520400
G1X15.311000Y71.507500
G1X15.319800Y71.492100
G1X16.395300Y70.096200
G1X16.408800Y70.082800
G1X16.418000Y70.066800
G1X16.428600Y70.053100
G1X16.435500Y70.036400
G1X16.445000Y70.020100
G1X16.449600Y70.002600
G1X16.456500Y69.986300
G1X16.458900Y69.967900
G1X16.463700Y69.950200
G1X16.463700Y69.932500
G1X16.466100Y69.914600
G1X16.463700Y69.896000
G1X16.463700Y69.877700
G1X16.459100Y69.860600
G1X16.456800Y69.842700
G1X16.449800Y69.825700
G1X16.445000Y69.807800
G1X16.435900Y69.792100
G1X16.429200Y69.775800
G1X16.418100Y69.761400
G1X16.408800Y69.745100
G1X16.396200Y69.732500
G1X16.385300Y69.718200
G1X16.370600Y69.707000
G1X16.357600Y69.693900
G1X16.341800Y69.684800
G1X16.327900Y69.674100
G1X16.311200Y69.667200
G1X16.294900Y69.657700
G1X16.277400Y69.653100
G1X16.261100Y69.646200
G1X16.242700Y69.643800
G1X16.225000Y69.639000
G1X16.207300Y69.639000
G1X16.189400Y69.636600
G1X16.170800Y69.639000
G1X14.511500Y69.639000
G1X14.509600Y69.638500
G1X14.476700Y69.639000
G1X14.441300Y69.639000
G1X14.439200Y69.639600
G1X14.437100Y69.639600
G1X14.406300Y69.648400
G1X14.371400Y69.657700
G1X14.369400Y69.658900
G1X14.367500Y69.659400
G1X14.341000Y69.675300
G1X14.308700Y69.693900
G1X14.307100Y69.695600
G1X14.305300Y69.696600
G1X14.283400Y69.719300
G1X14.257500Y69.745100
G1X14.256400Y69.747200
G1X14.255000Y69.748500
G1X14.239900Y69.775700
G1X14.221300Y69.807800
G1X14.220700Y69.810000
G1X14.219700Y69.811800
G1X14.211700Y69.844000
G1X14.202600Y69.877700
G1X14.202600Y69.880000
G1X14.202100Y69.881900
G1X14.202600Y69.914400
G1X14.202600Y69.950200
G1X14.203200Y69.952300
G1X14.215700Y70.760900
G1X14.213500Y70.777200
G1X14.216200Y70.797300
G1X14.216500Y70.817300
G1X14.221000Y70.832900
G1X14.223100Y70.849000
G1X14.230800Y70.867500
G1X14.236300Y70.886900
G1X14.244500Y70.900600
G1X14.250800Y70.915800
G1X14.263300Y70.931900
G1X14.273500Y70.949100
G1X14.285100Y70.960300
G1X14.295000Y70.973200
G1X14.311100Y70.985500
G1X14.325400Y70.999400
G1X14.339300Y71.007100
G1X14.352400Y71.017200

G0Z0.500
G0X31.456800Y32.210800
G1Z-0.100 f25
G1X31.460000Y32.222700 f200
G1X31.461100Y32.235200
G1X31.469400Y32.257800
G1X31.475500Y32.280700
G1X31.481700Y32.291300
G1X31.486000Y32.303200
G1X31.500000Y32.323000
G1X31.511700Y32.343400
G1X31.520400Y32.352000
G1X31.959000Y32.975500
G1X31.971300Y32.996700
G1X31.979800Y33.005100
G1X31.986600Y33.014800
G1X32.005300Y33.030400
G1X32.022700Y33.047700
G1X32.033000Y33.053500
G1X32.042100Y33.061200
G1X32.064600Y33.071600
G1X32.085600Y33.083600
G1X32.097100Y33.086600
G1X32.107800Y33.091600
G1X32.131500Y33.095700
G1X32.155600Y33.102100
G1X32.167800Y33.102000
G1X32.179100Y33.104000
G1X32.203500Y33.101800
G1X32.228100Y33.101700
G1X32.239200Y33.098600
G1X32.251300Y33.097600
G1X32.274800Y33.088900
G1X32.297900Y33.082700
G1X32.307900Y33.076800
G1X32.319300Y33.072700
G1X32.339500Y33.058400
G1X32.360400Y33.046300
G1X32.368800Y33.037800
G1X32.378500Y33.031000
G1X32.394100Y33.012300
G1X32.411400Y32.994900
G1X32.417200Y32.984600
G1X32.424900Y32.975500
G1X32.435300Y32.953000
G1X32.447300Y32.932000
G1X32.450300Y32.920500
G1X32.455300Y32.909800
G1X32.459400Y32.886100
G1X32.465800Y32.862000
G1X32.465700Y32.849700
G1X32.467700Y32.838500
G1X32.465600Y32.814800
G1X32.451300Y29.462300
G1X32.451800Y29.460400
G1X32.451100Y29.419400
G1X32.451000Y29.391300
G1X32.450600Y29.390000
G1X32.450600Y29.387900
G1X32.440600Y29.353300
G1X32.432000Y29.321500
G1X32.431000Y29.319900
G1X32.430600Y29.318300
G1X32.413900Y29.290500
G1X32.395600Y29.259000
G1X32.394300Y29.257800
G1X32.393400Y29.256200
G1X32.368600Y29.232300
G1X32.344200Y29.208000
G1X32.342600Y29.207200
G1X32.341400Y29.205900
G1X32.310500Y29.188800
G1X32.281300Y29.172100
G1X32.279600Y29.171700
G1X32.278100Y29.170800
G1X32.244700Y29.162500
G1X32.211300Y29.153600
G1X32.209500Y29.153600
G1X32.207900Y29.153200
G1X32.170000Y29.153900
G1X32.138800Y29.154000
G1X32.137500Y29.154400
G1X32.135400Y29.154400
G1X32.100800Y29.164400
G1X32.069000Y29.173000
G1X32.067400Y29.174000
G1X32.065800Y29.174400
G1X32.039400Y29.190300
G1X32.006500Y29.209400
G1X32.005100Y29.210900
G1X31.593100Y29.458000
G1X31.562900Y29.475400
G1X31.561200Y29.477100
G1X31.559200Y29.478300
G1X31.535500Y29.502900
G1X31.511700Y29.526600
G1X31.510600Y29.528600
G1X31.508900Y29.530300
G1X31.492800Y29.559400
G1X31.475500Y29.589300
G1X31.474900Y29.591700
G1X31.473800Y29.593600
G1X31.465600Y29.626400
G1X31.456800Y29.659200
G1X31.456800Y29.661500
G1X31.456200Y29.663800
G1X31.456800Y29.700100
G1X31.456800Y30.029800
G1X31.088200Y30.398400
G1X31.088100Y30.398400
G1X31.045100Y30.441400
G1X31.036900Y30.449600
G1X31.000700Y30.512300
G1X30.982000Y30.582200
G1X30.982000Y30.654700
G1X31.000700Y30.724600
G1X31.036900Y30.787300
G1X31.088100Y30.838500
G1X31.456800Y31.207200
G1X31.456800Y32.150900
G1X31.454700Y32.163000
G1X31.456800Y32.186800
G1X31.456800Y32.210800

G0Z0.500
G0X28.132100Y98.464000
G1Z-0.100 f25
G1X28.132000Y98.464000 f200
G1X28.091300Y98.504800
G1X28.080800Y98.515200
G1X28.044600Y98.577900
G1X28.025900Y98.647800
G1X28.025900Y98.720300
G1X28.044600Y98.790200
G1X28.080800Y98.852900
G1X28.132000Y98.904100
G1X28.194700Y98.940300
G1X28.264600Y98.959000
G1X28.337100Y98.959000
G1X29.655800Y98.959000
G1X29.725700Y98.940300
G1X29.788400Y98.904100
G1X29.839600Y98.852900
G1X29.875800Y98.790200
G1X29.894500Y98.720300
G1X29.894500Y98.647800
G1X29.875800Y98.577900
G1X29.839600Y98.515200
G1X29.788400Y98.464000
G1X29.788300Y98.464000
G1X29.276000Y97.951700
G1X29.276000Y97.244600
G1X29.278400Y97.227600
G1X29.276000Y97.208200
G1X29.276000Y97.188900
G1X29.271500Y97.172300
G1X29.269500Y97.155700
G1X29.262400Y97.138300
G1X29.257300Y97.119000
G1X29.248500Y97.103900
G1X29.242400Y97.088600
G1X29.231000Y97.073500
G1X29.221100Y97.056300
G1X29.208900Y97.044200
G1X29.198900Y97.030800
G1X29.183800Y97.019100
G1X29.169900Y97.005100
G1X29.154900Y96.996500
G1X29.141800Y96.986200
G1X29.124200Y96.978800
G1X29.107200Y96.968900
G1X29.090600Y96.964500
G1X29.087800Y96.963300
G1X29.087600Y96.963100
G1X29.053900Y96.948900
G1X29.042400Y96.944000
G1X29.026000Y96.934500
G1X29.009400Y96.930100
G1X28.993400Y96.923300
G1X28.974200Y96.920700
G1X28.956100Y96.915800
G1X28.939000Y96.915800
G1X28.921700Y96.913400
G1X28.902500Y96.915800
G1X28.883600Y96.915800
G1X28.867000Y96.920300
G1X28.849800Y96.922400
G1X28.832300Y96.929600
G1X28.813700Y96.934500
G1X28.798600Y96.943300
G1X28.782700Y96.949700
G1X28.767800Y96.961100
G1X28.751000Y96.970700
G1X28.738700Y96.983100
G1X28.725000Y96.993400
G1X28.713500Y97.008300
G1X28.699800Y97.021900
G1X28.691100Y97.037100
G1X28.680600Y97.050500
G1X28.673300Y97.067900
G1X28.663600Y97.084600
G1X28.659200Y97.101300
G1X28.652400Y97.117200
G1X28.649800Y97.136400
G1X28.644900Y97.154500
G1X28.644900Y97.171600
G1X28.642500Y97.188900
G1X28.644900Y97.208100
G1X28.644900Y97.951200
G1X28.132100Y98.464000

G0Z0.500
G0X41.067300Y82.464600
G1Z-0.100 f25
G1X41.064900Y82.444500 f200
G1X41.064900Y82.424900
G1X41.060600Y82.409100
G1X41.058700Y82.392600
G1X41.051300Y82.374300
G1X41.046200Y82.355000
G1X41.037800Y82.340600
G1X41.031800Y82.325400
G1X41.020000Y82.309700
G1X41.010000Y82.292300
G1X40.998200Y82.280600
G1X40.988400Y82.267400
G1X40.973000Y82.255400
G1X40.958800Y82.241100
G1X40.944100Y82.232700
G1X40.931500Y82.222700
G1X40.913700Y82.215200
G1X40.896100Y82.204900
G1X40.879700Y82.200600
G1X40.865000Y82.194200
G1X40.845500Y82.191400
G1X40.826200Y82.186200
G1X40.809900Y82.186200
G1X40.793400Y82.183800
G1X40.773300Y82.186200
G1X40.753700Y82.186200
G1X40.737900Y82.190500
G1X40.721400Y82.192400
G1X40.703000Y82.199800
G1X40.683800Y82.204900
G1X40.669500Y82.213200
G1X39.625800Y82.630800
G1X39.607100Y82.635700
G1X39.592100Y82.644300
G1X39.576400Y82.650500
G1X39.561400Y82.661800
G1X39.544200Y82.671600
G1X39.531800Y82.684000
G1X39.518400Y82.693900
G1X39.506900Y82.708700
G1X39.492800Y82.722600
G1X39.483900Y82.737900
G1X39.473700Y82.750800
G1X39.466400Y82.768000
G1X39.456400Y82.785100
G1X39.451800Y82.802000
G1X39.445200Y82.817300
G1X39.442500Y82.836400
G1X39.437400Y82.855000
G1X39.437300Y82.871800
G1X39.434800Y82.888900
G1X39.437200Y82.908500
G1X39.428600Y84.967000
G1X39.427800Y84.970100
G1X39.428400Y85.007500
G1X39.428300Y85.036800
G1X39.429000Y85.039200
G1X39.429000Y85.042500
G1X39.438900Y85.077000
G1X39.446700Y85.106800
G1X39.448100Y85.109200
G1X39.448900Y85.112100
G1X39.466400Y85.141200
G1X39.482600Y85.169700
G1X39.484700Y85.171700
G1X39.486100Y85.174200
G1X39.509000Y85.196300
G1X39.533600Y85.221100
G1X39.536300Y85.222700
G1X39.538200Y85.224500
G1X39.566500Y85.240200
G1X39.596100Y85.257500
G1X39.598800Y85.258200
G1X39.601400Y85.259700
G1X39.636800Y85.268500
G1X39.666000Y85.276500
G1X39.668600Y85.276500
G1X39.671700Y85.277300
G1X39.709100Y85.276700
G1X39.738400Y85.276800
G1X39.740800Y85.276100
G1X39.744100Y85.276100
G1X39.778900Y85.266100
G1X39.808400Y85.258400
G1X39.810700Y85.257000
G1X40.863200Y84.956300
G1X40.896100Y84.947500
G1X40.898100Y84.946300
G1X40.900300Y84.945700
G1X40.929100Y84.928400
G1X40.958800Y84.911300
G1X40.960400Y84.909700
G1X40.962400Y84.908500
G1X40.984800Y84.885300
G1X41.010000Y84.860100
G1X41.011300Y84.857800
G1X41.012700Y84.856400
G1X41.028100Y84.828700
G1X41.046200Y84.797400
G1X41.046800Y84.795200
G1X41.047900Y84.793200
G1X41.056300Y84.759500
G1X41.064900Y84.727500
G1X41.064900Y84.725300
G1X41.065500Y84.722900
G1X41.064900Y84.686600
G1X41.064900Y84.658600
G1X41.484800Y84.238700
G1X41.521000Y84.176000
G1X41.539700Y84.106100
G1X41.539700Y84.033600
G1X41.521000Y83.963700
G1X41.484800Y83.901000
G1X41.433600Y83.849800
G1X41.433500Y83.849800
G1X41.064900Y83.481200
G1X41.064900Y82.481100
G1X41.067300Y82.464600

G0Z0.500
G0X41.022600Y89.780900
G1Z-0.100 f25
G1X41.046800Y89.756600 f200
G1X41.070400Y89.734000
G1X41.071700Y89.731700
G1X41.433600Y89.369900
G1X41.484800Y89.318700
G1X41.521000Y89.256000
G1X41.539700Y89.186100
G1X41.539700Y89.113600
G1X41.521000Y89.043700
G1X41.484800Y88.981000
G1X41.470900Y88.967100
G1X41.433600Y88.929800
G1X41.433500Y88.929800
G1X41.065200Y88.561500
G1X41.042800Y88.538200
G1X41.040500Y88.536900
G1X41.038500Y88.534800
G1X41.007300Y88.516800
G1X40.980800Y88.500800
G1X40.978400Y88.500100
G1X40.975800Y88.498600
G1X40.940900Y88.489300
G1X40.911300Y88.480700
G1X40.908600Y88.480700
G1X40.905900Y88.479900
G1X40.872600Y88.479900
G1X40.838800Y88.479200
G1X40.836000Y88.479900
G1X40.833400Y88.479900
G1X40.800900Y88.488600
G1X40.768600Y88.496600
G1X40.766400Y88.497900
G1X40.763500Y88.498600
G1X40.733400Y88.516000
G1X40.705200Y88.531500
G1X40.703300Y88.533400
G1X40.700800Y88.534800
G1X40.676500Y88.559200
G1X40.653000Y88.581700
G1X40.651700Y88.584000
G1X40.649600Y88.586000
G1X40.631600Y88.617200
G1X40.615600Y88.643700
G1X40.614900Y88.646100
G1X40.613400Y88.648700
G1X40.604100Y88.683600
G1X40.595500Y88.713200
G1X40.595500Y88.715800
G1X40.594700Y88.718600
G1X40.594700Y88.753700
G1X40.579500Y89.522100
G1X40.578800Y89.524600
G1X40.578800Y89.556300
G1X40.578100Y89.591700
G1X40.578800Y89.594500
G1X40.578800Y89.597100
G1X40.587500Y89.629500
G1X40.595500Y89.661900
G1X40.596800Y89.664100
G1X40.597500Y89.667000
G1X40.614800Y89.697000
G1X40.630400Y89.725300
G1X40.632300Y89.727200
G1X40.633700Y89.729700
G1X40.658000Y89.753900
G1X40.680600Y89.777500
G1X40.682900Y89.778800
G1X40.684900Y89.780900
G1X40.716000Y89.798800
G1X40.742600Y89.814900
G1X40.745000Y89.815600
G1X40.747600Y89.817100
G1X40.782400Y89.826400
G1X40.812100Y89.835000
G1X40.814800Y89.835000
G1X40.817500Y89.835800
G1X40.850700Y89.835800
G1X40.884600Y89.836500
G1X40.887400Y89.835800
G1X40.890000Y89.835800
G1X40.922400Y89.827100
G1X40.954800Y89.819100
G1X40.957000Y89.817800
G1X40.959900Y89.817100
G1X40.989900Y89.799800
G1X41.018200Y89.784200
G1X41.020100Y89.782300
G1X41.022600Y89.780900

G0Z0.500
G0X49.040900Y38.926200
G1Z-0.100 f25
G1X49.059600Y38.996100 f200
G1X49.095800Y39.058800
G1X49.147000Y39.110000
G1X49.209700Y39.146200
G1X49.279600Y39.164900
G1X49.352100Y39.164900
G1X50.681200Y39.164900
G1X51.514700Y39.998400
G1X51.577400Y40.034600
G1X51.647300Y40.053300
G1X51.719800Y40.053300
G1X51.789700Y40.034600
G1X51.852400Y39.998400
G1X51.903600Y39.947200
G1X51.939800Y39.884500
G1X51.958500Y39.814600
G1X51.958500Y39.742100
G1X51.958500Y34.185100
G1X51.939800Y34.115200
G1X51.903600Y34.052500
G1X51.852400Y34.001300
G1X51.789700Y33.965100
G1X51.719800Y33.946400
G1X51.647300Y33.946400
G1X51.577400Y33.965100
G1X51.514700Y34.001300
G1X51.463500Y34.052500
G1X51.463500Y34.052600
G1X50.681200Y34.834900
G1X49.279600Y34.834900
G1X49.209700Y34.853600
G1X49.147000Y34.889800
G1X49.095800Y34.941000
G1X49.059600Y35.003700
G1X49.040900Y35.073600
G1X49.040900Y35.146100
G1X49.040900Y38.926200

G0Z0.500
G0X48.863900Y11.886700
G1Z-0.100 f25
G1X48.907800Y11.930500 f200
G1X48.915100Y11.937900
G1X48.977800Y11.974100
G1X49.047700Y11.992800
G1X49.120200Y11.992800
G1X49.190100Y11.974100
G1X49.252800Y11.937900
G1X49.304000Y11.886700
G1X49.340200Y11.824000
G1X49.358900Y11.754100
G1X49.358900Y11.681600
G1X49.358900Y9.540600
G1X49.340200Y9.470700
G1X49.304000Y9.408000
G1X49.252800Y9.356800
G1X49.190100Y9.320600
G1X49.120200Y9.301900
G1X49.047700Y9.301900
G1X48.977800Y9.320600
G1X48.915100Y9.356800
G1X48.863900Y9.408000
G1X48.863800Y9.408300
G1X48.589600Y9.682500
G1X48.434600Y9.746600
G1X48.434500Y9.746600
G1X48.427500Y9.749600
G1X48.367800Y9.774200
G1X48.310400Y9.818300
G1X48.310400Y9.818400
G1X48.310300Y9.818400
G1X48.297800Y9.834700
G1X48.266300Y9.875700
G1X48.266300Y9.875900
G1X48.266200Y9.875900
G1X48.238500Y9.942800
G1X48.231700Y9.994800
G1X48.229100Y10.014300
G1X48.229100Y10.014500
G1X48.229100Y10.014600
G1X48.238600Y10.086400
G1X48.254300Y10.124000
G1X48.266200Y10.153100
G1X48.266400Y10.153200
G1X48.279900Y10.185900
G1X48.279900Y10.893900
G1X48.179500Y11.136200
G1X48.170000Y11.208100
G1X48.170800Y11.214100
G1X48.179500Y11.279900
G1X48.207200Y11.346800
G1X48.240400Y11.390000
G1X48.251200Y11.404100
G1X48.251300Y11.404100
G1X48.251300Y11.404200
G1X48.263800Y11.413700
G1X48.308600Y11.448200
G1X48.375500Y11.475900
G1X48.375700Y11.475900
G1X48.508100Y11.530700
G1X48.863900Y11.886600
G1X48.863900Y11.886700

G0Z0.500
G0X27.840900Y20.745600
G1Z-0.100 f25
G1X27.859600Y20.815500 f200
G1X27.895800Y20.878200
G1X27.947000Y20.929400
G1X28.009700Y20.965600
G1X28.079600Y20.984300
G1X28.152100Y20.984300
G1X28.222000Y20.965600
G1X28.284700Y20.929400
G1X28.335900Y20.878200
G1X28.336000Y20.877900
G1X28.535300Y20.678600
G1X28.535500Y20.678500
G1X28.586700Y20.627300
G1X28.622900Y20.564600
G1X28.641600Y20.494700
G1X28.641600Y20.422200
G1X28.622900Y20.352300
G1X28.586700Y20.289600
G1X28.284700Y19.987600
G1X28.222000Y19.951400
G1X28.152100Y19.932700
G1X28.079600Y19.932700
G1X28.009700Y19.951400
G1X27.947000Y19.987600
G1X27.895800Y20.038800
G1X27.859600Y20.101500
G1X27.840900Y20.171400
G1X27.840900Y20.243900
G1X27.840900Y20.745600

G0Z0.500
G0X28.586700Y23.167400
G1Z-0.100 f25
G1X28.622900Y23.104700 f200
G1X28.641000Y23.036900
G1X28.641600Y23.034800
G1X28.641600Y22.962400
G1X28.641600Y22.962300
G1X28.624500Y22.898400
G1X28.622900Y22.892400
G1X28.621300Y22.889700
G1X28.586700Y22.829700
G1X28.535500Y22.778500
G1X28.535300Y22.778400
G1X28.336000Y22.579100
G1X28.335900Y22.578800
G1X28.284700Y22.527600
G1X28.222000Y22.491400
G1X28.153100Y22.473000
G1X28.152100Y22.472700
G1X28.079700Y22.472700
G1X28.079600Y22.472700
G1X28.012700Y22.490600
G1X28.009700Y22.491400
G1X28.008400Y22.492200
G1X27.947000Y22.527600
G1X27.895800Y22.578800
G1X27.859600Y22.641500
G1X27.841200Y22.710400
G1X27.840900Y22.711400
G1X27.840900Y22.783800
G1X27.840900Y23.285600
G1X27.859600Y23.355500
G1X27.895800Y23.418200
G1X27.947000Y23.469400
G1X28.009700Y23.505600
G1X28.079600Y23.524300
G1X28.152100Y23.524300
G1X28.222000Y23.505600
G1X28.284700Y23.469400
G1X28.335900Y23.418200
G1X28.586700Y23.167400

G0Z0.500
G0X27.840900Y25.825600
G1Z-0.100 f25
G1X27.859600Y25.895500 f200
G1X27.895800Y25.958200
G1X27.947000Y26.009400
G1X28.009700Y26.045600
G1X28.079600Y26.064300
G1X28.152100Y26.064300
G1X28.222000Y26.045600
G1X28.284700Y26.009400
G1X28.335900Y25.958200
G1X28.336000Y25.957900
G1X28.535300Y25.758600
G1X28.535500Y25.758500
G1X28.586700Y25.707300
G1X28.622900Y25.644600
G1X28.641600Y25.574700
G1X28.641600Y25.502200
G1X28.622900Y25.432300
G1X28.586700Y25.369600
G1X28.284700Y25.067600
G1X28.222000Y25.031400
G1X28.152100Y25.012700
G1X28.079600Y25.012700
G1X28.009700Y25.031400
G1X27.947000Y25.067600
G1X27.895800Y25.118800
G1X27.859600Y25.181500
G1X27.840900Y25.251400
G1X27.840900Y25.323900
G1X27.840900Y25.825600

G0Z0.500
G0X27.840900Y28.365600
G1Z-0.100 f25
G1X27.859600Y28.435500 f200
G1X27.895800Y28.498200
G1X27.947000Y28.549400
G1X28.009700Y28.585600
G1X28.079600Y28.604300
G1X28.152100Y28.604300
G1X28.222000Y28.585600
G1X28.284700Y28.549400
G1X28.335900Y28.498200
G1X28.336000Y28.497900
G1X28.535300Y28.298600
G1X28.535500Y28.298500
G1X28.586700Y28.247300
G1X28.622900Y28.184600
G1X28.641600Y28.114700
G1X28.641600Y28.042200
G1X28.622900Y27.972300
G1X28.586700Y27.909600
G1X28.284700Y27.607600
G1X28.222000Y27.571400
G1X28.152100Y27.552700
G1X28.079600Y27.552700
G1X28.009700Y27.571400
G1X27.947000Y27.607600
G1X27.895800Y27.658800
G1X27.859600Y27.721500
G1X27.840900Y27.791400
G1X27.840900Y27.863900
G1X27.840900Y28.365600

G0Z0.500
G0X30.177200Y34.061000
G1Z-0.100 f25
G1X30.163300Y34.041300 f200
G1X30.151500Y34.020800
G1X30.142700Y34.012100
G1X29.895300Y33.660500
G1X29.883300Y33.639600
G1X29.874400Y33.630700
G1X29.867300Y33.620600
G1X29.849000Y33.605400
G1X29.832100Y33.588400
G1X29.821300Y33.582200
G1X29.811800Y33.574200
G1X29.790200Y33.564200
G1X29.769400Y33.552200
G1X29.757100Y33.549000
G1X29.746100Y33.543800
G1X29.723000Y33.539800
G1X29.699500Y33.533500
G1X29.686800Y33.533500
G1X29.674800Y33.531400
G1X29.651100Y33.533500
G1X29.279600Y33.533500
G1X29.209700Y33.552200
G1X29.147000Y33.588400
G1X29.095800Y33.639600
G1X29.059600Y33.702300
G1X29.040900Y33.772200
G1X29.040900Y33.844700
G1X29.040900Y34.125200
G1X29.038500Y34.145000
G1X29.040900Y34.161700
G1X29.040900Y34.178200
G1X29.046000Y34.197300
G1X29.048800Y34.216700
G1X29.055300Y34.231800
G1X29.059600Y34.248100
G1X29.069500Y34.265200
G1X29.077200Y34.283300
G1X29.087500Y34.296300
G1X29.095800Y34.310800
G1X29.109800Y34.324800
G1X29.121900Y34.340200
G1X29.135100Y34.350100
G1X29.147000Y34.362000
G1X29.164300Y34.372000
G1X29.198700Y34.397700
G1X29.210600Y34.409700
G1X29.228000Y34.419700
G1X29.243400Y34.431300
G1X29.258600Y34.437400
G1X29.273300Y34.445900
G1X29.292600Y34.451000
G1X29.310600Y34.458300
G1X29.327200Y34.460300
G1X29.343200Y34.464600
G1X29.362600Y34.464600
G1X29.382500Y34.467000
G1X29.399200Y34.464600
G1X29.907900Y34.464600
G1X29.919900Y34.466700
G1X29.943600Y34.464600
G1X29.967700Y34.464600
G1X29.979600Y34.461400
G1X29.992100Y34.460300
G1X30.014600Y34.452000
G1X30.037600Y34.445900
G1X30.048300Y34.439700
G1X30.060100Y34.435400
G1X30.079700Y34.421600
G1X30.100300Y34.409700
G1X30.109100Y34.400800
G1X30.119300Y34.393700
G1X30.134600Y34.375400
G1X30.151500Y34.358500
G1X30.157700Y34.347700
G1X30.165700Y34.338200
G1X30.175700Y34.316500
G1X30.187700Y34.295800
G1X30.190900Y34.283600
G1X30.196100Y34.272500
G1X30.200100Y34.249300
G1X30.206400Y34.225900
G1X30.206400Y34.213200
G1X30.208500Y34.201200
G1X30.206400Y34.177500
G1X30.206400Y34.153400
G1X30.203200Y34.141500
G1X30.202100Y34.129000
G1X30.193800Y34.106500
G1X30.187700Y34.083500
G1X30.181500Y34.072800
G1X30.177200Y34.061000

G0Z0.500
G0X1.352200Y22.101900
G1Z-0.100 f25
G1X1.352100Y22.101900 f200
G1X1.279600Y22.101900
G1X1.209700Y22.120600
G1X1.147000Y22.156800
G1X1.095800Y22.208000
G1X1.059600Y22.270700
G1X1.045300Y22.324200
G1X1.040900Y22.340500
G1X1.040900Y22.340600
G1X1.040900Y22.859200
G1X1.059600Y22.929100
G1X1.095800Y22.991800
G1X1.147000Y23.043000
G1X1.209700Y23.079200
G1X1.279600Y23.097900
G1X1.352100Y23.097900
G1X1.422000Y23.079200
G1X1.484700Y23.043000
G1X1.535900Y22.991800
G1X1.535900Y22.991700
G1X1.728500Y22.799200
G1X1.764700Y22.736500
G1X1.783400Y22.666600
G1X1.783400Y22.594100
G1X1.783400Y22.533300
G1X1.764700Y22.463400
G1X1.728500Y22.400700
G1X1.677300Y22.349500
G1X1.677100Y22.349400
G1X1.536000Y22.208300
G1X1.535900Y22.208000
G1X1.484700Y22.156800
G1X1.422000Y22.120600
G1X1.368500Y22.106300
G1X1.352200Y22.101900

G0Z0.500
G0X1.792500Y88.968000
G1Z-0.100 f25
G1X1.789900Y88.964500 f200
G1X1.788400Y88.960700
G1X1.769600Y88.936300
G1X1.750200Y88.909200
G1X1.746800Y88.906500
G1X1.744400Y88.903300
G1X1.719000Y88.883800
G1X1.694100Y88.863500
G1X1.690400Y88.861900
G1X1.687000Y88.859200
G1X1.656200Y88.846500
G1X1.601400Y88.821800
G1X1.598200Y88.819300
G1X1.567600Y88.806600
G1X1.539000Y88.793700
G1X1.535100Y88.793100
G1X1.438100Y88.752700
G1X1.422000Y88.743400
G1X1.404400Y88.738700
G1X1.388100Y88.731900
G1X1.369900Y88.729500
G1X1.352100Y88.724700
G1X1.334200Y88.724700
G1X1.316300Y88.722300
G1X1.297900Y88.724700
G1X1.279600Y88.724700
G1X1.262100Y88.729400
G1X1.244400Y88.731700
G1X1.227800Y88.738600
G1X1.209700Y88.743400
G1X1.193900Y88.752600
G1X1.177500Y88.759300
G1X1.163200Y88.770300
G1X1.147000Y88.779600
G1X1.134100Y88.792600
G1X1.120000Y88.803300
G1X1.109000Y88.817700
G1X1.095800Y88.830800
G1X1.086700Y88.846600
G1X1.075900Y88.860600
G1X1.069000Y88.877400
G1X1.059600Y88.893500
G1X1.054900Y88.911100
G1X1.048100Y88.927400
G1X1.045700Y88.945600
G1X1.040900Y88.963400
G1X1.040900Y88.981300
G1X1.038500Y88.999200
G1X1.040900Y89.017600
G1X1.040900Y95.141500
G1X1.040900Y95.141600
G1X1.045700Y95.159500
G1X1.059600Y95.211400
G1X1.095800Y95.274100
G1X1.147000Y95.325300
G1X1.147100Y95.325400
G1X1.172800Y95.340200
G1X1.209700Y95.361500
G1X1.279600Y95.380200
G1X1.352100Y95.380200
G1X1.352200Y95.380200
G1X1.370100Y95.375400
G1X1.422000Y95.361500
G1X1.484700Y95.325300
G1X1.484900Y95.325100
G1X1.577000Y95.271800
G1X2.185200Y95.108900
G1X2.814800Y95.108900
G1X3.058500Y95.174300
G1X3.058600Y95.174400
G1X3.097900Y95.184900
G1X3.128400Y95.193100
G1X3.200900Y95.193100
G1X3.201000Y95.193100
G1X3.270900Y95.174400
G1X3.333600Y95.138200
G1X3.383900Y95.087900
G1X3.384700Y95.087100
G1X3.384800Y95.087000
G1X3.421000Y95.024300
G1X3.434400Y94.974000
G1X3.439700Y94.954500
G1X3.439700Y94.882000
G1X3.439700Y94.881900
G1X3.421000Y94.812000
G1X3.384800Y94.749300
G1X3.334500Y94.699000
G1X3.333700Y94.698200
G1X3.145200Y94.509700
G1X2.894800Y93.905300
G1X2.894800Y93.250800
G1X2.898500Y93.241900
G1X2.908800Y93.217000
G1X2.918300Y93.145300
G1X2.918300Y93.145100
G1X2.918300Y93.145000
G1X2.908800Y93.073300
G1X2.897700Y93.046500
G1X2.881200Y93.006500
G1X2.837100Y92.949100
G1X2.837000Y92.949100
G1X2.837000Y92.949000
G1X2.779600Y92.904900
G1X2.507900Y92.792500
G1X2.045000Y92.329600
G1X1.794600Y91.725200
G1X1.794600Y91.070600
G1X2.045000Y90.466200
G1X2.326100Y90.185100
G1X2.362300Y90.122400
G1X2.381000Y90.052500
G1X2.381000Y89.980000
G1X2.362300Y89.910100
G1X2.326100Y89.847400
G1X2.274900Y89.796200
G1X2.274600Y89.796100
G1X2.035200Y89.556600
G1X1.804300Y88.999200
G1X1.792500Y88.968000

G0Z0.500
G0X15.817300Y88.630400
G1Z-0.100 f25
G1X15.833200Y88.625900 f200
G1X15.849000Y88.623800
G1X15.867000Y88.616300
G1X16.318200Y88.488700
G1X16.348200Y88.481200
G1X16.351700Y88.479200
G1X16.355800Y88.478100
G1X16.382700Y88.462000
G1X16.411400Y88.446100
G1X16.414500Y88.443000
G1X16.418000Y88.441000
G1X16.439900Y88.418400
G1X16.463400Y88.395700
G1X16.465500Y88.392100
G1X16.468500Y88.389100
G1X16.484500Y88.360400
G1X16.500600Y88.333600
G1X16.501700Y88.329700
G1X16.503800Y88.326000
G1X16.511700Y88.294600
G1X16.520500Y88.264000
G1X16.520600Y88.259800
G1X16.521600Y88.255800
G1X16.521100Y88.223600
G1X16.551100Y86.352200
G1X16.552300Y86.347500
G1X16.551700Y86.313300
G1X16.552200Y86.284000
G1X16.551200Y86.280000
G1X16.551100Y86.275000
G1X16.542000Y86.243500
G1X16.534600Y86.213800
G1X16.532300Y86.209800
G1X16.531100Y86.205400
G1X16.515100Y86.178800
G1X16.499500Y86.150600
G1X16.496300Y86.147300
G1X16.493900Y86.143300
G1X16.470300Y86.120500
G1X16.449100Y86.098600
G1X16.445400Y86.096400
G1X16.441900Y86.093000
G1X16.413000Y86.077000
G1X16.387000Y86.061400
G1X16.382600Y86.060200
G1X16.378600Y86.057900
G1X16.347400Y86.050100
G1X16.317400Y86.041500
G1X16.312900Y86.041400
G1X16.308400Y86.040300
G1X16.274900Y86.040900
G1X16.244900Y86.040400
G1X16.240900Y86.041400
G1X16.235900Y86.041500
G1X16.204400Y86.050600
G1X16.174700Y86.058000
G1X16.170700Y86.060300
G1X16.166300Y86.061500
G1X16.139700Y86.077500
G1X16.111500Y86.093100
G1X16.110100Y86.094500
G1X16.104600Y86.097600
G1X16.102400Y86.099800
G1X16.099700Y86.101400
G1X16.076300Y86.125600
G1X16.042000Y86.159600
G1X15.960300Y86.192900
G1X15.938800Y86.199100
G1X15.926400Y86.206700
G1X15.913200Y86.212000
G1X15.895900Y86.225200
G1X15.240400Y86.622600
G1X15.226600Y86.628300
G1X15.210000Y86.641000
G1X15.191700Y86.652100
G1X15.181300Y86.663000
G1X15.169100Y86.672300
G1X15.156200Y86.689200
G1X15.141600Y86.704400
G1X15.134200Y86.718000
G1X15.125100Y86.729800
G1X15.117300Y86.748800
G1X15.106800Y86.767800
G1X15.103100Y86.782900
G1X14.863200Y87.362000
G1X14.402700Y87.822600
G1X14.393800Y87.824900
G1X14.378000Y87.834100
G1X14.361600Y87.840800
G1X14.347300Y87.851800
G1X14.331100Y87.861100
G1X14.318200Y87.874100
G1X14.304100Y87.884800
G1X14.293100Y87.899200
G1X14.279900Y87.912300
G1X14.270900Y87.928000
G1X14.259900Y87.942200
G1X14.252900Y87.959100
G1X14.243700Y87.975000
G1X14.239000Y87.992700
G1X14.232200Y88.009000
G1X14.229800Y88.027000
G1X14.225000Y88.044900
G1X14.225000Y88.062900
G1X14.222600Y88.080800
G1X14.225000Y88.099200
G1X14.225000Y88.117400
G1X14.229700Y88.134800
G1X14.232000Y88.152600
G1X14.238900Y88.169200
G1X14.243700Y88.187300
G1X14.252900Y88.203100
G1X14.259600Y88.219500
G1X14.270600Y88.233800
G1X14.279900Y88.250000
G1X14.292900Y88.262900
G1X14.303600Y88.277000
G1X14.318000Y88.288000
G1X14.331100Y88.301200
G1X14.346800Y88.310200
G1X14.361000Y88.321200
G1X14.377900Y88.328200
G1X14.393800Y88.337400
G1X14.411500Y88.342100
G1X14.427800Y88.348900
G1X14.445800Y88.351300
G1X14.463700Y88.356100
G1X14.481700Y88.356100
G1X14.499600Y88.358500
G1X14.518000Y88.356100
G1X15.059300Y88.356100
G1X15.657000Y88.603700
G1X15.674600Y88.613600
G1X15.690600Y88.617600
G1X15.705400Y88.623800
G1X15.725200Y88.626400
G1X15.744800Y88.631400
G1X15.761200Y88.631100
G1X15.777300Y88.633300
G1X15.797000Y88.630700
G1X15.817300Y88.630400

G0Z0.500
G0X8.710300Y86.169300
G1Z-0.100 f25
G1X8.710300Y86.170500 f200
G1X8.709900Y86.171900
G1X8.709900Y86.211900
G1X8.691000Y88.219800
G1X8.688500Y88.243200
G1X8.690700Y88.256600
G1X8.690500Y88.269600
G1X8.696200Y88.291600
G1X8.725600Y88.477300
G1X8.725600Y88.492300
G1X8.731200Y88.512600
G1X8.734500Y88.533900
G1X8.740700Y88.547700
G1X8.744600Y88.562200
G1X8.755300Y88.580500
G1X8.764000Y88.600100
G1X8.773600Y88.611800
G1X8.781000Y88.624700
G1X8.795900Y88.639400
G1X8.809500Y88.656300
G1X8.822100Y88.665400
G1X8.832400Y88.675700
G1X8.850300Y88.685900
G1X8.868100Y88.698900
G1X8.882500Y88.704400
G1X8.895200Y88.711700
G1X8.915600Y88.717100
G1X8.935700Y88.724800
G1X8.950700Y88.726400
G1X8.965100Y88.730200
G1X8.986300Y88.730100
G1X9.007700Y88.732400
G1X9.022600Y88.730000
G1X9.037600Y88.730000
G1X9.058000Y88.724400
G1X9.079200Y88.721100
G1X9.093000Y88.714900
G1X9.107500Y88.711000
G1X9.125800Y88.700300
G1X9.145400Y88.691600
G1X9.157100Y88.682000
G1X9.170000Y88.674600
G1X9.184700Y88.659700
G1X9.201600Y88.646100
G1X9.210700Y88.633500
G1X9.221000Y88.623200
G1X9.231200Y88.605300
G1X9.244200Y88.587500
G1X9.249700Y88.573100
G1X9.257000Y88.560400
G1X9.262400Y88.540000
G1X9.270100Y88.519900
G1X9.271700Y88.504900
G1X9.275500Y88.490500
G1X9.275400Y88.469400
G1X9.277700Y88.447900
G1X9.275300Y88.432800
G1X9.267800Y86.200500
G1X9.267800Y86.171900
G1X9.267700Y86.171600
G1X9.267700Y86.171000
G1X9.258700Y86.138000
G1X9.249100Y86.102000
G1X9.248800Y86.101500
G1X9.248700Y86.101100
G1X9.234700Y86.077200
G1X9.212900Y86.039300
G1X9.212400Y86.038900
G1X9.212300Y86.038600
G1X9.199200Y86.025700
G1X9.161700Y85.988100
G1X9.161000Y85.987700
G1X9.160900Y85.987600
G1X9.151300Y85.982100
G1X9.099000Y85.951900
G1X9.098300Y85.951700
G1X9.098100Y85.951600
G1X9.077000Y85.946000
G1X9.029100Y85.933200
G1X9.028500Y85.933200
G1X9.028200Y85.933100
G1X8.991600Y85.933200
G1X8.982200Y85.933200
G1X8.951200Y85.932900
G1X8.950100Y85.933200
G1X8.948600Y85.933200
G1X8.914300Y85.942400
G1X8.881100Y85.950900
G1X8.879900Y85.951600
G1X8.878700Y85.951900
G1X8.849600Y85.968800
G1X8.818100Y85.986500
G1X8.817200Y85.987500
G1X8.816000Y85.988100
G1X8.792200Y86.012000
G1X8.766400Y86.037200
G1X8.765700Y86.038500
G1X8.764800Y86.039300
G1X8.747900Y86.068600
G1X8.729600Y86.099600
G1X8.729300Y86.100900
G1X8.728600Y86.102000
G1X8.719000Y86.137900
G1X8.710300Y86.169300

G0Z0.500
G0X24.223600Y94.714900
G1Z-0.100 f25
G1X24.205600Y94.714900 f200
G1X24.187500Y94.712500
G1X24.169300Y94.714900
G1X22.818500Y94.714900
G1X22.735900Y94.632200
G1X22.735900Y94.632100
G1X22.686600Y94.582900
G1X22.684800Y94.581000
G1X22.684700Y94.580900
G1X22.622000Y94.544700
G1X22.571700Y94.531300
G1X22.552200Y94.526000
G1X22.479700Y94.526000
G1X22.479600Y94.526000
G1X22.409700Y94.544700
G1X22.347000Y94.580900
G1X22.296700Y94.631200
G1X22.295900Y94.632000
G1X22.295800Y94.632100
G1X22.259600Y94.694800
G1X22.246200Y94.745100
G1X22.240900Y94.764600
G1X22.240900Y94.837100
G1X22.240900Y97.407100
G1X22.082600Y97.789500
G1X21.789500Y98.082600
G1X21.407100Y98.240900
G1X20.901900Y98.240900
G1X6.842000Y98.240900
G1X6.840500Y98.240500
G1X6.807900Y98.240900
G1X6.771400Y98.240900
G1X6.769700Y98.241400
G1X6.599000Y98.243500
G1X6.441200Y98.178100
G1X6.439800Y98.177000
G1X6.406700Y98.163800
G1X6.375900Y98.151000
G1X6.374200Y98.150800
G1X5.259000Y97.704700
G1X5.244700Y97.696400
G1X5.225500Y97.691300
G1X5.207100Y97.683900
G1X5.190500Y97.682000
G1X5.174800Y97.677700
G1X5.155200Y97.677700
G1X5.135100Y97.675300
G1X5.118600Y97.677700
G1X5.102300Y97.677700
G1X5.083000Y97.682900
G1X5.063500Y97.685700
G1X5.048700Y97.692100
G1X5.032400Y97.696400
G1X5.015000Y97.706500
G1X4.996900Y97.714200
G1X4.984100Y97.724400
G1X4.969700Y97.732600
G1X4.955600Y97.746800
G1X4.940100Y97.758900
G1X4.930300Y97.772100
G1X4.918500Y97.783800
G1X4.908500Y97.801200
G1X4.896700Y97.816900
G1X4.890700Y97.832100
G1X4.882300Y97.846500
G1X4.877200Y97.865800
G1X4.869800Y97.884100
G1X4.867900Y97.900500
G1X4.728000Y98.422800
G1X4.674700Y98.515100
G1X4.674500Y98.515200
G1X4.638300Y98.577900
G1X4.624900Y98.628200
G1X4.619600Y98.647700
G1X4.619600Y98.720200
G1X4.619600Y98.720300
G1X4.638300Y98.790200
G1X4.674500Y98.852900
G1X4.725700Y98.904100
G1X4.788400Y98.940300
G1X4.838700Y98.953700
G1X4.858200Y98.959000
G1X4.930700Y98.959000
G1X25.735200Y98.959000
G1X25.805100Y98.940300
G1X25.867800Y98.904100
G1X25.919000Y98.852900
G1X25.955200Y98.790200
G1X25.973900Y98.720300
G1X25.973900Y98.647800
G1X25.955200Y98.577900
G1X25.919000Y98.515200
G1X25.867800Y98.464000
G1X25.354900Y97.951200
G1X25.354900Y96.588600
G1X25.723600Y96.220000
G1X25.766600Y96.177000
G1X25.774800Y96.168800
G1X25.811000Y96.106100
G1X25.829700Y96.036200
G1X25.829700Y95.963700
G1X25.811000Y95.893800
G1X25.774800Y95.831100
G1X25.723600Y95.779900
G1X25.407600Y95.464000
G1X25.389700Y95.443600
G1X25.382500Y95.438900
G1X25.376300Y95.432600
G1X25.351700Y95.418400
G1X25.329400Y95.403600
G1X25.321400Y95.400900
G1X25.313600Y95.396400
G1X25.286200Y95.389100
G1X25.226400Y95.369000
G1X25.218700Y95.364500
G1X25.191600Y95.357300
G1X25.165900Y95.348600
G1X25.157200Y95.348100
G1X25.148800Y95.345800
G1X25.121000Y95.345800
G1X24.996000Y95.294000
G1X24.987900Y95.288600
G1X24.962200Y95.280000
G1X24.937900Y95.269900
G1X24.928400Y95.268700
G1X24.800000Y95.225500
G1X24.799500Y95.225100
G1X24.779100Y95.207300
G1X24.771000Y95.203400
G1X24.763800Y95.197800
G1X24.738700Y95.187500
G1X24.738100Y95.187200
G1X24.642500Y95.091500
G1X24.637100Y95.083400
G1X24.616800Y95.065700
G1X24.598100Y95.047000
G1X24.589800Y95.042300
G1X24.487800Y94.953400
G1X24.487600Y94.953100
G1X24.475500Y94.928500
G1X24.469400Y94.921600
G1X24.464900Y94.913800
G1X24.446800Y94.895800
G1X24.443600Y94.883700
G1X24.434500Y94.868100
G1X24.427600Y94.851200
G1X24.416400Y94.836800
G1X24.407400Y94.821000
G1X24.394400Y94.808100
G1X24.383500Y94.793800
G1X24.369200Y94.782900
G1X24.356200Y94.769800
G1X24.340300Y94.760700
G1X24.326100Y94.749700
G1X24.309400Y94.742800
G1X24.293500Y94.733600
G1X24.275700Y94.728900
G1X24.259200Y94.722000
G1X24.241200Y94.719600
G1X24.223600Y94.714900

G0Z0.500
G0X14.361600Y40.844300
G1Z-0.100 f25
G1X14.347400Y40.855300 f200
G1X14.331300Y40.864500
G1X14.318400Y40.877500
G1X14.304200Y40.888300
G1X14.293300Y40.902600
G1X14.280100Y40.915700
G1X14.270900Y40.931700
G1X14.260100Y40.945700
G1X14.253300Y40.962300
G1X14.243900Y40.978400
G1X14.239200Y40.996100
G1X14.232300Y41.012600
G1X14.229900Y41.030800
G1X14.225200Y41.048300
G1X14.225200Y41.066300
G1X14.222800Y41.084300
G1X14.225200Y41.102700
G1X14.225200Y41.120800
G1X14.229900Y41.138100
G1X14.232200Y41.156200
G1X14.239200Y41.173000
G1X14.243900Y41.190700
G1X14.253100Y41.206500
G1X14.259900Y41.223100
G1X14.270900Y41.237300
G1X14.280100Y41.253400
G1X14.293100Y41.266300
G1X14.303900Y41.280500
G1X14.318200Y41.291400
G1X14.331300Y41.304600
G1X14.347300Y41.313800
G1X14.361300Y41.324600
G1X14.377900Y41.331400
G1X14.394000Y41.340800
G1X14.411700Y41.345500
G1X14.428200Y41.352400
G1X14.446400Y41.354800
G1X14.463900Y41.359500
G1X14.481900Y41.359500
G1X14.499900Y41.361900
G1X14.518300Y41.359500
G1X14.720200Y41.359500
G1X14.790100Y41.340800
G1X14.852800Y41.304600
G1X14.904000Y41.253400
G1X14.940200Y41.190700
G1X14.958900Y41.120800
G1X14.958900Y41.048300
G1X14.958900Y40.897300
G1X14.958900Y40.897200
G1X14.954000Y40.879300
G1X14.940200Y40.827400
G1X14.904000Y40.764700
G1X14.852800Y40.713500
G1X14.790100Y40.677300
G1X14.720200Y40.658600
G1X14.647700Y40.658600
G1X14.647600Y40.658600
G1X14.629700Y40.663500
G1X14.577800Y40.677300
G1X14.515100Y40.713500
G1X14.463900Y40.764700
G1X14.463900Y40.764900
G1X14.402800Y40.826000
G1X14.394000Y40.828300
G1X14.378200Y40.837500
G1X14.361600Y40.844300

G0Z0.500
G0X51.514600Y44.378400
G1Z-0.100 f25
G1X51.577300Y44.414600 f200
G1X51.647200Y44.433300
G1X51.719700Y44.433300
G1X51.789600Y44.414600
G1X51.852300Y44.378400
G1X51.903500Y44.327200
G1X51.939700Y44.264500
G1X51.958400Y44.194600
G1X51.958400Y44.122100
G1X51.958400Y44.122000
G1X51.958500Y41.877700
G1X51.958500Y41.831600
G1X51.958500Y41.805200
G1X51.939800Y41.735300
G1X51.903600Y41.672600
G1X51.852400Y41.621400
G1X51.789700Y41.585200
G1X51.719800Y41.566500
G1X51.647300Y41.566500
G1X51.577400Y41.585200
G1X51.514700Y41.621400
G1X51.463500Y41.672600
G1X51.463500Y41.672700
G1X50.681200Y42.454900
G1X49.279600Y42.454900
G1X49.209700Y42.473600
G1X49.147000Y42.509800
G1X49.095800Y42.561000
G1X49.059600Y42.623700
G1X49.040900Y42.693600
G1X49.040900Y42.766100
G1X49.040900Y42.920700
G1X49.038600Y42.941200
G1X49.040900Y42.956500
G1X49.040900Y42.972500
G1X49.046300Y42.992600
G1X49.049300Y43.012800
G1X49.055500Y43.026900
G1X49.059600Y43.042400
G1X49.070100Y43.060500
G1X49.078200Y43.079200
G1X49.087900Y43.091200
G1X49.095800Y43.105100
G1X49.110800Y43.120000
G1X49.123300Y43.135800
G1X49.135600Y43.144800
G1X49.147000Y43.156300
G1X49.165400Y43.166800
G1X49.587000Y43.478600
G1X49.598300Y43.490000
G1X49.616600Y43.500500
G1X49.632800Y43.512600
G1X49.647200Y43.518200
G1X49.661000Y43.526200
G1X49.681100Y43.531600
G1X49.700100Y43.539100
G1X49.715600Y43.540800
G1X49.730900Y43.544900
G1X49.752000Y43.544900
G1X49.772100Y43.547200
G1X49.787200Y43.544900
G1X50.681200Y43.544900
G1X51.514600Y44.378400

G0Z0.500
G0X30.635900Y91.148900
G1Z-0.100 f25
G1X31.364000Y91.148900 f200
G1X31.878900Y90.634000
G1X31.878900Y89.905900
G1X31.364000Y89.391000
G1X30.635900Y89.391000
G1X30.121000Y89.905900
G1X30.121000Y90.634000
G1X30.635900Y91.148900

G0Z0.500
G0X22.825900Y10.878900
G1Z-0.100 f25
G1X23.554000Y10.878900 f200
G1X24.068900Y10.364000
G1X24.068900Y9.919800
G1X30.467600Y3.521100
G1X30.559000Y3.612500
G1X31.287100Y3.612500
G1X31.802000Y3.097600
G1X31.802000Y2.369500
G1X31.287100Y1.854600
G1X30.559000Y1.854600
G1X30.044100Y2.369500
G1X30.044100Y3.097600
G1X30.078800Y3.132300
G1X23.822000Y9.389100
G1X23.554000Y9.121000
G1X22.825900Y9.121000
G1X22.311000Y9.635900
G1X22.311000Y10.364000
G1X22.825900Y10.878900

G0Z0.500
G0X49.635900Y70.338900
G1Z-0.100 f25
G1X50.364000Y70.338900 f200
G1X50.878900Y69.824000
G1X50.878900Y69.095900
G1X50.364000Y68.581000
G1X49.635900Y68.581000
G1X49.121000Y69.095900
G1X49.121000Y69.824000
G1X49.216300Y69.919200
G1X47.533600Y71.388800
G1X47.525800Y71.393200
G1X47.507300Y71.411800
G1X47.486200Y71.430100
G1X47.480900Y71.438100
G1X47.474600Y71.444300
G1X47.461300Y71.467300
G1X47.445900Y71.490200
G1X47.443000Y71.499000
G1X47.438300Y71.506900
G1X47.431300Y71.533000
G1X47.422500Y71.558700
G1X47.421900Y71.568000
G1X47.419500Y71.576800
G1X47.419500Y71.603600
G1X47.417600Y71.631100
G1X47.419400Y71.640200
G1X47.392200Y89.974400
G1X47.390200Y89.984900
G1X47.392200Y90.009900
G1X47.392100Y90.035800
G1X47.395000Y90.046500
G1X47.395800Y90.057100
G1X47.404200Y90.080900
G1X47.410800Y90.105700
G1X47.416200Y90.114900
G1X47.419800Y90.125400
G1X47.434300Y90.146400
G1X47.446900Y90.168500
G1X47.454700Y90.176200
G1X47.460700Y90.185100
G1X47.479900Y90.201500
G1X47.498000Y90.219700
G1X47.507500Y90.225100
G1X49.324200Y91.782800
G1X49.121000Y91.985900
G1X49.121000Y92.714000
G1X49.635900Y93.228900
G1X50.364000Y93.228900
G1X50.878900Y92.714000
G1X50.878900Y91.985900
G1X50.364000Y91.471000
G1X49.805400Y91.471000
G1X47.942200Y89.873600
G1X47.969100Y71.738500
G1X49.606100Y70.309000
G1X49.635900Y70.338900

G0Z0.500
G0X49.635900Y64.688900
G1Z-0.100 f25
G1X50.364000Y64.688900 f200
G1X50.878900Y64.174000
G1X50.878900Y63.445900
G1X50.364000Y62.931000
G1X49.635900Y62.931000
G1X49.121000Y63.445900
G1X49.121000Y64.174000
G1X49.635900Y64.688900

G0Z0.500
G0X49.635900Y80.528900
G1Z-0.100 f25
G1X50.364000Y80.528900 f200
G1X50.878900Y80.014000
G1X50.878900Y79.285900
G1X50.364000Y78.771000
G1X49.635900Y78.771000
G1X49.121000Y79.285900
G1X49.121000Y80.014000
G1X49.635900Y80.528900

G0Z0.500
G0X49.635900Y83.068900
G1Z-0.100 f25
G1X50.364000Y83.068900 f200
G1X50.878900Y82.554000
G1X50.878900Y81.825900
G1X50.364000Y81.311000
G1X49.635900Y81.311000
G1X49.121000Y81.825900
G1X49.121000Y82.554000
G1X49.635900Y83.068900

G0Z0.500
G0X50.083400Y88.167300
G1Z-0.100 f25
G1X50.103300Y88.164900 f200
G1X50.122800Y88.164900
G1X50.138800Y88.160600
G1X50.155400Y88.158600
G1X50.173500Y88.151300
G1X50.182700Y88.148900
G1X50.364000Y88.148900
G1X50.878900Y87.634000
G1X50.878900Y86.905900
G1X50.548800Y86.575900
G1X50.540200Y86.543700
G1X50.504000Y86.481000
G1X50.452800Y86.429800
G1X50.390100Y86.393600
G1X50.320200Y86.374900
G1X50.247700Y86.374900
G1X49.462100Y86.374900
G1X48.880300Y85.874800
G1X48.955400Y78.206300
G1X48.964200Y78.208700
G1X48.964400Y78.208700
G1X48.964700Y78.208800
G1X49.000100Y78.208800
G1X49.036700Y78.208900
G1X49.037000Y78.208800
G1X49.037200Y78.208800
G1X49.060000Y78.202600
G1X49.106600Y78.190200
G1X49.106800Y78.190000
G1X49.107100Y78.190000
G1X49.132100Y78.175400
G1X49.169400Y78.154100
G1X49.220600Y78.103000
G1X49.220700Y78.102700
G1X49.318500Y78.004900
G1X50.320200Y78.004900
G1X50.390100Y77.986200
G1X50.452800Y77.950000
G1X50.504000Y77.898800
G1X50.540200Y77.836100
G1X50.558900Y77.766200
G1X50.558900Y77.693700
G1X50.558900Y75.224000
G1X50.878900Y74.904000
G1X50.878900Y74.175900
G1X50.558900Y73.855900
G1X50.558900Y71.343600
G1X50.540200Y71.273700
G1X50.504000Y71.211000
G1X50.452800Y71.159800
G1X50.390100Y71.123600
G1X50.320200Y71.104900
G1X50.247700Y71.104900
G1X49.971400Y71.104900
G1X49.944800Y71.103100
G1X49.935700Y71.104900
G1X49.926100Y71.104900
G1X49.899500Y71.112100
G1X49.873700Y71.117100
G1X49.865600Y71.121200
G1X49.856200Y71.123600
G1X49.832800Y71.137200
G1X49.808700Y71.148900
G1X49.801600Y71.155200
G1X49.793500Y71.159800
G1X49.774800Y71.178600
G1X48.848600Y71.987400
G1X48.840800Y71.991800
G1X48.822300Y72.010400
G1X48.801200Y72.028700
G1X48.795900Y72.036700
G1X48.789600Y72.042900
G1X48.776400Y72.065900
G1X48.760900Y72.088800
G1X48.758000Y72.097600
G1X48.753300Y72.105500
G1X48.746300Y72.131600
G1X48.737500Y72.157300
G1X48.736900Y72.166600
G1X48.734500Y72.175400
G1X48.734500Y72.202100
G1X48.732600Y72.229600
G1X48.734500Y72.238700
G1X48.729400Y75.600200
G1X48.538800Y75.776400
G1X48.535400Y75.778300
G1X48.513700Y75.799600
G1X48.488800Y75.822600
G1X48.486500Y75.826300
G1X48.483700Y75.829000
G1X48.468000Y75.855600
G1X48.450200Y75.883800
G1X48.449000Y75.887900
G1X48.446900Y75.891300
G1X48.438600Y75.921300
G1X48.428700Y75.953000
G1X48.428500Y75.957300
G1X48.427500Y75.961000
G1X48.427200Y75.991800
G1X48.425900Y76.025400
G1X48.426800Y76.029500
G1X48.329500Y85.972900
G1X48.327300Y85.984500
G1X48.329200Y86.009100
G1X48.328900Y86.033500
G1X48.331800Y86.044800
G1X48.332700Y86.056800
G1X48.340900Y86.080200
G1X48.346900Y86.103600
G1X48.352600Y86.113700
G1X48.356600Y86.125100
G1X48.370900Y86.146000
G1X48.382500Y86.166600
G1X48.390500Y86.174700
G1X48.397400Y86.184900
G1X48.416800Y86.201600
G1X48.433200Y86.218300
G1X48.443000Y86.224000
G1X48.713300Y86.456400
G1X48.710900Y88.072700
G1X48.710900Y88.076700
G1X48.710800Y88.144700
G1X48.710900Y88.145000
G1X48.710900Y88.145200
G1X48.717000Y88.168000
G1X48.729500Y88.214600
G1X48.729600Y88.214800
G1X48.729700Y88.215100
G1X48.744200Y88.240200
G1X48.765600Y88.277400
G1X48.816700Y88.328600
G1X48.817000Y88.328700
G1X48.817100Y88.328900
G1X48.843600Y88.344200
G1X48.879300Y88.364900
G1X48.879600Y88.365000
G1X48.879800Y88.365100
G1X48.924800Y88.377100
G1X48.949200Y88.383700
G1X48.949400Y88.383700
G1X48.949700Y88.383800
G1X48.985100Y88.383800
G1X49.021700Y88.383900
G1X49.022000Y88.383800
G1X49.022200Y88.383800
G1X49.045000Y88.377700
G1X49.091600Y88.365200
G1X49.091800Y88.365100
G1X49.092100Y88.365000
G1X49.117200Y88.350500
G1X49.154400Y88.329100
G1X49.205600Y88.278000
G1X49.205700Y88.277700
G1X49.318500Y88.164900
G1X50.066800Y88.164900
G1X50.083400Y88.167300

G0Z0.500
G0X49.635900Y85.608900
G1Z-0.100 f25
G1X50.364000Y85.608900 f200
G1X50.878900Y85.094000
G1X50.878900Y84.365900
G1X50.364000Y83.851000
G1X49.635900Y83.851000
G1X49.121000Y84.365900
G1X49.121000Y85.094000
G1X49.635900Y85.608900

G0Z0.500
G0X43.905900Y54.148900
G1Z-0.100 f25
G1X44.634000Y54.148900 f200
G1X45.148900Y53.634000
G1X45.148900Y53.196500
G1X46.486700Y52.661300
G1X46.506100Y52.656200
G1X46.520500Y52.647800
G1X46.535700Y52.641800
G1X46.551400Y52.630000
G1X46.568800Y52.620000
G1X46.580500Y52.608200
G1X46.593700Y52.598400
G1X46.605900Y52.582900
G1X46.620000Y52.568800
G1X46.628200Y52.554400
G1X46.638400Y52.541600
G1X46.646100Y52.523500
G1X46.656200Y52.506100
G1X46.660500Y52.489800
G1X46.666900Y52.475000
G1X46.669700Y52.455500
G1X46.674900Y52.436200
G1X46.674900Y52.419900
G1X46.677300Y52.403400
G1X46.674900Y52.383300
G1X46.674900Y50.397500
G1X46.695700Y48.255000
G1X51.325000Y49.798100
G1X51.325000Y54.286000
G1X50.300000Y55.311000
G1X49.635900Y55.311000
G1X49.121000Y55.825900
G1X49.121000Y56.554000
G1X49.635900Y57.068900
G1X50.364000Y57.068900
G1X50.878900Y56.554000
G1X50.878900Y55.825900
G1X50.720800Y55.667900
G1X51.325000Y55.063700
G1X51.325000Y88.262500
G1X50.393800Y88.960900
G1X50.364000Y88.931000
G1X49.635900Y88.931000
G1X49.121000Y89.445900
G1X49.121000Y90.174000
G1X49.635900Y90.688900
G1X50.364000Y90.688900
G1X50.878900Y90.174000
G1X50.878900Y89.445900
G1X50.786600Y89.353600
G1X51.751500Y88.629900
G1X51.768800Y88.620000
G1X51.780700Y88.608100
G1X51.793900Y88.598200
G1X51.806000Y88.582800
G1X51.820000Y88.568800
G1X51.828300Y88.554300
G1X51.838600Y88.541300
G1X51.846300Y88.523200
G1X51.856200Y88.506100
G1X51.860500Y88.489800
G1X51.867000Y88.474700
G1X51.869800Y88.455300
G1X51.874900Y88.436200
G1X51.874900Y88.419700
G1X51.877300Y88.403000
G1X51.874900Y88.383200
G1X51.874900Y54.363700
G1X51.874900Y49.608200
G1X51.876600Y49.580200
G1X51.874900Y49.571900
G1X51.874900Y49.563700
G1X51.867800Y49.537200
G1X51.862100Y49.509300
G1X51.858300Y49.501800
G1X51.856200Y49.493800
G1X51.842100Y49.469500
G1X51.829700Y49.444600
G1X51.824200Y49.438400
G1X51.820000Y49.431100
G1X51.800300Y49.411400
G1X51.781700Y49.390400
G1X51.774600Y49.385800
G1X51.768800Y49.379900
G1X51.744300Y49.365800
G1X51.721300Y49.350600
G1X51.713600Y49.348100
G1X51.706100Y49.343700
G1X51.678200Y49.336300
G1X44.674900Y47.001800
G1X44.674900Y36.169900
G1X45.589600Y35.712500
G1X45.945900Y36.068900
G1X46.674000Y36.068900
G1X47.188900Y35.554000
G1X47.188900Y34.825900
G1X46.674000Y34.311000
G1X45.945900Y34.311000
G1X45.431000Y34.825900
G1X45.431000Y35.177000
G1X44.302000Y35.741500
G1X44.293800Y35.743700
G1X44.269300Y35.757900
G1X44.244600Y35.770200
G1X44.238500Y35.775700
G1X44.231100Y35.779900
G1X44.211400Y35.799700
G1X44.190400Y35.818200
G1X44.185800Y35.825300
G1X44.179900Y35.831100
G1X44.165800Y35.855700
G1X44.150600Y35.878600
G1X44.148100Y35.886300
G1X44.143700Y35.893800
G1X44.136300Y35.921700
G1X44.127700Y35.947300
G1X44.127200Y35.955500
G1X44.125000Y35.963700
G1X44.125000Y35.991800
G1X44.123300Y36.019700
G1X44.125000Y36.028000
G1X44.125000Y47.185200
G1X44.122700Y47.207000
G1X44.123700Y47.213200
G1X44.123300Y47.219700
G1X44.125000Y47.228000
G1X44.125000Y47.236200
G1X44.130700Y47.257300
G1X44.134000Y47.278500
G1X44.136500Y47.283900
G1X44.137800Y47.290600
G1X44.141600Y47.298100
G1X44.143700Y47.306100
G1X44.154800Y47.325300
G1X44.163400Y47.344700
G1X44.167300Y47.349500
G1X44.170200Y47.355300
G1X44.175700Y47.361500
G1X44.179900Y47.368800
G1X44.195500Y47.384300
G1X44.208900Y47.401000
G1X44.213900Y47.404600
G1X44.218200Y47.409500
G1X44.225300Y47.414100
G1X44.231100Y47.420000
G1X44.249900Y47.430800
G1X44.267400Y47.443600
G1X44.273500Y47.445900
G1X44.278600Y47.449300
G1X44.286400Y47.451900
G1X44.293800Y47.456200
G1X44.314700Y47.461700
G1X46.146700Y48.166700
G1X46.125400Y50.362300
G1X46.125000Y50.363700
G1X46.125000Y50.402600
G1X46.124700Y50.433500
G1X46.125000Y50.434600
G1X46.125000Y52.213800
G1X44.933400Y52.690500
G1X44.634000Y52.391000
G1X43.905900Y52.391000
G1X43.391000Y52.905900
G1X43.391000Y53.634000
G1X43.466600Y53.709500
G1X38.531700Y58.143400
G1X38.524800Y58.147300
G1X38.503200Y58.169000
G1X38.483000Y58.187000
G1X38.479200Y58.192900
G1X38.473600Y58.198500
G1X38.458200Y58.225300
G1X38.443500Y58.247700
G1X38.441400Y58.254300
G1X38.437400Y58.261200
G1X38.429700Y58.290200
G1X38.421000Y58.316500
G1X38.420700Y58.323800
G1X38.418700Y58.331100
G1X38.418700Y58.361000
G1X38.417200Y58.388900
G1X38.418700Y58.395800
G1X38.418700Y76.094500
G1X34.401000Y76.125000
G1X33.705900Y76.125000
G1X33.720800Y72.093800
G1X34.695000Y70.947900
G1X34.725900Y70.978900
G1X35.454000Y70.978900
G1X35.968900Y70.464000
G1X35.968900Y69.735900
G1X35.454000Y69.221000
G1X34.725900Y69.221000
G1X34.211000Y69.735900
G1X34.211000Y70.464000
G1X34.304900Y70.557800
G1X33.244000Y71.805700
G1X33.226900Y71.822600
G1X33.221100Y71.832500
G1X33.213300Y71.841700
G1X33.202800Y71.864000
G1X33.190400Y71.885100
G1X33.187300Y71.896700
G1X33.182300Y71.907100
G1X33.178000Y71.930900
G1X33.171400Y71.955000
G1X33.171400Y71.967100
G1X33.169300Y71.978300
G1X33.171200Y72.002300
G1X33.155200Y76.363100
G1X33.155000Y76.363700
G1X33.155000Y76.408300
G1X33.154900Y76.435200
G1X33.155000Y76.435500
G1X33.155000Y76.436200
G1X33.164400Y76.471300
G1X33.173300Y76.505200
G1X33.173600Y76.505700
G1X33.173700Y76.506100
G1X33.190200Y76.534600
G1X33.209300Y76.568000
G1X33.209600Y76.568300
G1X33.209900Y76.568800
G1X33.243600Y76.602400
G1X33.260300Y76.619300
G1X33.260600Y76.619400
G1X33.261100Y76.620000
G1X33.296300Y76.640300
G1X33.322800Y76.655800
G1X33.323400Y76.655900
G1X33.323800Y76.656200
G1X33.354000Y76.664200
G1X33.392700Y76.674800
G1X33.393400Y76.674800
G1X33.393700Y76.674900
G1X33.429300Y76.674900
G1X33.465200Y76.675000
G1X33.465500Y76.674900
G1X34.364700Y76.674900
G1X34.365800Y76.675200
G1X34.405400Y76.674900
G1X34.436200Y76.674900
G1X34.437100Y76.674600
G1X38.692400Y76.642300
G1X38.729900Y76.642300
G1X38.731000Y76.642000
G1X38.732000Y76.642000
G1X38.764800Y76.632900
G1X38.799800Y76.623600
G1X38.800700Y76.623100
G1X38.801700Y76.622800
G1X38.831700Y76.605200
G1X38.862500Y76.587400
G1X38.863200Y76.586600
G1X38.864200Y76.586100
G1X38.886600Y76.563200
G1X38.913700Y76.536200
G1X38.914400Y76.535000
G1X38.914900Y76.534500
G1X38.930000Y76.508000
G1X38.949900Y76.473500
G1X38.950100Y76.472500
G1X38.950700Y76.471600
G1X38.960200Y76.434800
G1X38.968600Y76.403600
G1X38.968600Y76.402600
G1X38.968900Y76.401500
G1X38.968600Y76.365400
G1X38.968600Y58.489900
G1X43.855900Y54.098900
G1X43.905900Y54.148900

G0Z0.500
G0X42.094000Y54.148900
G1Z-0.100 f25
G1X42.608900Y53.634000 f200
G1X42.608900Y53.409300
G1X42.613700Y53.391100
G1X42.622600Y53.364100
G1X42.623000Y53.356600
G1X42.624900Y53.349500
G1X42.624900Y53.320300
G1X42.626400Y53.291700
G1X42.624900Y53.284600
G1X42.624900Y52.613600
G1X42.606200Y52.543700
G1X42.570000Y52.481000
G1X42.518800Y52.429800
G1X42.456100Y52.393600
G1X42.386200Y52.374900
G1X42.313700Y52.374900
G1X41.163700Y52.374900
G1X40.674900Y51.886000
G1X40.674900Y49.458600
G1X41.048600Y49.084900
G1X41.661500Y49.084900
G1X41.663800Y49.085500
G1X41.700000Y49.084900
G1X41.731700Y49.084900
G1X41.733700Y49.084300
G1X41.736300Y49.084300
G1X41.768000Y49.075100
G1X41.801600Y49.066200
G1X41.803900Y49.064800
G1X41.805900Y49.064300
G1X41.832700Y49.048200
G1X41.864300Y49.030000
G1X41.866000Y49.028300
G1X41.868000Y49.027100
G1X41.891600Y49.002600
G1X41.915500Y48.978800
G1X41.916600Y48.976800
G1X41.918300Y48.975100
G1X41.934300Y48.946100
G1X41.951700Y48.916100
G1X41.952300Y48.913700
G1X41.953400Y48.911800
G1X41.961500Y48.879100
G1X41.970400Y48.846200
G1X41.970400Y48.843900
G1X41.971000Y48.841600
G1X41.970400Y48.805400
G1X41.970400Y48.773700
G1X41.969800Y48.771700
G1X41.969800Y48.769100
G1X41.960600Y48.737400
G1X41.951700Y48.703800
G1X41.950300Y48.701500
G1X41.949800Y48.699500
G1X41.933700Y48.672800
G1X41.915500Y48.641100
G1X41.914600Y48.640300
G1X41.913400Y48.638100
G1X41.912400Y48.637200
G1X41.911700Y48.635900
G1X41.884400Y48.609600
G1X41.874200Y48.599500
G1X41.829600Y48.493700
G1X41.826000Y48.479100
G1X41.815700Y48.460800
G1X41.807500Y48.441100
G1X41.798100Y48.429100
G1X41.743400Y48.330800
G1X41.740000Y48.306500
G1X41.736400Y48.274800
G1X41.735100Y48.271700
G1X41.734700Y48.268300
G1X41.721800Y48.237900
G1X41.713200Y48.216200
G1X41.712500Y48.103400
G1X41.714700Y48.088800
G1X41.712300Y48.068300
G1X41.712200Y48.046500
G1X41.708000Y48.031600
G1X41.695100Y47.919500
G1X41.700900Y47.897100
G1X41.710100Y47.865300
G1X41.710100Y47.862000
G1X41.711000Y47.858800
G1X41.710800Y47.826600
G1X41.711400Y47.792800
G1X41.710500Y47.789500
G1X41.618900Y33.440200
G1X41.620300Y33.412800
G1X41.618700Y33.405700
G1X41.618700Y33.397500
G1X41.610800Y33.369100
G1X41.597600Y33.307700
G1X41.610700Y33.235800
G1X41.617400Y33.210400
G1X41.617300Y33.200000
G1X41.619200Y33.189800
G1X41.617100Y33.163800
G1X41.616600Y33.090600
G1X41.639900Y33.033600
G1X41.652900Y33.006100
G1X41.654400Y32.998000
G1X41.657100Y32.991400
G1X41.660500Y32.964200
G1X41.672100Y32.900300
G1X41.712000Y32.838400
G1X41.727500Y32.818000
G1X41.731300Y32.808600
G1X41.737000Y32.799800
G1X41.745000Y32.774900
G1X41.772700Y32.706900
G1X41.816900Y32.662200
G1X41.838500Y32.642600
G1X41.842700Y32.636000
G1X41.848200Y32.630500
G1X41.862200Y32.605900
G1X41.896800Y32.552300
G1X41.956900Y32.510800
G1X41.979600Y32.497500
G1X41.986900Y32.490100
G1X41.995300Y32.484300
G1X42.012100Y32.464500
G1X42.063500Y32.412400
G1X42.122100Y32.387700
G1X42.149000Y32.378100
G1X42.155300Y32.373700
G1X42.162500Y32.370700
G1X42.185000Y32.353200
G1X42.237300Y32.317000
G1X42.309800Y32.301400
G1X42.335100Y32.297900
G1X42.344300Y32.294000
G1X42.354600Y32.291800
G1X42.378300Y32.279600
G1X42.445200Y32.251400
G1X42.508200Y32.251000
G1X42.537000Y32.252500
G1X42.544600Y32.250800
G1X42.552500Y32.250800
G1X42.579800Y32.243300
G1X43.740400Y31.993500
G1X43.747600Y31.993500
G1X43.776800Y31.985600
G1X43.804600Y31.979700
G1X43.810500Y31.976600
G1X43.817500Y31.974800
G1X43.843800Y31.959600
G1X43.869000Y31.946700
G1X43.874000Y31.942200
G1X43.880200Y31.938600
G1X43.901600Y31.917100
G1X43.922700Y31.898100
G1X43.926300Y31.892400
G1X43.931400Y31.887400
G1X43.946300Y31.861500
G1X43.962000Y31.837300
G1X43.964100Y31.830700
G1X43.967600Y31.824700
G1X43.975000Y31.796900
G1X43.984200Y31.768500
G1X43.984500Y31.761300
G1X43.986300Y31.754800
G1X43.986300Y31.726300
G1X43.987800Y31.696100
G1X43.986300Y31.689200
G1X43.986300Y31.682300
G1X43.978600Y31.653500
G1X43.972500Y31.625300
G1X43.969400Y31.619400
G1X43.967600Y31.612400
G1X43.952400Y31.586100
G1X43.939500Y31.560900
G1X43.935000Y31.555900
G1X43.931400Y31.549700
G1X43.909900Y31.528300
G1X43.890900Y31.507200
G1X43.885200Y31.503600
G1X43.880200Y31.498500
G1X43.854300Y31.483600
G1X43.830100Y31.467900
G1X43.823500Y31.465800
G1X43.817500Y31.462300
G1X43.789700Y31.454900
G1X43.761300Y31.445700
G1X43.754100Y31.445400
G1X43.747600Y31.443600
G1X43.719100Y31.443600
G1X43.688900Y31.442100
G1X43.682000Y31.443600
G1X43.611500Y31.443600
G1X43.191600Y31.023700
G1X43.128900Y30.987500
G1X43.059000Y30.968800
G1X42.986500Y30.968800
G1X42.916600Y30.987500
G1X42.853900Y31.023700
G1X42.802700Y31.074900
G1X42.802700Y31.075000
G1X42.434100Y31.443600
G1X41.071500Y31.443600
G1X40.792400Y31.164500
G1X40.792400Y28.432700
G1X41.071500Y28.153600
G1X42.434100Y28.153600
G1X42.802700Y28.522300
G1X42.845700Y28.565300
G1X42.853900Y28.573500
G1X42.916600Y28.609700
G1X42.986500Y28.628400
G1X43.059000Y28.628400
G1X43.128900Y28.609700
G1X43.191600Y28.573500
G1X43.242800Y28.522300
G1X43.611500Y28.153600
G1X44.974100Y28.153600
G1X45.342700Y28.522300
G1X45.385700Y28.565300
G1X45.393900Y28.573500
G1X45.456600Y28.609700
G1X45.526500Y28.628400
G1X45.599000Y28.628400
G1X45.668900Y28.609700
G1X45.731600Y28.573500
G1X45.782800Y28.522300
G1X46.151500Y28.153600
G1X47.184000Y28.153600
G1X47.220100Y28.154200
G1X47.222400Y28.153600
G1X47.224700Y28.153600
G1X47.256900Y28.145000
G1X47.290400Y28.136600
G1X47.292400Y28.135500
G1X47.294600Y28.134900
G1X47.323700Y28.118100
G1X49.187600Y27.082500
G1X49.190100Y27.081900
G1X49.223100Y27.062800
G1X49.249100Y27.048400
G1X49.250500Y27.047000
G1X49.252800Y27.045700
G1X49.278000Y27.020500
G1X49.301200Y26.998100
G1X49.302400Y26.996100
G1X49.304000Y26.994500
G1X49.321100Y26.964800
G1X49.338400Y26.936000
G1X49.339000Y26.933800
G1X49.340200Y26.931800
G1X49.348900Y26.899200
G1X49.358300Y26.866400
G1X49.358300Y26.863900
G1X49.358900Y26.861900
G1X49.358900Y26.830300
G1X49.359500Y26.794000
G1X49.358900Y26.791600
G1X49.358900Y19.325700
G1X49.340200Y19.255800
G1X49.304000Y19.193100
G1X49.252800Y19.141900
G1X49.190100Y19.105700
G1X49.120200Y19.087000
G1X49.047700Y19.087000
G1X48.977800Y19.105700
G1X48.915100Y19.141900
G1X48.863900Y19.193100
G1X48.863900Y19.193200
G1X48.508100Y19.549100
G1X47.854100Y19.819900
G1X47.145700Y19.819900
G1X46.491700Y19.549100
G1X45.990700Y19.048100
G1X45.719900Y18.394100
G1X45.719900Y12.687500
G1X45.721000Y12.683400
G1X45.727800Y12.667100
G1X45.730200Y12.648900
G1X45.735000Y12.631100
G1X45.735000Y12.613200
G1X45.737400Y12.595300
G1X45.735000Y12.576900
G1X45.735000Y12.558600
G1X45.730300Y12.541100
G1X45.728000Y12.523400
G1X45.721100Y12.506800
G1X45.716300Y12.488700
G1X45.707100Y12.472900
G1X45.700400Y12.456500
G1X45.689300Y12.442100
G1X45.680100Y12.426000
G1X45.667400Y12.413400
G1X45.656500Y12.399000
G1X45.641800Y12.387800
G1X45.628900Y12.374800
G1X45.613200Y12.365800
G1X45.599100Y12.354900
G1X45.582300Y12.348000
G1X45.566200Y12.338600
G1X45.548600Y12.333900
G1X45.532300Y12.327100
G1X45.514100Y12.324700
G1X45.496300Y12.319900
G1X45.478400Y12.319900
G1X45.460500Y12.317500
G1X45.442100Y12.319900
G1X43.057700Y12.319900
G1X43.039300Y12.317500
G1X43.021400Y12.319900
G1X43.003500Y12.319900
G1X42.985700Y12.324700
G1X42.967500Y12.327100
G1X42.951200Y12.333900
G1X42.933600Y12.338600
G1X42.917500Y12.348000
G1X42.900700Y12.354900
G1X42.886600Y12.365800
G1X42.870900Y12.374800
G1X42.858000Y12.387800
G1X42.843300Y12.399000
G1X42.832400Y12.413400
G1X42.819700Y12.426000
G1X42.810500Y12.442100
G1X42.799400Y12.456500
G1X42.792700Y12.472900
G1X42.783500Y12.488700
G1X42.778700Y12.506800
G1X42.771800Y12.523400
G1X42.769500Y12.541100
G1X42.764800Y12.558600
G1X42.764800Y12.576900
G1X42.762400Y12.595300
G1X42.764800Y12.613200
G1X42.764800Y12.631100
G1X42.769600Y12.648900
G1X42.772000Y12.667100
G1X42.778800Y12.683400
G1X42.779900Y12.687500
G1X42.779900Y18.394100
G1X42.509100Y19.048100
G1X42.008100Y19.549100
G1X41.354100Y19.819900
G1X40.645700Y19.819900
G1X39.991700Y19.549100
G1X39.490700Y19.048100
G1X39.219900Y18.394100
G1X39.219900Y17.543700
G1X39.219900Y17.543600
G1X39.215000Y17.525700
G1X39.201200Y17.473800
G1X39.165000Y17.411100
G1X39.113800Y17.359900
G1X39.051100Y17.323700
G1X38.981200Y17.305000
G1X38.908700Y17.305000
G1X38.908600Y17.305000
G1X38.890700Y17.309900
G1X38.838800Y17.323700
G1X38.776100Y17.359900
G1X38.724900Y17.411100
G1X38.724900Y17.411300
G1X38.681200Y17.454900
G1X37.318600Y17.454900
G1X36.354900Y16.491200
G1X36.354900Y15.128500
G1X37.318600Y14.164900
G1X38.681200Y14.164900
G1X38.724900Y14.208600
G1X38.724900Y14.208700
G1X38.774500Y14.258200
G1X38.776000Y14.259800
G1X38.776100Y14.259900
G1X38.838800Y14.296100
G1X38.889100Y14.309500
G1X38.908600Y14.314800
G1X38.981100Y14.314800
G1X38.981200Y14.314800
G1X39.051100Y14.296100
G1X39.113800Y14.259900
G1X39.164100Y14.209600
G1X39.164900Y14.208800
G1X39.165000Y14.208700
G1X39.201200Y14.146000
G1X39.214600Y14.095700
G1X39.219900Y14.076200
G1X39.219900Y14.003700
G1X39.219900Y13.140500
G1X39.220400Y13.138600
G1X39.219900Y13.102400
G1X39.219900Y13.069800
G1X39.219400Y13.068100
G1X39.219400Y13.066100
G1X39.210200Y13.033500
G1X39.201200Y12.999900
G1X39.200200Y12.998200
G1X39.024500Y12.376400
G1X39.022400Y12.360200
G1X39.014800Y12.341900
G1X39.009300Y12.322400
G1X39.000900Y12.308300
G1X38.959300Y12.207900
G1X38.958900Y12.178400
G1X38.958900Y12.145900
G1X38.958400Y12.144200
G1X38.958400Y12.142100
G1X38.948900Y12.108600
G1X38.941900Y12.082500
G1X38.954600Y11.974700
G1X38.958900Y11.958700
G1X38.958900Y11.938200
G1X38.961200Y11.918600
G1X38.958900Y11.902800
G1X38.958900Y8.592700
G1X39.117200Y8.210300
G1X39.410300Y7.917200
G1X39.792700Y7.758900
G1X40.297900Y7.758900
G1X43.576200Y7.758900
G1X43.646100Y7.740200
G1X43.708800Y7.704000
G1X43.760000Y7.652800
G1X43.796200Y7.590100
G1X43.814900Y7.520200
G1X43.814900Y7.447700
G1X43.814900Y6.318600
G1X44.778600Y5.354900
G1X46.141200Y5.354900
G1X46.561100Y5.774800
G1X46.623800Y5.811000
G1X46.693700Y5.829700
G1X46.766200Y5.829700
G1X46.836100Y5.811000
G1X46.898800Y5.774800
G1X46.950000Y5.723600
G1X46.950000Y5.723500
G1X47.318600Y5.354900
G1X48.681200Y5.354900
G1X49.049800Y5.723500
G1X49.049800Y5.723600
G1X49.092800Y5.766600
G1X49.101000Y5.774800
G1X49.163700Y5.811000
G1X49.233600Y5.829700
G1X49.306100Y5.829700
G1X49.376000Y5.811000
G1X49.438700Y5.774800
G1X49.489900Y5.723600
G1X49.858600Y5.354900
G1X49.864900Y5.354900
G1X49.934800Y5.336200
G1X49.997500Y5.300000
G1X50.048700Y5.248800
G1X50.084900Y5.186100
G1X50.103600Y5.116200
G1X50.103600Y5.043700
G1X50.084900Y4.973800
G1X50.048700Y4.911100
G1X49.997500Y4.859900
G1X49.934800Y4.823700
G1X49.925500Y4.821300
G1X49.577000Y4.728000
G1X49.031700Y4.413200
G1X48.586600Y3.968100
G1X48.271800Y3.422800
G1X48.108900Y2.814600
G1X48.108900Y2.185200
G1X48.271800Y1.577100
G1X48.325200Y1.484700
G1X48.345900Y1.448700
G1X48.361400Y1.422000
G1X48.380100Y1.352100
G1X48.380100Y1.279600
G1X48.361400Y1.209700
G1X48.325200Y1.147000
G1X48.274000Y1.095800
G1X48.211300Y1.059600
G1X48.141400Y1.040900
G1X48.068900Y1.040900
G1X32.184300Y1.040900
G1X32.114400Y1.059600
G1X32.051700Y1.095800
G1X32.000500Y1.147000
G1X31.964300Y1.209700
G1X31.945600Y1.279600
G1X31.945600Y1.352100
G1X31.964300Y1.422000
G1X32.000500Y1.484700
G1X32.051700Y1.535900
G1X32.568000Y2.052200
G1X32.568000Y3.414800
G1X31.604300Y4.378500
G1X30.771100Y4.378500
G1X30.711100Y4.394600
G1X30.559000Y4.394600
G1X30.044100Y4.909500
G1X30.044100Y5.027900
G1X24.941200Y10.130900
G1X24.941000Y10.131000
G1X24.889800Y10.182200
G1X24.853600Y10.244900
G1X24.834900Y10.314800
G1X24.834900Y10.681200
G1X23.871200Y11.644900
G1X22.508600Y11.644900
G1X21.544900Y10.681200
G1X21.544900Y9.318600
G1X22.508600Y8.354900
G1X23.695000Y8.354900
G1X23.764900Y8.336200
G1X23.827600Y8.300000
G1X23.877600Y8.249900
G1X26.987800Y5.139900
G1X26.988900Y5.138700
G1X27.039000Y5.088700
G1X27.075200Y5.026000
G1X27.093900Y4.956100
G1X27.093900Y4.883600
G1X27.075200Y4.813700
G1X27.039000Y4.751000
G1X26.987800Y4.699800
G1X26.925100Y4.663600
G1X26.855200Y4.644900
G1X26.782700Y4.644900
G1X25.588600Y4.644900
G1X25.168700Y4.225000
G1X25.106000Y4.188800
G1X25.036100Y4.170100
G1X24.963600Y4.170100
G1X24.893700Y4.188800
G1X24.831000Y4.225000
G1X24.779800Y4.276200
G1X24.779800Y4.276300
G1X24.411200Y4.644900
G1X23.048600Y4.644900
G1X22.084900Y3.681200
G1X22.084900Y2.318600
G1X22.867700Y1.535900
G1X22.904200Y1.499300
G1X22.918900Y1.484700
G1X22.955100Y1.422000
G1X22.973800Y1.352100
G1X22.973800Y1.279600
G1X22.955100Y1.209700
G1X22.918900Y1.147000
G1X22.867700Y1.095800
G1X22.805000Y1.059600
G1X22.735100Y1.040900
G1X22.662600Y1.040900
G1X18.883600Y1.040900
G1X18.813700Y1.059600
G1X18.751000Y1.095800
G1X18.699800Y1.147000
G1X18.663600Y1.209700
G1X18.644900Y1.279600
G1X18.644900Y1.352100
G1X18.644900Y2.681200
G1X17.784600Y3.541600
G1X17.364000Y3.121000
G1X16.635900Y3.121000
G1X16.215300Y3.541700
G1X15.354900Y2.681200
G1X15.354900Y1.279600
G1X15.336200Y1.209700
G1X15.300000Y1.147000
G1X15.248800Y1.095800
G1X15.186100Y1.059600
G1X15.116200Y1.040900
G1X15.043700Y1.040900
G1X4.858300Y1.040900
G1X4.858200Y1.040900
G1X4.840300Y1.045800
G1X4.788400Y1.059600
G1X4.725700Y1.095800
G1X4.674500Y1.147000
G1X4.674400Y1.147100
G1X4.659600Y1.172800
G1X4.638300Y1.209700
G1X4.619600Y1.279600
G1X4.619600Y1.352100
G1X4.619600Y1.352200
G1X4.624500Y1.370100
G1X4.638300Y1.422000
G1X4.674500Y1.484700
G1X4.674700Y1.484800
G1X4.728000Y1.577000
G1X4.890900Y2.185200
G1X4.890900Y2.814600
G1X4.727900Y3.423000
G1X4.633700Y3.586200
G1X4.633400Y3.586400
G1X4.597200Y3.649100
G1X4.578800Y3.718100
G1X4.567100Y3.729800
G1X4.552500Y3.740900
G1X4.541300Y3.755600
G1X4.528500Y3.768300
G1X4.519600Y3.783800
G1X4.508400Y3.798300
G1X4.501400Y3.815400
