(This G-Code generated with CNC-DRILL-GCODE.ulp program)
(running under Eagle CAD.)

N00010  M03 S3000
G00 Z2.00 F400
(----------------------------------------------------------)
( Drill size=1.000mm )
(----------------------------------------------------------)
N00020  G00 X8.974 Y4.289
N00030  G1Z-1.00f50
N00040  G00 Z1.00 F400
N00050  G00 X6.431 Y4.893
N00060  G1Z-1.00f50
N00070  G00 Z1.00 F400
N00080  G00 X4.534 Y6.421
N00090  G1Z-1.00f50
N00100  G00 Z1.00 F400
N00110  G00 X3.429 Y8.626
N00120  G1Z-1.00f50
N00130  G00 Z1.00 F400
N00140  G00 X3.438 Y11.399
N00150  G1Z-1.00f50
N00160  G00 Z1.00 F400
N00170  G00 X4.538 Y13.579
N00180  G1Z-1.00f50
N00190  G00 Z1.00 F400
N00200  G00 X6.443 Y15.101
N00210  G1Z-1.00f50
N00220  G00 Z1.00 F400
N00230  G00 X8.998 Y15.718
N00240  G1Z-1.00f50
N00250  G00 Z1.00 F400
N00260  G00 X8.974 Y18.293
N00270  G1Z-1.00f50
N00280  G00 Z1.00 F400
N00290  G00 X6.431 Y18.898
N00300  G1Z-1.00f50
N00310  G00 Z1.00 F400
N00320  G00 X4.534 Y20.426
N00330  G1Z-1.00f50
N00340  G00 Z1.00 F400
N00350  G00 X3.429 Y22.630
N00360  G1Z-1.00f50
N00370  G00 Z1.00 F400
N00380  G00 X3.438 Y25.403
N00390  G1Z-1.00f50
N00400  G00 Z1.00 F400
N00410  G00 X4.538 Y27.583
N00420  G1Z-1.00f50
N00430  G00 Z1.00 F400
N00440  G00 X6.443 Y29.105
N00450  G1Z-1.00f50
N00460  G00 Z1.00 F400
N00470  G00 X8.998 Y29.722
N00480  G1Z-1.00f50
N00490  G00 Z1.00 F400
N00500  G00 X8.976 Y37.292
N00510  G1Z-1.00f50
N00520  G00 Z1.00 F400
N00530  G00 X6.432 Y37.896
N00540  G1Z-1.00f50
N00550  G00 Z1.00 F400
N00560  G00 X4.536 Y39.424
N00570  G1Z-1.00f50
N00580  G00 Z1.00 F400
N00590  G00 X3.430 Y41.628
N00600  G1Z-1.00f50
N00610  G00 Z1.00 F400
N00620  G00 X3.440 Y44.401
N00630  G1Z-1.00f50
N00640  G00 Z1.00 F400
N00650  G00 X4.540 Y46.582
N00660  G1Z-1.00f50
N00670  G00 Z1.00 F400
N00680  G00 X6.445 Y48.104
N00690  G1Z-1.00f50
N00700  G00 Z1.00 F400
N00710  G00 X9.000 Y48.720
N00720  G1Z-1.00f50
N00730  G00 Z1.00 F400
N00740  G00 X8.975 Y51.290
N00750  G1Z-1.00f50
N00760  G00 Z1.00 F400
N00770  G00 X6.432 Y51.894
N00780  G1Z-1.00f50
N00790  G00 Z1.00 F400
N00800  G00 X4.536 Y53.422
N00810  G1Z-1.00f50
N00820  G00 Z1.00 F400
N00830  G00 X3.430 Y55.627
N00840  G1Z-1.00f50
N00850  G00 Z1.00 F400
N00860  G00 X3.440 Y58.400
N00870  G1Z-1.00f50
N00880  G00 Z1.00 F400
N00890  G00 X4.540 Y60.580
N00900  G1Z-1.00f50
N00910  G00 Z1.00 F400
N00920  G00 X6.444 Y62.102
N00930  G1Z-1.00f50
N00940  G00 Z1.00 F400
N00950  G00 X9.000 Y62.719
N00960  G1Z-1.00f50
N00970  G00 Z1.00 F400
N00980  G00 X8.976 Y70.290
N00990  G1Z-1.00f50
N01000  G00 Z1.00 F400
N01010  G00 X6.432 Y70.894
N01020  G1Z-1.00f50
N01030  G00 Z1.00 F400
N01040  G00 X4.536 Y72.422
N01050  G1Z-1.00f50
N01060  G00 Z1.00 F400
N01070  G00 X3.430 Y74.626
N01080  G1Z-1.00f50
N01090  G00 Z1.00 F400
N01100  G00 X3.440 Y77.399
N01110  G1Z-1.00f50
N01120  G00 Z1.00 F400
N01130  G00 X4.540 Y79.579
N01140  G1Z-1.00f50
N01150  G00 Z1.00 F400
N01160  G00 X6.445 Y81.101
N01170  G1Z-1.00f50
N01180  G00 Z1.00 F400
N01190  G00 X9.000 Y81.718
N01200  G1Z-1.00f50
N01210  G00 Z1.00 F400
N01220  G00 X8.975 Y84.288
N01230  G1Z-1.00f50
N01240  G00 Z1.00 F400
N01250  G00 X6.432 Y84.892
N01260  G1Z-1.00f50
N01270  G00 Z1.00 F400
N01280  G00 X4.536 Y86.421
N01290  G1Z-1.00f50
N01300  G00 Z1.00 F400
N01310  G00 X3.430 Y88.625
N01320  G1Z-1.00f50
N01330  G00 Z1.00 F400
N01340  G00 X3.440 Y91.398
N01350  G1Z-1.00f50
N01360  G00 Z1.00 F400
N01370  G00 X4.540 Y93.578
N01380  G1Z-1.00f50
N01390  G00 Z1.00 F400
N01400  G00 X6.444 Y95.100
N01410  G1Z-1.00f50
N01420  G00 Z1.00 F400
N01430  G00 X9.000 Y95.717
N01440  G1Z-1.00f50
N01450  G00 Z1.00 F400
N01460  G00 X11.547 Y18.887
N01470  G1Z-1.00f50
N01480  G00 Z1.00 F400
N01490  G00 X11.547 Y4.883
N01500  G1Z-1.00f50
N01510  G00 Z1.00 F400
N01520  G00 X11.549 Y84.882
N01530  G1Z-1.00f50
N01540  G00 Z1.00 F400
N01550  G00 X11.549 Y51.884
N01560  G1Z-1.00f50
N01570  G00 Z1.00 F400
N01580  G00 X11.549 Y37.885
N01590  G1Z-1.00f50
N01600  G00 Z1.00 F400
N01610  G00 X11.549 Y70.883
N01620  G1Z-1.00f50
N01630  G00 Z1.00 F400
N01640  G00 X11.585 Y29.126
N01650  G1Z-1.00f50
N01660  G00 Z1.00 F400
N01670  G00 X11.585 Y15.122
N01680  G1Z-1.00f50
N01690  G00 Z1.00 F400
N01700  G00 X11.586 Y95.121
N01710  G1Z-1.00f50
N01720  G00 Z1.00 F400
N01730  G00 X11.586 Y62.122
N01740  G1Z-1.00f50
N01750  G00 Z1.00 F400
N01760  G00 X11.586 Y48.124
N01770  G1Z-1.00f50
N01780  G00 Z1.00 F400
N01790  G00 X11.586 Y81.122
N01800  G1Z-1.00f50
N01810  G00 Z1.00 F400
N01820  G00 X12.460 Y33.500
N01830  G1Z-1.00f50
N01840  G00 Z1.00 F400
N01850  G00 X12.464 Y66.499
N01860  G1Z-1.00f50
N01870  G00 Z1.00 F400
N01880  G00 X13.453 Y27.574
N01890  G1Z-1.00f50
N01900  G00 Z1.00 F400
N01910  G00 X13.453 Y13.570
N01920  G1Z-1.00f50
N01930  G00 Z1.00 F400
N01940  G00 X13.454 Y93.569
N01950  G1Z-1.00f50
N01960  G00 Z1.00 F400
N01970  G00 X13.454 Y60.571
N01980  G1Z-1.00f50
N01990  G00 Z1.00 F400
N02000  G00 X13.454 Y46.572
N02010  G1Z-1.00f50
N02020  G00 Z1.00 F400
N02030  G00 X13.454 Y79.570
N02040  G1Z-1.00f50
N02050  G00 Z1.00 F400
N02060  G00 X13.467 Y20.435
N02070  G1Z-1.00f50
N02080  G00 Z1.00 F400
N02090  G00 X13.467 Y6.431
N02100  G1Z-1.00f50
N02110  G00 Z1.00 F400
N02120  G00 X13.469 Y86.430
N02130  G1Z-1.00f50
N02140  G00 Z1.00 F400
N02150  G00 X13.469 Y53.432
N02160  G1Z-1.00f50
N02170  G00 Z1.00 F400
N02180  G00 X13.469 Y39.434
N02190  G1Z-1.00f50
N02200  G00 Z1.00 F400
N02210  G00 X13.469 Y72.432
N02220  G1Z-1.00f50
N02230  G00 Z1.00 F400
N02240  G00 X14.731 Y24.006
N02250  G1Z-1.00f50
N02260  G00 Z1.00 F400
N02270  G00 X14.731 Y10.002
N02280  G1Z-1.00f50
N02290  G00 Z1.00 F400
N02300  G00 X14.732 Y90.001
N02310  G1Z-1.00f50
N02320  G00 Z1.00 F400
N02330  G00 X14.732 Y57.003
N02340  G1Z-1.00f50
N02350  G00 Z1.00 F400
N02360  G00 X14.732 Y43.005
N02370  G1Z-1.00f50
N02380  G00 Z1.00 F400
N02390  G00 X14.732 Y76.002
N02400  G1Z-1.00f50
N02410  G00 Z1.00 F400
N02420  G00 X15.000 Y33.500
N02430  G1Z-1.00f50
N02440  G00 Z1.00 F400
N02450  G00 X15.004 Y66.499
N02460  G1Z-1.00f50
N02470  G00 Z1.00 F400
N02480  G00 X17.000 Y2.000
N02490  G1Z-1.00f50
N02500  G00 Z1.00 F400
N02510  G00 X17.000 Y4.000
N02520  G1Z-1.00f50
N02530  G00 Z1.00 F400
N02540  G00 X17.540 Y33.500
N02550  G1Z-1.00f50
N02560  G00 Z1.00 F400
N02570  G00 X17.544 Y66.499
N02580  G1Z-1.00f50
N02590  G00 Z1.00 F400
N02600  G00 X22.192 Y14.109
N02610  G1Z-1.00f50
N02620  G00 Z1.00 F400
N02630  G00 X22.192 Y16.649
N02640  G1Z-1.00f50
N02650  G00 Z1.00 F400
N02660  G00 X22.192 Y19.189
N02670  G1Z-1.00f50
N02680  G00 Z1.00 F400
N02690  G00 X22.192 Y21.729
N02700  G1Z-1.00f50
N02710  G00 Z1.00 F400
N02720  G00 X22.192 Y24.269
N02730  G1Z-1.00f50
N02740  G00 Z1.00 F400
N02750  G00 X22.192 Y26.809
N02760  G1Z-1.00f50
N02770  G00 Z1.00 F400
N02780  G00 X22.192 Y29.349
N02790  G1Z-1.00f50
N02800  G00 Z1.00 F400
N02810  G00 X22.192 Y31.889
N02820  G1Z-1.00f50
N02830  G00 Z1.00 F400
N02840  G00 X22.194 Y36.110
N02850  G1Z-1.00f50
N02860  G00 Z1.00 F400
N02870  G00 X22.194 Y38.650
N02880  G1Z-1.00f50
N02890  G00 Z1.00 F400
N02900  G00 X22.194 Y41.190
N02910  G1Z-1.00f50
N02920  G00 Z1.00 F400
N02930  G00 X22.194 Y43.730
N02940  G1Z-1.00f50
N02950  G00 Z1.00 F400
N02960  G00 X22.194 Y46.270
N02970  G1Z-1.00f50
N02980  G00 Z1.00 F400
N02990  G00 X22.181 Y60.315
N03000  G1Z-1.00f50
N03010  G00 Z1.00 F400
N03020  G00 X22.181 Y62.855
N03030  G1Z-1.00f50
N03040  G00 Z1.00 F400
N03050  G00 X22.181 Y65.395
N03060  G1Z-1.00f50
N03070  G00 Z1.00 F400
N03080  G00 X22.181 Y67.935
N03090  G1Z-1.00f50
N03100  G00 Z1.00 F400
N03110  G00 X22.181 Y70.475
N03120  G1Z-1.00f50
N03130  G00 Z1.00 F400
N03140  G00 X22.181 Y73.015
N03150  G1Z-1.00f50
N03160  G00 Z1.00 F400
N03170  G00 X22.181 Y75.555
N03180  G1Z-1.00f50
N03190  G00 Z1.00 F400
N03200  G00 X22.181 Y78.095
N03210  G1Z-1.00f50
N03220  G00 Z1.00 F400
N03230  G00 X22.194 Y48.810
N03240  G1Z-1.00f50
N03250  G00 Z1.00 F400
N03260  G00 X22.194 Y51.350
N03270  G1Z-1.00f50
N03280  G00 Z1.00 F400
N03290  G00 X22.194 Y53.890
N03300  G1Z-1.00f50
N03310  G00 Z1.00 F400
N03320  G00 X23.190 Y10.000
N03330  G1Z-1.00f50
N03340  G00 Z1.00 F400
N03350  G00 X23.460 Y82.200
N03360  G1Z-1.00f50
N03370  G00 Z1.00 F400
N03380  G00 X23.500 Y93.070
N03390  G1Z-1.00f50
N03400  G00 Z1.00 F400
N03410  G00 X23.500 Y90.530
N03420  G1Z-1.00f50
N03430  G00 Z1.00 F400
N03440  G00 X23.730 Y3.000
N03450  G1Z-1.00f50
N03460  G00 Z1.00 F400
N03470  G00 X24.460 Y86.200
N03480  G1Z-1.00f50
N03490  G00 Z1.00 F400
N03500  G00 X26.000 Y82.200
N03510  G1Z-1.00f50
N03520  G00 Z1.00 F400
N03530  G00 X26.270 Y3.000
N03540  G1Z-1.00f50
N03550  G00 Z1.00 F400
N03560  G00 X27.000 Y86.200
N03570  G1Z-1.00f50
N03580  G00 Z1.00 F400
N03590  G00 X27.000 Y97.270
N03600  G1Z-1.00f50
N03610  G00 Z1.00 F400
N03620  G00 X27.000 Y94.730
N03630  G1Z-1.00f50
N03640  G00 Z1.00 F400
N03650  G00 X27.000 Y92.470
N03660  G1Z-1.00f50
N03670  G00 Z1.00 F400
N03680  G00 X27.000 Y89.930
N03690  G1Z-1.00f50
N03700  G00 Z1.00 F400
N03710  G00 X28.540 Y82.200
N03720  G1Z-1.00f50
N03730  G00 Z1.00 F400
N03740  G00 X29.540 Y86.200
N03750  G1Z-1.00f50
N03760  G00 Z1.00 F400
N03770  G00 X29.801 Y78.095
N03780  G1Z-1.00f50
N03790  G00 Z1.00 F400
N03800  G00 X29.801 Y75.555
N03810  G1Z-1.00f50
N03820  G00 Z1.00 F400
N03830  G00 X29.801 Y73.015
N03840  G1Z-1.00f50
N03850  G00 Z1.00 F400
N03860  G00 X29.801 Y70.475
N03870  G1Z-1.00f50
N03880  G00 Z1.00 F400
N03890  G00 X29.801 Y67.935
N03900  G1Z-1.00f50
N03910  G00 Z1.00 F400
N03920  G00 X29.801 Y65.395
N03930  G1Z-1.00f50
N03940  G00 Z1.00 F400
N03950  G00 X29.801 Y62.855
N03960  G1Z-1.00f50
N03970  G00 Z1.00 F400
N03980  G00 X29.801 Y60.315
N03990  G1Z-1.00f50
N04000  G00 Z1.00 F400
N04010  G00 X29.812 Y31.889
N04020  G1Z-1.00f50
N04030  G00 Z1.00 F400
N04040  G00 X29.812 Y29.349
N04050  G1Z-1.00f50
N04060  G00 Z1.00 F400
N04070  G00 X29.812 Y26.809
N04080  G1Z-1.00f50
N04090  G00 Z1.00 F400
N04100  G00 X29.812 Y24.269
N04110  G1Z-1.00f50
N04120  G00 Z1.00 F400
N04130  G00 X29.812 Y21.729
N04140  G1Z-1.00f50
N04150  G00 Z1.00 F400
N04160  G00 X29.812 Y19.189
N04170  G1Z-1.00f50
N04180  G00 Z1.00 F400
N04190  G00 X29.812 Y16.649
N04200  G1Z-1.00f50
N04210  G00 Z1.00 F400
N04220  G00 X29.812 Y14.109
N04230  G1Z-1.00f50
N04240  G00 Z1.00 F400
N04250  G00 X29.814 Y53.890
N04260  G1Z-1.00f50
N04270  G00 Z1.00 F400
N04280  G00 X29.814 Y51.350
N04290  G1Z-1.00f50
N04300  G00 Z1.00 F400
N04310  G00 X29.814 Y48.810
N04320  G1Z-1.00f50
N04330  G00 Z1.00 F400
N04340  G00 X29.814 Y46.270
N04350  G1Z-1.00f50
N04360  G00 Z1.00 F400
N04370  G00 X29.814 Y43.730
N04380  G1Z-1.00f50
N04390  G00 Z1.00 F400
N04400  G00 X29.814 Y41.190
N04410  G1Z-1.00f50
N04420  G00 Z1.00 F400
N04430  G00 X29.814 Y38.650
N04440  G1Z-1.00f50
N04450  G00 Z1.00 F400
N04460  G00 X29.814 Y36.110
N04470  G1Z-1.00f50
N04480  G00 Z1.00 F400
N04490  G00 X30.810 Y10.000
N04500  G1Z-1.00f50
N04510  G00 Z1.00 F400
N04520  G00 X30.921 Y94.731
N04530  G1Z-1.00f50
N04540  G00 Z1.00 F400
N04550  G00 X30.921 Y97.270
N04560  G1Z-1.00f50
N04570  G00 Z1.00 F400
N04580  G00 X30.923 Y2.734
N04590  G1Z-1.00f50
N04600  G00 Z1.00 F400
N04610  G00 X30.923 Y5.274
N04620  G1Z-1.00f50
N04630  G00 Z1.00 F400
N04640  G00 X31.000 Y90.270
N04650  G1Z-1.00f50
N04660  G00 Z1.00 F400
N04670  G00 X31.000 Y87.730
N04680  G1Z-1.00f50
N04690  G00 Z1.00 F400
N04700  G00 X33.461 Y94.731
N04710  G1Z-1.00f50
N04720  G00 Z1.00 F400
N04730  G00 X33.461 Y97.270
N04740  G1Z-1.00f50
N04750  G00 Z1.00 F400
N04760  G00 X33.463 Y2.734
N04770  G1Z-1.00f50
N04780  G00 Z1.00 F400
N04790  G00 X33.463 Y5.274
N04800  G1Z-1.00f50
N04810  G00 Z1.00 F400
N04820  G00 X35.090 Y57.400
N04830  G1Z-1.00f50
N04840  G00 Z1.00 F400
N04850  G00 X35.090 Y59.940
N04860  G1Z-1.00f50
N04870  G00 Z1.00 F400
N04880  G00 X35.090 Y62.480
N04890  G1Z-1.00f50
N04900  G00 Z1.00 F400
N04910  G00 X35.090 Y65.020
N04920  G1Z-1.00f50
N04930  G00 Z1.00 F400
N04940  G00 X35.090 Y67.560
N04950  G1Z-1.00f50
N04960  G00 Z1.00 F400
N04970  G00 X35.090 Y70.100
N04980  G1Z-1.00f50
N04990  G00 Z1.00 F400
N05000  G00 X35.090 Y72.640
N05010  G1Z-1.00f50
N05020  G00 Z1.00 F400
N05030  G00 X35.090 Y75.180
N05040  G1Z-1.00f50
N05050  G00 Z1.00 F400
N05060  G00 X35.090 Y77.720
N05070  G1Z-1.00f50
N05080  G00 Z1.00 F400
N05090  G00 X35.090 Y80.260
N05100  G1Z-1.00f50
N05110  G00 Z1.00 F400
N05120  G00 X35.090 Y82.800
N05130  G1Z-1.00f50
N05140  G00 Z1.00 F400
N05150  G00 X35.090 Y85.340
N05160  G1Z-1.00f50
N05170  G00 Z1.00 F400
N05180  G00 X35.090 Y87.880
N05190  G1Z-1.00f50
N05200  G00 Z1.00 F400
N05210  G00 X35.090 Y90.420
N05220  G1Z-1.00f50
N05230  G00 Z1.00 F400
N05240  G00 X36.000 Y35.190
N05250  G1Z-1.00f50
N05260  G00 Z1.00 F400
N05270  G00 X36.000 Y42.810
N05280  G1Z-1.00f50
N05290  G00 Z1.00 F400
N05300  G00 X36.001 Y94.731
N05310  G1Z-1.00f50
N05320  G00 Z1.00 F400
N05330  G00 X36.001 Y97.270
N05340  G1Z-1.00f50
N05350  G00 Z1.00 F400
N05360  G00 X36.003 Y2.734
N05370  G1Z-1.00f50
N05380  G00 Z1.00 F400
N05390  G00 X36.003 Y5.274
N05400  G1Z-1.00f50
N05410  G00 Z1.00 F400
N05420  G00 X38.000 Y8.190
N05430  G1Z-1.00f50
N05440  G00 Z1.00 F400
N05450  G00 X38.000 Y15.810
N05460  G1Z-1.00f50
N05470  G00 Z1.00 F400
N05480  G00 X38.541 Y94.731
N05490  G1Z-1.00f50
N05500  G00 Z1.00 F400
N05510  G00 X38.541 Y97.270
N05520  G1Z-1.00f50
N05530  G00 Z1.00 F400
N05540  G00 X38.543 Y2.734
N05550  G1Z-1.00f50
N05560  G00 Z1.00 F400
N05570  G00 X38.543 Y5.274
N05580  G1Z-1.00f50
N05590  G00 Z1.00 F400
N05600  G00 X38.690 Y35.190
N05610  G1Z-1.00f50
N05620  G00 Z1.00 F400
N05630  G00 X38.690 Y37.730
N05640  G1Z-1.00f50
N05650  G00 Z1.00 F400
N05660  G00 X38.690 Y40.270
N05670  G1Z-1.00f50
N05680  G00 Z1.00 F400
N05690  G00 X38.690 Y42.810
N05700  G1Z-1.00f50
N05710  G00 Z1.00 F400
N05720  G00 X38.790 Y45.600
N05730  G1Z-1.00f50
N05740  G00 Z1.00 F400
N05750  G00 X39.213 Y22.179
N05760  G1Z-1.00f50
N05770  G00 Z1.00 F400
N05780  G00 X39.213 Y29.799
N05790  G1Z-1.00f50
N05800  G00 Z1.00 F400
N05810  G00 X41.000 Y15.540
N05820  G1Z-1.00f50
N05830  G00 Z1.00 F400
N05840  G00 X41.081 Y94.731
N05850  G1Z-1.00f50
N05860  G00 Z1.00 F400
N05870  G00 X41.081 Y97.270
N05880  G1Z-1.00f50
N05890  G00 Z1.00 F400
N05900  G00 X41.083 Y2.734
N05910  G1Z-1.00f50
N05920  G00 Z1.00 F400
N05930  G00 X41.083 Y5.274
N05940  G1Z-1.00f50
N05950  G00 Z1.00 F400
N05960  G00 X41.730 Y50.730
N05970  G1Z-1.00f50
N05980  G00 Z1.00 F400
N05990  G00 X41.730 Y53.270
N06000  G1Z-1.00f50
N06010  G00 Z1.00 F400
N06020  G00 X41.753 Y22.179
N06030  G1Z-1.00f50
N06040  G00 Z1.00 F400
N06050  G00 X41.753 Y29.799
N06060  G1Z-1.00f50
N06070  G00 Z1.00 F400
N06080  G00 X42.710 Y90.420
N06090  G1Z-1.00f50
N06100  G00 Z1.00 F400
N06110  G00 X42.710 Y87.880
N06120  G1Z-1.00f50
N06130  G00 Z1.00 F400
N06140  G00 X42.710 Y85.340
N06150  G1Z-1.00f50
N06160  G00 Z1.00 F400
N06170  G00 X42.710 Y82.800
N06180  G1Z-1.00f50
N06190  G00 Z1.00 F400
N06200  G00 X42.710 Y80.260
N06210  G1Z-1.00f50
N06220  G00 Z1.00 F400
N06230  G00 X42.710 Y77.720
N06240  G1Z-1.00f50
N06250  G00 Z1.00 F400
N06260  G00 X42.710 Y75.180
N06270  G1Z-1.00f50
N06280  G00 Z1.00 F400
N06290  G00 X42.710 Y72.640
N06300  G1Z-1.00f50
N06310  G00 Z1.00 F400
N06320  G00 X42.710 Y70.100
N06330  G1Z-1.00f50
N06340  G00 Z1.00 F400
N06350  G00 X42.710 Y67.560
N06360  G1Z-1.00f50
N06370  G00 Z1.00 F400
N06380  G00 X42.710 Y65.020
N06390  G1Z-1.00f50
N06400  G00 Z1.00 F400
N06410  G00 X42.710 Y62.480
N06420  G1Z-1.00f50
N06430  G00 Z1.00 F400
N06440  G00 X42.710 Y59.940
N06450  G1Z-1.00f50
N06460  G00 Z1.00 F400
N06470  G00 X42.710 Y57.400
N06480  G1Z-1.00f50
N06490  G00 Z1.00 F400
N06500  G00 X44.250 Y10.540
N06510  G1Z-1.00f50
N06520  G00 Z1.00 F400
N06530  G00 X44.270 Y50.730
N06540  G1Z-1.00f50
N06550  G00 Z1.00 F400
N06560  G00 X44.270 Y53.270
N06570  G1Z-1.00f50
N06580  G00 Z1.00 F400
N06590  G00 X44.293 Y22.179
N06600  G1Z-1.00f50
N06610  G00 Z1.00 F400
N06620  G00 X44.293 Y29.799
N06630  G1Z-1.00f50
N06640  G00 Z1.00 F400
N06650  G00 X45.460 Y7.000
N06660  G1Z-1.00f50
N06670  G00 Z1.00 F400
N06680  G00 X46.310 Y42.810
N06690  G1Z-1.00f50
N06700  G00 Z1.00 F400
N06710  G00 X46.310 Y40.270
N06720  G1Z-1.00f50
N06730  G00 Z1.00 F400
N06740  G00 X46.310 Y37.730
N06750  G1Z-1.00f50
N06760  G00 Z1.00 F400
N06770  G00 X46.310 Y35.190
N06780  G1Z-1.00f50
N06790  G00 Z1.00 F400
N06800  G00 X46.410 Y45.600
N06810  G1Z-1.00f50
N06820  G00 Z1.00 F400
N06830  G00 X46.833 Y22.179
N06840  G1Z-1.00f50
N06850  G00 Z1.00 F400
N06860  G00 X46.833 Y29.799
N06870  G1Z-1.00f50
N06880  G00 Z1.00 F400
N06890  G00 X47.500 Y15.540
N06900  G1Z-1.00f50
N06910  G00 Z1.00 F400
N06920  G00 X48.000 Y66.810
N06930  G1Z-1.00f50
N06940  G00 Z1.00 F400
N06950  G00 X48.000 Y59.190
N06960  G1Z-1.00f50
N06970  G00 Z1.00 F400
N06980  G00 X48.000 Y7.000
N06990  G1Z-1.00f50
N07000  G00 Z1.00 F400
N07010  G00 X50.000 Y52.810
N07020  G1Z-1.00f50
N07030  G00 Z1.00 F400
N07040  G00 X50.000 Y45.190
N07050  G1Z-1.00f50
N07060  G00 Z1.00 F400
N07070  G00 X50.000 Y33.190
N07080  G1Z-1.00f50
N07090  G00 Z1.00 F400
N07100  G00 X50.000 Y40.810
N07110  G1Z-1.00f50
N07120  G00 Z1.00 F400
N07130  G00 X50.000 Y79.650
N07140  G1Z-1.00f50
N07150  G00 Z1.00 F400
N07160  G00 X50.000 Y82.190
N07170  G1Z-1.00f50
N07180  G00 Z1.00 F400
N07190  G00 X50.000 Y84.730
N07200  G1Z-1.00f50
N07210  G00 Z1.00 F400
N07220  G00 X50.000 Y87.270
N07230  G1Z-1.00f50
N07240  G00 Z1.00 F400
N07250  G00 X50.000 Y89.810
N07260  G1Z-1.00f50
N07270  G00 Z1.00 F400
N07280  G00 X50.000 Y92.350
N07290  G1Z-1.00f50
N07300  G00 Z1.00 F400
N07310  G00 X50.000 Y63.810
N07320  G1Z-1.00f50
N07330  G00 Z1.00 F400
N07340  G00 X50.000 Y56.190
N07350  G1Z-1.00f50
N07360  G00 Z1.00 F400
N07370  G00 X50.000 Y69.460
N07380  G1Z-1.00f50
N07390  G00 Z1.00 F400
N07400  G00 X50.000 Y74.540
N07410  G1Z-1.00f50
N07420  G00 Z1.00 F400
N07430  G00 X50.540 Y7.000
N07440  G1Z-1.00f50
N07450  G00 Z1.00 F400
(----------------------------------------------------------)
( Drill size=3.000mm )
(----------------------------------------------------------)
N07460  G00 X2.500 Y2.500
N07470  G1Z-1.00f50
N07480  G00 Z1.00 F400
N07490  G00 X2.500 Y97.500
N07500  G1Z-1.00f50
N07510  G00 Z1.00 F400
N07520  G00 X50.500 Y97.500
N07530  G1Z-1.00f50
N07540  G00 Z1.00 F400
N07550  G00 X50.500 Y2.500
N07560  G1Z-1.00f50
N07570  G00 Z1.00 F400

(----------------------------------------------------------)
N07580  G00 Z2.00 F400
N07590  G00 X0 Y0 F400
N07600  M05 
