(This GCode generated with outlines_gcode_excel_mirrored.ulp program)
(running under Eagle CAD.)
(Use with mechanical etching/engraving bits, such as the)
(Think&Tinker Mechanical Etching Bit with 60-degree tip angle)
(X/Y/Z home should be at lower left corner of the board, with the tip just touching)
(C:/Users/Owner/Documents/eagle/nixie_display/untitledpattern_top_0p3mm.nc layer 1)

(mm, Absolute mode, lift cutter above work, rapid to X/Y home, turn spindle on.)
G90
G0Z0.500
G0X0Y0
M03

(Begin)
G0Z0.500
G0X23.454900Y43.242900
G1Z-0.100 f25
G1X23.411900Y43.199900 f200
G1X23.403700Y43.191700
G1X23.367500Y43.129000
G1X23.348800Y43.059100
G1X23.348800Y42.986600
G1X23.367500Y42.916700
G1X23.403700Y42.854000
G1X23.454900Y42.802800
G1X23.823600Y42.434100
G1X23.823600Y41.071500
G1X22.859900Y40.107800
G1X21.497300Y40.107800
G1X20.533600Y41.071500
G1X20.533600Y42.434100
G1X20.953500Y42.854000
G1X20.989700Y42.916700
G1X21.008400Y42.986600
G1X21.008400Y43.059100
G1X20.989700Y43.129000
G1X20.953500Y43.191700
G1X20.902300Y43.242900
G1X20.902200Y43.242900
G1X20.533600Y43.611500
G1X20.533600Y44.974100
G1X20.902200Y45.342700
G1X20.902300Y45.342700
G1X20.945300Y45.385800
G1X20.953500Y45.393900
G1X20.989700Y45.456600
G1X21.008400Y45.526500
G1X21.008400Y45.599000
G1X20.989700Y45.668900
G1X20.953500Y45.731600
G1X20.902300Y45.782800
G1X20.902200Y45.782800
G1X20.533600Y46.151400
G1X20.533600Y47.514100
G1X21.497300Y48.477800
G1X22.859900Y48.477800
G1X23.823600Y47.514100
G1X23.823600Y46.151500
G1X23.403700Y45.731600
G1X23.367500Y45.668900
G1X23.348800Y45.599000
G1X23.348800Y45.526500
G1X23.367500Y45.456600
G1X23.403700Y45.393900
G1X23.454900Y45.342700
G1X23.455000Y45.342700
G1X23.823600Y44.974100
G1X23.823600Y43.611500
G1X23.455000Y43.242900
G1X23.454900Y43.242900

G0Z0.500
G0X23.057600Y43.928800
G1Z-0.100 f25
G1X23.057600Y44.656900 f200
G1X22.542700Y45.171800
G1X21.814600Y45.171800
G1X21.299700Y44.656900
G1X21.299700Y43.928800
G1X21.814600Y43.413900
G1X22.542700Y43.413900
G1X23.057600Y43.928800

G0Z0.500
G0X23.057600Y46.468800
G1Z-0.100 f25
G1X23.057600Y47.196900 f200
G1X22.542700Y47.711800
G1X21.814600Y47.711800
G1X21.299700Y47.196900
G1X21.299700Y46.468800
G1X21.814600Y45.953900
G1X22.542700Y45.953900
G1X23.057600Y46.468800

G0Z0.500
G0X23.057600Y41.388800
G1Z-0.100 f25
G1X23.057600Y42.116900 f200
G1X22.542700Y42.631800
G1X21.814600Y42.631800
G1X21.299700Y42.116900
G1X21.299700Y41.388800
G1X21.814600Y40.873900
G1X22.542700Y40.873900
G1X23.057600Y41.388800

G0Z0.500
G0X9.318600Y21.544900
G1Z-0.100 f25
G1X8.354900Y22.508600 f200
G1X8.354900Y23.871200
G1X9.318600Y24.834900
G1X10.681200Y24.834900
G1X11.644900Y23.871200
G1X11.644900Y22.508600
G1X10.681200Y21.544900
G1X9.318600Y21.544900

G0Z0.500
G0X10.878900Y22.825900
G1Z-0.100 f25
G1X10.878900Y23.554000 f200
G1X10.364000Y24.068900
G1X9.635900Y24.068900
G1X9.121000Y23.554000
G1X9.121000Y22.825900
G1X9.635900Y22.311000
G1X10.364000Y22.311000
G1X10.878900Y22.825900

G0Z0.500
G0X33.016700Y24.742900
G1Z-0.100 f25
G1X33.023500Y24.764200 f200
G1X33.032800Y24.785800
G1X33.034700Y24.799400
G1X33.070200Y24.910400
G1X33.075000Y24.915100
G1X33.080700Y24.925100
G1X33.088000Y24.933600
G1X33.098400Y24.955800
G1X33.111200Y24.977800
G1X33.114200Y24.989100
G1X33.118900Y24.999000
G1X33.123200Y25.022900
G1X33.129900Y25.047700
G1X33.129900Y25.059300
G1X33.131900Y25.070200
G1X33.129900Y25.094700
G1X33.129900Y25.120200
G1X33.126900Y25.131400
G1X33.126000Y25.142400
G1X33.117800Y25.165300
G1X33.111200Y25.190100
G1X33.105400Y25.200000
G1X33.101700Y25.210600
G1X33.087600Y25.230900
G1X33.075000Y25.252800
G1X33.066800Y25.261000
G1X33.060500Y25.270100
G1X33.041800Y25.285900
G1X33.023800Y25.304000
G1X33.013800Y25.309700
G1X33.005300Y25.317000
G1X32.983100Y25.327400
G1X32.961100Y25.340200
G1X32.949800Y25.343200
G1X32.939900Y25.347900
G1X32.916000Y25.352200
G1X32.891200Y25.358900
G1X32.879600Y25.358900
G1X32.868700Y25.360900
G1X32.844200Y25.358900
G1X17.766300Y25.358900
G1X17.730200Y25.359500
G1X17.727900Y25.358900
G1X17.725600Y25.358900
G1X17.693200Y25.350200
G1X17.651400Y25.339700
G1X17.617400Y25.344800
G1X17.615300Y25.345700
G1X17.579600Y25.350400
G1X17.548100Y25.355100
G1X17.546000Y25.354800
G1X17.543500Y25.355200
G1X17.509300Y25.350700
G1X17.476100Y25.346900
G1X17.473800Y25.346000
G1X17.471600Y25.345700
G1X17.441900Y25.333300
G1X17.408800Y25.320300
G1X17.406900Y25.318800
G1X17.404800Y25.318000
G1X17.378000Y25.297500
G1X17.350600Y25.277200
G1X17.349300Y25.275400
G1X17.347300Y25.274000
G1X17.326900Y25.247300
G1X17.305600Y25.220500
G1X17.304600Y25.218200
G1X17.303300Y25.216500
G1X17.291100Y25.186900
G1X17.276800Y25.154100
G1X17.276500Y25.151700
G1X17.275600Y25.149700
G1X17.271000Y25.114900
G1X17.266200Y25.082500
G1X17.266500Y25.080400
G1X17.266100Y25.077900
G1X17.270600Y25.043700
G1X17.274400Y25.010500
G1X17.275300Y25.008200
G1X17.275600Y25.006000
G1X17.288200Y24.975700
G1X17.301000Y24.943200
G1X17.302400Y24.941300
G1X17.440900Y24.607000
G1X17.440900Y23.803400
G1X17.459600Y23.733500
G1X17.495800Y23.670800
G1X17.547000Y23.619600
G1X17.749700Y23.416900
G1X17.812400Y23.380700
G1X17.882300Y23.362000
G1X17.954800Y23.362000
G1X18.024700Y23.380700
G1X18.087400Y23.416900
G1X18.138600Y23.468100
G1X18.138600Y23.468200
G1X18.507200Y23.836800
G1X19.869800Y23.836800
G1X20.238400Y23.468200
G1X20.238400Y23.468100
G1X20.281400Y23.425100
G1X20.289600Y23.416900
G1X20.352300Y23.380700
G1X20.422200Y23.362000
G1X20.494700Y23.362000
G1X20.564600Y23.380700
G1X20.627300Y23.416900
G1X20.678500Y23.468100
G1X21.047200Y23.836800
G1X22.409800Y23.836800
G1X22.778400Y23.468200
G1X22.778400Y23.468100
G1X22.821400Y23.425100
G1X22.829600Y23.416900
G1X22.892300Y23.380700
G1X22.962200Y23.362000
G1X23.034700Y23.362000
G1X23.104600Y23.380700
G1X23.167300Y23.416900
G1X23.218500Y23.468100
G1X23.587200Y23.836800
G1X24.949800Y23.836800
G1X25.318400Y23.468200
G1X25.318400Y23.468100
G1X25.361400Y23.425100
G1X25.369600Y23.416900
G1X25.432300Y23.380700
G1X25.502200Y23.362000
G1X25.574700Y23.362000
G1X25.644600Y23.380700
G1X25.707300Y23.416900
G1X25.758500Y23.468100
G1X26.127200Y23.836800
G1X27.489800Y23.836800
G1X27.858400Y23.468200
G1X27.858400Y23.468100
G1X27.901500Y23.425100
G1X27.909600Y23.416900
G1X27.972300Y23.380700
G1X28.042200Y23.362000
G1X28.114700Y23.362000
G1X28.184600Y23.380700
G1X28.247300Y23.416900
G1X28.298500Y23.468100
G1X28.667200Y23.836800
G1X30.029800Y23.836800
G1X30.449700Y23.416900
G1X30.512400Y23.380700
G1X30.582300Y23.362000
G1X30.654800Y23.362000
G1X30.724700Y23.380700
G1X30.787400Y23.416900
G1X30.838600Y23.468100
G1X30.838600Y23.468200
G1X31.207200Y23.836800
G1X32.680800Y23.836800
G1X32.712900Y23.836400
G1X32.714400Y23.836800
G1X32.716400Y23.836800
G1X32.752400Y23.846500
G1X32.783000Y23.854200
G1X32.784400Y23.855000
G1X32.786300Y23.855500
G1X32.818200Y23.874000
G1X32.846200Y23.889600
G1X32.847400Y23.890800
G1X32.849000Y23.891700
G1X32.874100Y23.916900
G1X32.898000Y23.940100
G1X32.898800Y23.941600
G1X32.900200Y23.942900
G1X32.917800Y23.973600
G1X32.935000Y24.002300
G1X32.935400Y24.004100
G1X32.936400Y24.005600
G1X32.945600Y24.040200
G1X32.954600Y24.072000
G1X32.954600Y24.073800
G1X32.955100Y24.075500
G1X32.955100Y24.111400
G1X32.957800Y24.327100
G1X32.960300Y24.340600
G1X32.958300Y24.364300
G1X32.958600Y24.386600
G1X32.955300Y24.399200
G1X32.945400Y24.518300
G1X32.949800Y24.534200
G1X32.959400Y24.563900
G1X32.959600Y24.568900
G1X32.961000Y24.573700
G1X32.961400Y24.604900
G1X32.962200Y24.621500
G1X33.009600Y24.731900
G1X33.016700Y24.742900

G0Z0.500
G0X64.926200Y47.440900
G1Z-0.100 f25
G1X64.996100Y47.459600 f200
G1X65.058800Y47.495800
G1X65.110000Y47.547000
G1X65.146200Y47.609700
G1X65.164900Y47.679600
G1X65.164900Y47.752100
G1X65.164900Y48.401100
G1X65.146200Y48.471000
G1X65.110000Y48.533700
G1X65.058800Y48.584900
G1X64.996100Y48.621100
G1X64.926200Y48.639800
G1X64.853700Y48.639800
G1X64.783800Y48.621100
G1X64.721100Y48.584900
G1X64.669900Y48.533700
G1X64.669800Y48.533400
G1X64.491200Y48.354900
G1X63.128600Y48.354900
G1X62.164900Y49.318600
G1X62.164900Y50.339300
G1X62.164900Y50.339500
G1X62.155000Y50.376100
G1X62.146200Y50.409200
G1X62.146100Y50.409300
G1X62.146100Y50.409400
G1X62.140900Y50.418300
G1X62.110000Y50.471900
G1X62.058800Y50.523100
G1X61.996100Y50.559300
G1X61.996000Y50.559300
G1X61.995900Y50.559400
G1X61.964200Y50.567800
G1X61.926200Y50.578000
G1X61.853700Y50.578000
G1X61.853500Y50.577900
G1X58.073400Y50.575000
G1X58.035200Y50.564700
G1X58.003700Y50.556300
G1X58.003600Y50.556200
G1X58.003500Y50.556200
G1X57.993000Y50.550100
G1X57.941000Y50.520100
G1X57.940800Y50.519900
G1X57.940000Y50.519100
G1X57.889800Y50.468900
G1X57.853600Y50.406200
G1X57.853600Y50.406100
G1X57.853500Y50.406000
G1X57.844700Y50.372700
G1X57.834900Y50.336300
G1X57.834900Y50.336100
G1X57.834900Y50.263600
G1X57.834900Y49.598700
G1X57.853600Y49.528800
G1X57.889800Y49.466100
G1X57.941000Y49.414900
G1X58.003700Y49.378700
G1X58.073600Y49.360000
G1X58.146100Y49.360000
G1X58.216000Y49.378700
G1X58.278700Y49.414900
G1X58.329900Y49.466100
G1X58.330000Y49.466400
G1X58.508600Y49.644900
G1X59.871200Y49.644900
G1X60.834900Y48.681300
G1X60.834900Y47.679600
G1X60.853600Y47.609700
G1X60.889800Y47.547000
G1X60.941000Y47.495800
G1X61.003700Y47.459600
G1X61.073600Y47.440900
G1X61.146100Y47.440900
G1X64.926200Y47.440900

G0Z0.500
G0X47.039100Y40.643600
G1Z-0.100 f25
G1X47.064700Y40.652200 f200
G1X47.067600Y40.652900
G1X47.200400Y40.643500
G1X47.209800Y40.640900
G1X47.236000Y40.640900
G1X47.262700Y40.639000
G1X47.272400Y40.640900
G1X48.793000Y40.640900
G1X48.793300Y40.640800
G1X48.829200Y40.640900
G1X48.865100Y40.640900
G1X48.865400Y40.641000
G1X48.865800Y40.641000
G1X48.895900Y40.649200
G1X48.935000Y40.659600
G1X48.935300Y40.659900
G1X48.935700Y40.659900
G1X48.960600Y40.674500
G1X48.997700Y40.695800
G1X48.998000Y40.696200
G1X48.998300Y40.696300
G1X49.015000Y40.713200
G1X49.048900Y40.747000
G1X49.049100Y40.747500
G1X49.049300Y40.747600
G1X49.056600Y40.760400
G1X49.085100Y40.809700
G1X49.085200Y40.810400
G1X49.085300Y40.810400
G1X49.087400Y40.818600
G1X49.103800Y40.879600
G1X49.103800Y40.880000
G1X49.103900Y40.880300
G1X49.103800Y40.916200
G1X49.103800Y40.952100
G1X49.103700Y40.952400
G1X49.103700Y40.952800
G1X49.095500Y40.982900
G1X49.085100Y41.022000
G1X49.084900Y41.022300
G1X49.084900Y42.411200
G1X49.504800Y42.831100
G1X49.541000Y42.893800
G1X49.559700Y42.963700
G1X49.559700Y43.036200
G1X49.541000Y43.106100
G1X49.504800Y43.168800
G1X49.453600Y43.220000
G1X49.093300Y43.580200
G1X49.088300Y43.587800
G1X49.067900Y43.605600
G1X49.048600Y43.625000
G1X49.040600Y43.629500
G1X49.033800Y43.635600
G1X49.009400Y43.647600
G1X48.985900Y43.661200
G1X48.977100Y43.663500
G1X48.968900Y43.667600
G1X48.942000Y43.672900
G1X48.916000Y43.679900
G1X48.906900Y43.679900
G1X48.897900Y43.681700
G1X48.870800Y43.679900
G1X48.843500Y43.679900
G1X48.834500Y43.677400
G1X48.825600Y43.676900
G1X48.800400Y43.668300
G1X48.773600Y43.661200
G1X48.765800Y43.656600
G1X48.757000Y43.653700
G1X48.734200Y43.638400
G1X48.710900Y43.625000
G1X48.704500Y43.618500
G1X48.693100Y43.610900
G1X48.669600Y43.597400
G1X48.663200Y43.590900
G1X48.655600Y43.585900
G1X48.637800Y43.565500
G1X48.589500Y43.517200
G1X48.526100Y43.491000
G1X48.500000Y43.482200
G1X48.492200Y43.476900
G1X48.483800Y43.473500
G1X48.462600Y43.457200
G1X48.405100Y43.418900
G1X48.338000Y43.405600
G1X48.311200Y43.402100
G1X48.303200Y43.398800
G1X48.294200Y43.397000
G1X48.269300Y43.384700
G1X48.207000Y43.358900
G1X48.138200Y43.358900
G1X48.111100Y43.360700
G1X48.102000Y43.358900
G1X48.092700Y43.358900
G1X48.066500Y43.351900
G1X47.998800Y43.338500
G1X47.931600Y43.352000
G1X47.905800Y43.358900
G1X47.897000Y43.358900
G1X47.888100Y43.360700
G1X47.860300Y43.358900
G1X45.491000Y43.358900
G1X45.421100Y43.340200
G1X45.358400Y43.304000
G1X45.307200Y43.252800
G1X45.271000Y43.190100
G1X45.252300Y43.120200
G1X45.252300Y43.047700
G1X45.252300Y40.673600
G1X45.271000Y40.603700
G1X45.307200Y40.541000
G1X45.358400Y40.489800
G1X45.421100Y40.453600
G1X45.491000Y40.434900
G1X45.563500Y40.434900
G1X46.340300Y40.434900
G1X46.348600Y40.433200
G1X46.376600Y40.434900
G1X46.404600Y40.434900
G1X46.412800Y40.437100
G1X46.421000Y40.437600
G1X46.446700Y40.446200
G1X46.474500Y40.453600
G1X46.481900Y40.457900
G1X46.801100Y40.564200
G1X46.810800Y40.565500
G1X46.834700Y40.575400
G1X46.860200Y40.583900
G1X46.868600Y40.589500
G1X46.992400Y40.640800
G1X46.994700Y40.640900
G1X47.022700Y40.640900
G1X47.030900Y40.643100
G1X47.039100Y40.643600

G0Z0.500
G0X44.883100Y35.440900
G1Z-0.100 f25
G1X44.900800Y35.440900 f200
G1X44.918700Y35.438500
G1X44.937300Y35.440900
G1X46.585000Y35.440900
G1X46.592100Y35.439400
G1X46.621000Y35.440900
G1X46.650100Y35.440900
G1X46.657100Y35.442800
G1X46.664500Y35.443200
G1X46.691500Y35.452000
G1X46.720000Y35.459600
G1X46.726500Y35.463400
G1X46.733300Y35.465600
G1X46.756900Y35.481000
G1X46.782700Y35.495800
G1X46.787900Y35.501100
G1X46.794000Y35.505000
G1X46.813100Y35.526300
G1X46.833900Y35.547000
G1X46.837600Y35.553500
G1X49.124100Y38.093900
G1X49.145300Y38.115100
G1X49.149100Y38.121700
G1X49.153800Y38.126900
G1X49.166600Y38.152000
G1X49.181500Y38.177800
G1X49.183400Y38.185000
G1X49.186700Y38.191400
G1X49.192600Y38.219500
G1X49.200200Y38.247700
G1X49.200200Y38.255200
G1X49.201700Y38.262200
G1X49.200200Y38.290800
G1X49.200200Y38.320200
G1X49.198300Y38.327300
G1X49.197900Y38.334600
G1X49.189200Y38.361300
G1X49.181500Y38.390100
G1X49.177600Y38.396700
G1X49.175500Y38.403400
G1X49.160300Y38.426800
G1X49.145300Y38.452800
G1X49.140000Y38.458100
G1X49.136100Y38.464100
G1X49.115100Y38.482900
G1X49.094100Y38.504000
G1X49.087500Y38.507800
G1X49.082300Y38.512500
G1X49.057200Y38.525300
G1X49.031400Y38.540200
G1X49.024200Y38.542100
G1X49.017800Y38.545400
G1X48.989700Y38.551300
G1X48.961500Y38.558900
G1X48.954000Y38.558900
G1X48.947000Y38.560400
G1X48.918400Y38.558900
G1X47.483600Y38.558900
G1X47.413700Y38.540200
G1X47.351000Y38.504000
G1X47.299800Y38.452800
G1X47.263600Y38.390100
G1X47.244900Y38.320200
G1X47.244900Y38.247700
G1X47.244900Y38.108600
G1X46.281200Y37.144900
G1X45.546400Y37.144900
G1X45.522300Y37.147000
G1X45.510400Y37.144900
G1X45.498100Y37.144900
G1X45.474800Y37.138600
G1X45.451100Y37.134500
G1X45.440200Y37.129400
G1X45.428200Y37.126200
G1X45.407000Y37.113900
G1X45.385400Y37.103900
G1X45.376200Y37.096100
G1X45.365500Y37.090000
G1X45.348100Y37.072500
G1X45.330000Y37.057400
G1X45.323200Y37.047700
G1X45.314300Y37.038800
G1X45.302000Y37.017400
G1X45.288400Y36.998100
G1X45.284300Y36.986800
G1X45.278100Y36.976100
G1X45.271900Y36.952600
G1X45.263600Y36.930100
G1X45.262600Y36.917900
G1X45.259400Y36.906200
G1X45.259400Y36.882100
G1X45.255500Y36.837300
G1X45.252300Y36.825500
G1X45.252300Y36.801200
G1X45.250200Y36.777200
G1X45.252300Y36.765300
G1X45.252300Y36.641500
G1X45.248100Y36.629900
G1X45.236500Y36.602100
G1X45.235700Y36.595700
G1X45.233500Y36.589800
G1X45.231000Y36.560600
G1X45.229200Y36.547300
G1X45.172300Y36.438300
G1X45.164700Y36.428500
G1X45.155500Y36.406200
G1X45.144500Y36.385200
G1X45.141900Y36.373200
G1X45.094400Y36.258500
G1X45.086600Y36.250000
G1X45.064600Y36.228200
G1X45.061500Y36.222600
G1X45.057300Y36.218200
G1X45.043400Y36.191300
G1X45.037300Y36.180800
G1X44.942900Y36.101800
G1X44.932200Y36.095700
G1X44.915400Y36.078800
G1X44.896900Y36.063400
G1X44.889700Y36.053100
G1X44.802700Y35.965900
G1X44.797500Y35.962900
G1X44.781200Y35.956300
G1X44.766800Y35.945200
G1X44.750500Y35.935900
G1X44.737900Y35.923300
G1X44.723600Y35.912400
G1X44.712400Y35.897700
G1X44.699300Y35.884700
G1X44.690200Y35.868900
G1X44.679500Y35.855000
G1X44.672600Y35.838300
G1X44.663100Y35.822000
G1X44.658500Y35.804500
G1X44.651600Y35.788200
G1X44.649200Y35.769800
G1X44.644400Y35.752100
G1X44.644400Y35.734400
G1X44.642000Y35.716500
G1X44.644400Y35.697900
G1X44.644400Y35.679600
G1X44.649000Y35.662500
G1X44.651300Y35.644600
G1X44.658400Y35.627700
G1X44.663100Y35.609700
G1X44.672200Y35.594000
G1X44.678900Y35.577700
G1X44.690000Y35.563300
G1X44.699300Y35.547000
G1X44.711900Y35.534400
G1X44.722800Y35.520100
G1X44.737500Y35.508900
G1X44.750500Y35.495800
G1X44.766300Y35.486700
G1X44.780200Y35.476000
G1X44.796900Y35.469100
G1X44.813200Y35.459600
G1X44.830700Y35.455000
G1X44.847000Y35.448100
G1X44.865400Y35.445700
G1X44.883100Y35.440900

G0Z0.500
G0X62.492000Y44.354900
G1Z-0.100 f25
G1X62.530500Y44.365200 f200
G1X62.559400Y44.372600
G1X62.560400Y44.373200
G1X62.561900Y44.373600
G1X62.597300Y44.394100
G1X62.622400Y44.408200
G1X62.623100Y44.409000
G1X62.624600Y44.409800
G1X62.651900Y44.437100
G1X62.674100Y44.458800
G1X62.674700Y44.460000
G1X62.675800Y44.461000
G1X62.695600Y44.495400
G1X62.710900Y44.521200
G1X62.711200Y44.522300
G1X62.712000Y44.523700
G1X62.722500Y44.563000
G1X62.730300Y44.590900
G1X62.730300Y44.592100
G1X62.730700Y44.593600
G1X62.730700Y44.633500
G1X62.734800Y45.046200
G1X62.735200Y45.047700
G1X62.735200Y45.087000
G1X62.735500Y45.117500
G1X62.735200Y45.118600
G1X62.735200Y45.120200
G1X62.725400Y45.156600
G1X62.717500Y45.187600
G1X62.716800Y45.188700
G1X62.716500Y45.190100
G1X62.697100Y45.223600
G1X62.681900Y45.250600
G1X62.681000Y45.251400
G1X62.680300Y45.252800
G1X62.654300Y45.278700
G1X62.631300Y45.302300
G1X62.630000Y45.303000
G1X62.629100Y45.304000
G1X62.596700Y45.322700
G1X62.568900Y45.339100
G1X62.567700Y45.339400
G1X62.566400Y45.340200
G1X62.529100Y45.350100
G1X62.499200Y45.358500
G1X62.497900Y45.358500
G1X62.496500Y45.358900
G1X62.457900Y45.358900
G1X62.426700Y45.359200
G1X62.425600Y45.358900
G1X55.206800Y45.358900
G1X55.206500Y45.359000
G1X55.170600Y45.358900
G1X55.134700Y45.358900
G1X55.134400Y45.358800
G1X55.134000Y45.358800
G1X55.103900Y45.350600
G1X55.064800Y45.340200
G1X55.064500Y45.339900
G1X55.064100Y45.339900
G1X55.039200Y45.325300
G1X55.002100Y45.304000
G1X55.001800Y45.303600
G1X55.001500Y45.303500
G1X54.984800Y45.286600
G1X54.950900Y45.252800
G1X54.950700Y45.252300
G1X54.950500Y45.252200
G1X54.943200Y45.239400
G1X54.914700Y45.190100
G1X54.914600Y45.189400
G1X54.914500Y45.189400
G1X54.912400Y45.181200
G1X54.896000Y45.120200
G1X54.896000Y45.119800
G1X54.895900Y45.119500
G1X54.896000Y45.083600
G1X54.896000Y45.047700
G1X54.896100Y45.047400
G1X54.896100Y45.047000
G1X54.904300Y45.016900
G1X54.914700Y44.977800
G1X54.914900Y44.977500
G1X54.914900Y43.588600
G1X53.951200Y42.624900
G1X53.374800Y42.624900
G1X53.315100Y42.608900
G1X52.905900Y42.608900
G1X52.391000Y42.094000
G1X52.391000Y41.365900
G1X52.905900Y40.851000
G1X53.040900Y40.851000
G1X53.040900Y39.679600
G1X53.059600Y39.609700
G1X53.095800Y39.547000
G1X53.147000Y39.495800
G1X53.209700Y39.459600
G1X53.279600Y39.440900
G1X53.352100Y39.440900
G1X53.702800Y39.440900
G1X53.726900Y39.438800
G1X53.738700Y39.440900
G1X53.751000Y39.440900
G1X53.774700Y39.447300
G1X53.798200Y39.451400
G1X53.808800Y39.456400
G1X53.820900Y39.459600
G1X53.842400Y39.472100
G1X53.863800Y39.482000
G1X53.872900Y39.489600
G1X53.883600Y39.495800
G1X53.900800Y39.513000
G1X53.919300Y39.528500
G1X53.926300Y39.538500
G1X53.934800Y39.547000
G1X53.946800Y39.567800
G1X55.691400Y42.060200
G1X55.700000Y42.068700
G1X55.712000Y42.089600
G1X55.726000Y42.109500
G1X55.730100Y42.121000
G1X55.736200Y42.131400
G1X55.742500Y42.154900
G1X55.750700Y42.177500
G1X55.751700Y42.189600
G1X55.754900Y42.201300
G1X55.754900Y42.225600
G1X55.757000Y42.249700
G1X55.754900Y42.261500
G1X55.754900Y43.391200
G1X56.718600Y44.354900
G1X58.081200Y44.354900
G1X58.501100Y43.935000
G1X58.563800Y43.898800
G1X58.633700Y43.880100
G1X58.706200Y43.880100
G1X58.776100Y43.898800
G1X58.838800Y43.935000
G1X58.890000Y43.986200
G1X58.890000Y43.986300
G1X59.258600Y44.354900
G1X60.621200Y44.354900
G1X61.041100Y43.935000
G1X61.103800Y43.898800
G1X61.173700Y43.880100
G1X61.246200Y43.880100
G1X61.316100Y43.898800
G1X61.378800Y43.935000
G1X61.430000Y43.986200
G1X61.430000Y43.986300
G1X61.798600Y44.354900
G1X62.460300Y44.354900
G1X62.489300Y44.354600
G1X62.490300Y44.354900
G1X62.492000Y44.354900

G0Z0.500
G0X4.911100Y50.951100
G1Z-0.100 f25
G1X4.973800Y50.914900 f200
G1X5.042700Y50.896500
G1X5.043700Y50.896200
G1X5.116100Y50.896200
G1X5.116200Y50.896200
G1X5.183100Y50.914100
G1X5.186100Y50.914900
G1X5.248800Y50.951100
G1X5.249600Y50.951900
G1X5.300000Y51.002300
G1X5.336200Y51.065000
G1X5.354600Y51.133900
G1X5.354900Y51.134900
G1X5.354900Y51.207300
G1X5.354900Y51.221200
G1X5.597400Y51.463700
G1X5.597500Y51.463700
G1X5.642400Y51.508700
G1X5.648700Y51.514900
G1X5.684900Y51.577600
G1X5.703600Y51.647500
G1X5.703600Y51.720000
G1X5.684900Y51.789900
G1X5.648700Y51.852600
G1X5.597500Y51.903800
G1X5.534800Y51.940000
G1X5.464900Y51.958700
G1X5.392400Y51.958700
G1X4.858500Y51.958700
G1X4.788600Y51.940000
G1X4.725900Y51.903800
G1X4.674700Y51.852600
G1X4.638500Y51.789900
G1X4.619800Y51.720000
G1X4.619800Y51.647500
G1X4.638500Y51.577600
G1X4.674700Y51.514900
G1X4.674800Y51.514900
G1X4.728000Y51.422700
G1X4.823700Y51.065000
G1X4.859900Y51.002300
G1X4.860700Y51.001500
G1X4.911100Y50.951100

G0Z0.500
G0X84.639300Y4.756200
G1Z-0.100 f25
G1X84.622600Y4.763100 f200
G1X84.606700Y4.772300
G1X84.589000Y4.777000
G1X84.436800Y4.840100
G1X84.420700Y4.849300
G1X84.403900Y4.853700
G1X84.387600Y4.860500
G1X84.369000Y4.862900
G1X84.350700Y4.867800
G1X84.333200Y4.867700
G1X84.315900Y4.870000
G1X84.297000Y4.867500
G1X84.278300Y4.867400
G1X84.261400Y4.862800
G1X84.244000Y4.860500
G1X84.226900Y4.853400
G1X84.208400Y4.848400
G1X84.193300Y4.839500
G1X84.177100Y4.832900
G1X84.162100Y4.821300
G1X84.145900Y4.811900
G1X84.133600Y4.799400
G1X84.119700Y4.788800
G1X84.108300Y4.773800
G1X84.095000Y4.760500
G1X84.086500Y4.745500
G1X84.075600Y4.731400
G1X84.068300Y4.713600
G1X84.059100Y4.697600
G1X84.054700Y4.680800
G1X84.047900Y4.664500
G1X84.045500Y4.645900
G1X84.040600Y4.627600
G1X84.040700Y4.610000
G1X84.038400Y4.592800
G1X84.040900Y4.574200
G1X84.041900Y4.353800
G1X84.040800Y4.322000
G1X84.042100Y4.316600
G1X84.042100Y4.311600
G1X84.049900Y4.283100
G1X84.057200Y4.251500
G1X84.059800Y4.246800
G1X84.061100Y4.241700
G1X84.076600Y4.215300
G1X84.091300Y4.187600
G1X84.095000Y4.183700
G1X84.097600Y4.179200
G1X84.119700Y4.157400
G1X84.140800Y4.134800
G1X84.145300Y4.132100
G1X84.149000Y4.128300
G1X84.175700Y4.113100
G1X84.328400Y4.018000
G1X84.331700Y4.014600
G1X84.359500Y3.998600
G1X84.385900Y3.982100
G1X84.390400Y3.980800
G1X84.394400Y3.978400
G1X84.426100Y3.970000
G1X84.455200Y3.961100
G1X84.459700Y3.961000
G1X84.464300Y3.959700
G1X84.495700Y3.959700
G1X84.527600Y3.958600
G1X84.532300Y3.959700
G1X84.536800Y3.959700
G1X84.566500Y3.967700
G1X84.598100Y3.975000
G1X84.602200Y3.977200
G1X84.606700Y3.978400
G1X84.633800Y3.994100
G1X84.662000Y4.009100
G1X84.665400Y4.012300
G1X84.669400Y4.014600
G1X84.692300Y4.037600
G1X84.714800Y4.058600
G1X84.717100Y4.062400
G1X84.720600Y4.065800
G1X84.736800Y4.094000
G1X84.753100Y4.120000
G1X84.754400Y4.124500
G1X84.756800Y4.128500
G1X84.765200Y4.160200
G1X84.774100Y4.189300
G1X84.774200Y4.193800
G1X84.775500Y4.198400
G1X84.775500Y4.229800
G1X84.776600Y4.261700
G1X84.775500Y4.266400
G1X84.775500Y4.497800
G1X84.777900Y4.515900
G1X84.775500Y4.534100
G1X84.775500Y4.552300
G1X84.770700Y4.570000
G1X84.768400Y4.587800
G1X84.761500Y4.604300
G1X84.756800Y4.622200
G1X84.747700Y4.637900
G1X84.740800Y4.654700
G1X84.729600Y4.669100
G1X84.720600Y4.684900
G1X84.707600Y4.697800
G1X84.696700Y4.712100
G1X84.682400Y4.723000
G1X84.669400Y4.736100
G1X84.653500Y4.745200
G1X84.639300Y4.756200

G0Z0.500
G0X6.917000Y11.890600
G1Z-0.100 f25
G1X6.900900Y11.881200 f200
G1X6.884500Y11.874500
G1X6.870400Y11.863700
G1X6.854300Y11.854400
G1X6.841300Y11.841300
G1X6.827100Y11.830500
G1X6.816200Y11.816200
G1X6.803100Y11.803200
G1X6.794000Y11.787300
G1X6.783000Y11.773100
G1X6.776100Y11.756400
G1X6.766900Y11.740500
G1X6.762200Y11.722700
G1X6.755300Y11.706200
G1X6.753000Y11.688200
G1X6.748200Y11.670600
G1X6.748200Y11.652500
G1X6.745800Y11.634300
G1X6.748200Y11.616200
G1X6.748200Y11.598100
G1X6.753000Y11.580400
G1X6.755300Y11.562600
G1X6.762100Y11.546300
G1X6.766900Y11.528200
G1X6.776300Y11.512100
G1X6.783000Y11.495700
G1X6.793800Y11.481600
G1X6.803100Y11.465500
G1X6.816200Y11.452500
G1X6.827000Y11.438300
G1X6.841300Y11.427400
G1X6.854300Y11.414300
G1X6.870200Y11.405200
G1X6.884400Y11.394200
G1X6.901100Y11.387300
G1X6.917000Y11.378100
G1X6.934800Y11.373400
G1X6.951300Y11.366500
G1X6.969300Y11.364200
G1X6.986900Y11.359400
G1X7.005000Y11.359400
G1X7.023200Y11.357000
G1X7.041300Y11.359400
G1X12.924900Y11.359400
G1X12.943000Y11.357000
G1X12.961200Y11.359400
G1X12.979300Y11.359400
G1X12.996900Y11.364200
G1X13.014900Y11.366500
G1X13.031400Y11.373400
G1X13.049200Y11.378100
G1X13.065100Y11.387300
G1X13.081800Y11.394200
G1X13.096000Y11.405200
G1X13.111900Y11.414300
G1X13.124900Y11.427400
G1X13.139200Y11.438300
G1X13.150000Y11.452500
G1X13.163100Y11.465500
G1X13.172400Y11.481700
G1X13.183200Y11.495700
G1X13.189900Y11.512000
G1X13.199300Y11.528200
G1X13.204100Y11.546300
G1X13.210900Y11.562600
G1X13.213200Y11.580400
G1X13.218000Y11.598100
G1X13.218000Y11.616200
G1X13.220400Y11.634300
G1X13.218000Y11.652500
G1X13.218000Y11.670600
G1X13.213200Y11.688200
G1X13.210900Y11.706200
G1X13.204000Y11.722700
G1X13.199300Y11.740500
G1X13.190100Y11.756400
G1X13.183200Y11.773100
G1X13.172200Y11.787300
G1X13.163100Y11.803200
G1X13.150000Y11.816200
G1X13.139100Y11.830500
G1X13.124900Y11.841300
G1X13.111900Y11.854400
G1X13.095700Y11.863700
G1X13.081700Y11.874500
G1X13.065400Y11.881200
G1X13.049200Y11.890600
G1X13.031100Y11.895400
G1X12.638100Y12.058100
G1X12.175200Y12.521100
G1X11.924800Y13.125500
G1X11.924800Y13.674200
G1X11.927200Y13.692600
G1X11.924800Y13.710500
G1X11.924800Y13.728300
G1X11.920000Y13.746100
G1X11.917600Y13.764300
G1X11.910800Y13.780600
G1X11.906100Y13.798200
G1X11.896700Y13.814300
G1X11.889800Y13.831100
G1X11.879000Y13.845000
G1X11.869900Y13.860900
G1X11.856600Y13.874100
G1X11.845600Y13.888500
G1X11.831500Y13.899200
G1X11.818700Y13.912100
G1X11.802600Y13.921300
G1X11.788100Y13.932500
G1X11.771600Y13.939200
G1X11.756000Y13.948300
G1X11.737800Y13.953100
G1X11.721200Y13.960000
G1X11.703700Y13.962300
G1X11.686100Y13.967000
G1X11.667700Y13.967000
G1X11.649300Y13.969400
G1X11.631400Y13.967000
G1X11.613600Y13.967000
G1X11.595800Y13.962200
G1X11.577600Y13.959800
G1X11.561300Y13.953000
G1X11.543700Y13.948300
G1X11.527600Y13.938900
G1X11.510800Y13.932000
G1X11.496900Y13.921200
G1X11.481000Y13.912100
G1X11.467800Y13.898800
G1X11.453400Y13.887800
G1X11.442700Y13.873700
G1X11.429800Y13.860900
G1X11.420600Y13.844800
G1X11.409400Y13.830300
G1X11.402700Y13.813800
G1X11.393600Y13.798200
G1X11.392800Y13.795000
G1X10.933700Y13.336000
G1X10.329300Y13.085600
G1X9.674700Y13.085600
G1X9.070300Y13.336000
G1X8.609700Y13.796500
G1X8.607400Y13.805400
G1X8.598200Y13.821200
G1X8.591500Y13.837600
G1X8.580500Y13.851900
G1X8.571200Y13.868100
G1X8.558200Y13.881000
G1X8.547500Y13.895100
G1X8.533100Y13.906100
G1X8.520000Y13.919300
G1X8.504300Y13.928300
G1X8.490100Y13.939300
G1X8.473200Y13.946200
G1X8.457300Y13.955500
G1X8.439600Y13.960200
G1X8.423300Y13.967000
G1X8.405300Y13.969400
G1X8.387400Y13.974200
G1X8.369400Y13.974200
G1X8.351500Y13.976600
G1X8.333100Y13.974200
G1X8.314900Y13.974200
G1X8.297500Y13.969500
G1X8.279700Y13.967200
G1X8.263100Y13.960300
G1X8.245000Y13.955500
G1X8.229200Y13.946300
G1X8.212800Y13.939600
G1X8.198500Y13.928600
G1X8.182300Y13.919300
G1X8.169400Y13.906300
G1X8.155300Y13.895600
G1X8.144300Y13.881200
G1X8.131100Y13.868100
G1X8.122100Y13.852400
G1X8.111100Y13.838200
G1X8.104200Y13.821300
G1X8.094900Y13.805400
G1X8.090200Y13.787700
G1X8.083400Y13.771400
G1X8.081000Y13.753400
G1X8.076200Y13.735500
G1X8.076200Y13.717500
G1X8.073800Y13.699600
G1X8.076200Y13.681200
G1X8.076200Y13.139900
G1X7.825800Y12.535500
G1X7.362900Y12.072600
G1X6.935100Y11.895400
G1X6.917000Y11.890600

G0Z0.500
G0X76.612100Y13.204200
G1Z-0.100 f25
G1X76.595600Y13.197300 f200
G1X76.577800Y13.192600
G1X76.561800Y13.183300
G1X76.323300Y13.084500
G1X76.315500Y13.084000
G1X76.290400Y13.075300
G1X76.264300Y13.068400
G1X76.256000Y13.063500
G1X76.247000Y13.060500
G1X76.225000Y13.045700
G1X76.201600Y13.032200
G1X76.194900Y13.025400
G1X76.186900Y13.020100
G1X76.169600Y13.000100
G1X76.150400Y12.981000
G1X76.145500Y12.972500
G1X76.139400Y12.965500
G1X76.128100Y12.942200
G1X76.114200Y12.918300
G1X76.111700Y12.908700
G1X76.107600Y12.900500
G1X76.102600Y12.874900
G1X76.095500Y12.848400
G1X76.095500Y12.838600
G1X76.093700Y12.829500
G1X76.095500Y12.802900
G1X76.095500Y12.775900
G1X76.098000Y12.766800
G1X76.098600Y12.757200
G1X76.107300Y12.732100
G1X76.114200Y12.706000
G1X76.119100Y12.697700
G1X76.122100Y12.688700
G1X76.136900Y12.666800
G1X76.150400Y12.643300
G1X76.157300Y12.636500
G1X76.387200Y12.294600
G1X76.400600Y12.271300
G1X76.407400Y12.264600
G1X76.412700Y12.256600
G1X76.432800Y12.239200
G1X76.515100Y12.156800
G1X76.577800Y12.120600
G1X76.647700Y12.101900
G1X76.720200Y12.101900
G1X76.790100Y12.120600
G1X76.852800Y12.156800
G1X76.904000Y12.208000
G1X76.940200Y12.270700
G1X76.958900Y12.340600
G1X76.958900Y12.413100
G1X76.958900Y12.918200
G1X76.961300Y12.936300
G1X76.958900Y12.954500
G1X76.958900Y12.972600
G1X76.954100Y12.990200
G1X76.951800Y13.008200
G1X76.944900Y13.024700
G1X76.940200Y13.042500
G1X76.931000Y13.058400
G1X76.924100Y13.075100
G1X76.913100Y13.089300
G1X76.904000Y13.105200
G1X76.890900Y13.118200
G1X76.880000Y13.132500
G1X76.865800Y13.143300
G1X76.852800Y13.156400
G1X76.836600Y13.165700
G1X76.822600Y13.176500
G1X76.806200Y13.183200
G1X76.790100Y13.192600
G1X76.772000Y13.197400
G1X76.755700Y13.204200
G1X76.737900Y13.206500
G1X76.720200Y13.211300
G1X76.702100Y13.211300
G1X76.684000Y13.213700
G1X76.665800Y13.211300
G1X76.647700Y13.211300
G1X76.630100Y13.206500
G1X76.612100Y13.204200

G0Z0.500
G0X80.624900Y15.002700
G1Z-0.100 f25
G1X80.624700Y14.982700 f200
G1X80.622200Y14.963100
G1X80.624400Y14.946800
G1X80.623800Y14.878500
G1X80.623500Y14.877300
G1X80.623500Y14.841400
G1X80.623200Y14.807300
G1X80.623500Y14.806200
G1X80.623500Y14.804800
G1X80.633500Y14.767400
G1X80.641300Y14.737200
G1X80.641900Y14.736300
G1X80.642200Y14.734900
G1X80.661200Y14.702100
G1X80.676900Y14.674200
G1X80.677800Y14.673400
G1X80.678400Y14.672200
G1X80.702500Y14.648100
G1X80.727600Y14.622500
G1X80.728800Y14.621800
G1X80.836500Y14.514100
G1X80.837100Y14.513100
G1X80.860000Y14.490600
G1X80.886800Y14.463800
G1X80.888000Y14.463200
G1X80.888800Y14.462300
G1X80.916900Y14.446500
G1X80.949500Y14.427600
G1X80.950900Y14.427300
G1X80.951800Y14.426700
G1X80.982300Y14.418900
G1X81.019400Y14.408900
G1X81.020800Y14.408900
G1X81.021900Y14.408600
G1X81.058000Y14.408900
G1X81.091900Y14.408900
G1X81.092900Y14.409200
G1X81.094300Y14.409200
G1X81.127000Y14.418300
G1X81.161800Y14.427600
G1X81.163000Y14.428300
G1X81.164100Y14.428600
G1X81.191900Y14.445000
G1X81.224500Y14.463800
G1X81.225400Y14.464700
G1X81.226400Y14.465300
G1X81.248900Y14.488200
G1X81.275700Y14.515000
G1X81.276300Y14.516200
G1X81.277200Y14.517000
G1X81.293000Y14.545100
G1X81.311900Y14.577700
G1X81.312200Y14.579100
G1X81.312800Y14.580000
G1X81.320600Y14.610500
G1X81.330600Y14.647600
G1X81.330600Y14.649000
G1X81.330900Y14.650100
G1X81.330600Y14.684900
G1X81.330600Y14.720100
G1X81.330300Y14.721200
G1X81.330100Y14.746300
G1X81.332300Y14.763500
G1X81.329800Y14.782200
G1X81.329600Y14.801300
G1X81.324900Y14.818200
G1X81.322600Y14.835200
G1X81.315300Y14.852500
G1X81.310200Y14.871100
G1X81.301300Y14.886200
G1X81.294700Y14.902000
G1X81.283300Y14.916800
G1X81.273500Y14.933400
G1X81.260900Y14.945700
G1X81.129300Y15.116300
G1X81.121100Y15.130800
G1X81.107000Y15.145100
G1X81.095100Y15.160600
G1X81.082300Y15.170300
G1X81.070400Y15.182500
G1X81.052700Y15.192900
G1X81.037500Y15.204500
G1X81.022500Y15.210600
G1X81.008000Y15.219200
G1X80.988600Y15.224600
G1X80.970600Y15.232000
G1X80.954500Y15.234100
G1X80.938300Y15.238600
G1X80.918300Y15.238800
G1X80.898700Y15.241300
G1X80.882200Y15.239100
G1X80.865800Y15.239200
G1X80.846700Y15.234200
G1X80.827000Y15.231600
G1X80.811900Y15.225200
G1X80.795700Y15.221100
G1X80.778300Y15.211200
G1X80.760200Y15.203700
G1X80.747300Y15.193700
G1X80.732700Y15.185500
G1X80.718300Y15.171400
G1X80.702900Y15.159500
G1X80.693200Y15.146700
G1X80.681000Y15.134800
G1X80.670600Y15.117100
G1X80.659000Y15.101900
G1X80.652900Y15.086900
G1X80.644300Y15.072400
G1X80.638900Y15.053000
G1X80.631500Y15.035000
G1X80.629400Y15.018900
G1X80.624900Y15.002700

G0Z0.500
G0X57.617000Y22.077400
G1Z-0.100 f25
G1X57.626700Y22.101400 f200
G1X57.627800Y22.103700
G1X57.639300Y22.115100
G1X57.639700Y22.115800
G1X57.639900Y22.116000
G1X57.651300Y22.135900
G1X57.675500Y22.177800
G1X57.675600Y22.178400
G1X57.675900Y22.178800
G1X57.683400Y22.207500
G1X57.694200Y22.247700
G1X57.694200Y22.248500
G1X57.694300Y22.248800
G1X57.694200Y22.285400
G1X57.694200Y22.320200
G1X57.694100Y22.320500
G1X57.694100Y22.321300
G1X57.685300Y22.353200
G1X57.675500Y22.390100
G1X57.675000Y22.390800
G1X57.675000Y22.391100
G1X57.663900Y22.410200
G1X57.639300Y22.452800
G1X57.638900Y22.453200
G1X57.638600Y22.453700
G1X57.617800Y22.474200
G1X57.588100Y22.504000
G1X57.587400Y22.504400
G1X57.587200Y22.504600
G1X57.567300Y22.516000
G1X57.525400Y22.540200
G1X57.524800Y22.540300
G1X57.524400Y22.540600
G1X57.495700Y22.548100
G1X57.455500Y22.558900
G1X57.454700Y22.558900
G1X57.454400Y22.559000
G1X57.417800Y22.558900
G1X55.773300Y22.558900
G1X55.703400Y22.540200
G1X55.640700Y22.504000
G1X55.589500Y22.452800
G1X55.553300Y22.390100
G1X55.534600Y22.320200
G1X55.534600Y22.247700
G1X55.534600Y21.513000
G1X54.570900Y20.549300
G1X53.208300Y20.549300
G1X52.839700Y20.917900
G1X52.839700Y20.918000
G1X52.796700Y20.961000
G1X52.788500Y20.969200
G1X52.725800Y21.005400
G1X52.655900Y21.024100
G1X52.583400Y21.024100
G1X52.513500Y21.005400
G1X52.450800Y20.969200
G1X52.399600Y20.918000
G1X52.030900Y20.549300
G1X50.668300Y20.549300
G1X50.299700Y20.917900
G1X50.299700Y20.918000
G1X50.256700Y20.961000
G1X50.248500Y20.969200
G1X50.185800Y21.005400
G1X50.115900Y21.024100
G1X50.043400Y21.024100
G1X49.973500Y21.005400
G1X49.910800Y20.969200
G1X49.859600Y20.918000
G1X49.490900Y20.549300
G1X48.128300Y20.549300
G1X47.708400Y20.969200
G1X47.645700Y21.005400
G1X47.575800Y21.024100
G1X47.503300Y21.024100
G1X47.433400Y21.005400
G1X47.370700Y20.969200
G1X47.319500Y20.918000
G1X47.319500Y20.917900
G1X46.950900Y20.549300
G1X45.588300Y20.549300
G1X45.168400Y20.969200
G1X45.105700Y21.005400
G1X45.035800Y21.024100
G1X44.963300Y21.024100
G1X44.893400Y21.005400
G1X44.830700Y20.969200
G1X44.779500Y20.918000
G1X44.779500Y20.917900
G1X44.410900Y20.549300
G1X44.074200Y20.549300
G1X44.060700Y20.551500
G1X44.038700Y20.549300
G1X44.015800Y20.549300
G1X44.002200Y20.545600
G1X43.988600Y20.544300
G1X43.968100Y20.536500
G1X43.945900Y20.530600
G1X43.933700Y20.523500
G1X43.920900Y20.518700
G1X43.902900Y20.505700
G1X43.883200Y20.494400
G1X43.873500Y20.484600
G1X43.862100Y20.476500
G1X43.847900Y20.459000
G1X43.832000Y20.443200
G1X43.825000Y20.431000
G1X43.816300Y20.420400
G1X43.807200Y20.400100
G1X43.795800Y20.380500
G1X43.792300Y20.367100
G1X43.786500Y20.354500
G1X43.782900Y20.332200
G1X43.777100Y20.310600
G1X43.777100Y20.296500
G1X43.774900Y20.283000
G1X43.777100Y20.261000
G1X43.777100Y20.238100
G1X43.780800Y20.224500
G1X43.782100Y20.210900
G1X43.789900Y20.190400
G1X43.795800Y20.168200
G1X43.802900Y20.156000
G1X43.807700Y20.143200
G1X43.820700Y20.125200
G1X43.832000Y20.105500
G1X43.841800Y20.095800
G1X43.849900Y20.084400
G1X43.867400Y20.070200
G1X43.883200Y20.054300
G1X43.895400Y20.047300
G1X43.906000Y20.038600
G1X43.926100Y20.029600
G1X43.945900Y20.018100
G1X43.959500Y20.014500
G1X46.629700Y18.809700
G1X46.648000Y18.799000
G1X46.661400Y18.795400
G1X46.674800Y18.789300
G1X46.696700Y18.785800
G1X46.717800Y18.780000
G1X46.732400Y18.780000
G1X46.746300Y18.777700
G1X46.767800Y18.779900
G1X50.967000Y18.766600
G1X50.973300Y18.765200
G1X51.002600Y18.766500
G1X51.032700Y18.766400
G1X51.039100Y18.768200
G1X51.045700Y18.768400
G1X51.073500Y18.777200
G1X51.084100Y18.780100
G1X51.208100Y18.769000
G1X51.219800Y18.765800
G1X51.244600Y18.765800
G1X51.268600Y18.763600
G1X51.280200Y18.765700
G1X51.406100Y18.765300
G1X51.416300Y18.761600
G1X51.443600Y18.750100
G1X51.450100Y18.749300
G1X51.456100Y18.747000
G1X51.485100Y18.744500
G1X51.496300Y18.743000
G1X51.606700Y18.685300
G1X51.616200Y18.677900
G1X51.638900Y18.668400
G1X51.660300Y18.657200
G1X51.671900Y18.654700
G1X51.788000Y18.606200
G1X51.796000Y18.598900
G1X51.816800Y18.577800
G1X51.822600Y18.574400
G1X51.827400Y18.570000
G1X51.853400Y18.556500
G1X51.879300Y18.541300
G1X51.885800Y18.539500
G1X56.179500Y16.298100
G1X56.189400Y16.290500
G1X56.211700Y16.281300
G1X56.232900Y16.270200
G1X56.245000Y16.267500
G1X56.256300Y16.262800
G1X56.280000Y16.259700
G1X56.303500Y16.254400
G1X56.315800Y16.254900
G1X56.328000Y16.253300
G1X56.352100Y16.256500
G1X56.375900Y16.257500
G1X56.387600Y16.261200
G1X56.399900Y16.262800
G1X56.422200Y16.272100
G1X56.445000Y16.279200
G1X56.455300Y16.285800
G1X56.675500Y16.377000
G1X57.187100Y16.377000
G1X57.187800Y16.376800
G1X57.223900Y16.377000
G1X57.258900Y16.377000
G1X57.259600Y16.377200
G1X57.260300Y16.377200
G1X57.288600Y16.385000
G1X57.328800Y16.395700
G1X57.329600Y16.396200
G1X57.330100Y16.396300
G1X57.352500Y16.409400
G1X57.391500Y16.431900
G1X57.392100Y16.432500
G1X57.392600Y16.432800
G1X57.409400Y16.449900
G1X57.442700Y16.483100
G1X57.443200Y16.484100
G1X57.443500Y16.484300
G1X57.454100Y16.502900
G1X57.478900Y16.545800
G1X57.479100Y16.546600
G1X57.479400Y16.547100
G1X57.487900Y16.579500
G1X57.497600Y16.615700
G1X57.497600Y16.616400
G1X57.497800Y16.617100
G1X57.497600Y16.655400
G1X57.497600Y16.688200
G1X57.497400Y16.688800
G1X57.472700Y21.440000
G1X57.474500Y21.449400
G1X57.472500Y21.475500
G1X57.472400Y21.502600
G1X57.469800Y21.512100
G1X57.459600Y21.647000
G1X57.459900Y21.648200
G1X57.468600Y21.674300
G1X57.469100Y21.683300
G1X57.471400Y21.692000
G1X57.471200Y21.719700
G1X57.471300Y21.720600
G1X57.521900Y21.844600
G1X57.527200Y21.852600
G1X57.535400Y21.877600
G1X57.545600Y21.902500
G1X57.546800Y21.912300
G1X57.588900Y22.040300
G1X57.589400Y22.041000
G1X57.607800Y22.062200
G1X57.611800Y22.070700
G1X57.617000Y22.077400

G0Z0.500
G0X39.220100Y47.586300
G1Z-0.100 f25
G1X39.220100Y47.586400 f200
G1X39.304100Y47.670400
G1X39.319800Y47.697700
G1X39.340200Y47.733000
G1X39.358900Y47.802900
G1X39.358900Y47.803100
G1X39.358900Y47.875600
G1X39.358900Y49.046900
G1X39.340200Y49.116800
G1X39.304000Y49.179500
G1X39.252800Y49.230700
G1X39.252600Y49.230700
G1X39.135900Y49.347600
G1X39.135900Y49.347700
G1X39.086500Y49.397100
G1X39.084800Y49.398800
G1X39.084700Y49.398900
G1X39.022000Y49.435100
G1X38.971700Y49.448500
G1X38.952200Y49.453800
G1X38.879700Y49.453800
G1X38.879600Y49.453800
G1X38.809700Y49.435100
G1X38.747000Y49.398900
G1X38.696700Y49.348600
G1X38.695900Y49.347800
G1X38.695800Y49.347700
G1X38.659600Y49.285000
G1X38.646200Y49.234700
G1X38.640900Y49.215200
G1X38.640900Y49.142700
G1X38.640900Y47.802800
G1X38.640900Y47.802600
G1X38.650800Y47.766000
G1X38.659600Y47.732900
G1X38.659700Y47.732800
G1X38.659700Y47.732700
G1X38.668600Y47.717300
G1X38.695800Y47.670200
G1X38.747000Y47.619000
G1X38.747100Y47.619000
G1X38.822800Y47.543400
G1X38.831200Y47.534900
G1X38.893900Y47.498800
G1X38.963900Y47.480100
G1X39.036400Y47.480100
G1X39.106300Y47.498900
G1X39.168900Y47.535100
G1X39.177300Y47.543600
G1X39.220100Y47.586300

G0Z0.500
G0X15.547400Y20.966700
G1Z-0.100 f25
G1X15.484700Y21.002900 f200
G1X15.414800Y21.021600
G1X15.342300Y21.021600
G1X15.272400Y21.002900
G1X15.209700Y20.966700
G1X15.158500Y20.915500
G1X15.095800Y20.852800
G1X15.059600Y20.790100
G1X15.040900Y20.720200
G1X15.040900Y20.647700
G1X15.040900Y18.192700
G1X14.882600Y17.810300
G1X14.525300Y17.453100
G1X12.401500Y15.329200
G1X12.387200Y15.318300
G1X12.376400Y15.304100
G1X12.363300Y15.291100
G1X12.354000Y15.274900
G1X12.343200Y15.260900
G1X12.336500Y15.244600
G1X12.327100Y15.228400
G1X12.322300Y15.210300
G1X12.315500Y15.194000
G1X12.313200Y15.176200
G1X12.308400Y15.158500
G1X12.308400Y15.140400
G1X12.306000Y15.122300
G1X12.308400Y15.104100
G1X12.308400Y15.086000
G1X12.313200Y15.068400
G1X12.315500Y15.050400
G1X12.322400Y15.033900
G1X12.327100Y15.016100
G1X12.336300Y15.000200
G1X12.343200Y14.983500
G1X12.354200Y14.969300
G1X12.363300Y14.953400
G1X12.376400Y14.940400
G1X12.387300Y14.926100
G1X12.401500Y14.915300
G1X12.414500Y14.902200
G1X12.430700Y14.892900
G1X12.444700Y14.882100
G1X12.461000Y14.875400
G1X12.477200Y14.866000
G1X12.495300Y14.861200
G1X12.511600Y14.854400
G1X12.529400Y14.852100
G1X12.547100Y14.847300
G1X12.565200Y14.847300
G1X12.583300Y14.844900
G1X12.601500Y14.847300
G1X12.619600Y14.847300
G1X12.637200Y14.852100
G1X12.655200Y14.854400
G1X12.671700Y14.861300
G1X12.689500Y14.866000
G1X12.705500Y14.875300
G1X13.242600Y15.097800
G1X13.897100Y15.097800
G1X14.501500Y14.847400
G1X14.964400Y14.384500
G1X15.214800Y13.780100
G1X15.214800Y13.468300
G1X15.233500Y13.398400
G1X15.269700Y13.335700
G1X15.320900Y13.284500
G1X15.383600Y13.248300
G1X15.440300Y13.233200
G1X16.053200Y12.979200
G1X16.516100Y12.516400
G1X16.744100Y11.965900
G1X16.744100Y11.965800
G1X16.770700Y11.901800
G1X16.771800Y11.899000
G1X16.815800Y11.841500
G1X16.873300Y11.797500
G1X16.940100Y11.769800
G1X17.012000Y11.760300
G1X17.083800Y11.769800
G1X17.150600Y11.797500
G1X17.208100Y11.841500
G1X17.252100Y11.899000
G1X17.279800Y11.965800
G1X17.279800Y11.965900
G1X17.492300Y12.478900
G1X17.955200Y12.941800
G1X18.573900Y13.198100
G1X18.621500Y13.210800
G1X18.684200Y13.247000
G1X18.735400Y13.298200
G1X18.771600Y13.360900
G1X18.790300Y13.430800
G1X18.790300Y13.503300
G1X18.790300Y13.794500
G1X19.040700Y14.398900
G1X19.503600Y14.861800
G1X20.108000Y15.112200
G1X20.762600Y15.112200
G1X21.367000Y14.861800
G1X21.827600Y14.401300
G1X21.829900Y14.392400
G1X21.839100Y14.376600
G1X21.845800Y14.360200
G1X21.856800Y14.345900
G1X21.866100Y14.329700
G1X21.879100Y14.316800
G1X21.889800Y14.302700
G1X21.904200Y14.291700
G1X21.917300Y14.278500
G1X21.933000Y14.269500
G1X21.947200Y14.258500
G1X21.964100Y14.251500
G1X21.980000Y14.242300
G1X21.997700Y14.237600
G1X22.014000Y14.230800
G1X22.032000Y14.228400
G1X22.049900Y14.223600
G1X22.067900Y14.223600
G1X22.085800Y14.221200
G1X22.104200Y14.223600
G1X22.122400Y14.223600
G1X22.139800Y14.228300
G1X22.157600Y14.230600
G1X22.174200Y14.237500
G1X22.192300Y14.242300
G1X22.208100Y14.251500
G1X22.224500Y14.258200
G1X22.238800Y14.269200
G1X22.255000Y14.278500
G1X22.267900Y14.291500
G1X22.282000Y14.302200
G1X22.293000Y14.316600
G1X22.306200Y14.329700
G1X22.315200Y14.345400
G1X22.326200Y14.359600
G1X22.333200Y14.376500
G1X22.342400Y14.392400
G1X22.347100Y14.410100
G1X22.353900Y14.426400
G1X22.356300Y14.444400
G1X22.361100Y14.462300
G1X22.361100Y14.480300
G1X22.363500Y14.498200
G1X22.361100Y14.516600
G1X22.361100Y14.888800
G1X22.342400Y14.958700
G1X22.306200Y15.021400
G1X22.255000Y15.072600
G1X18.623300Y18.704300
G1X18.317200Y19.010300
G1X18.158900Y19.392700
G1X18.158900Y20.748400
G1X18.140200Y20.818300
G1X18.104000Y20.881000
G1X18.052800Y20.932200
G1X17.990100Y20.968400
G1X17.920200Y20.987100
G1X17.847700Y20.987100
G1X17.777800Y20.968400
G1X17.715100Y20.932200
G1X17.663900Y20.881000
G1X17.663900Y20.880900
G1X17.329800Y20.546800
G1X15.967200Y20.546800
G1X15.598600Y20.915400
G1X15.598600Y20.915500
G1X15.563800Y20.950200
G1X15.547400Y20.966700

G0Z0.500
G0X35.735700Y43.207800
G1Z-0.100 f25
G1X35.740700Y43.212800 f200
G1X35.747000Y43.216900
G1X35.766900Y43.239100
G1X35.810200Y43.282400
G1X35.878900Y43.310900
G1X35.903700Y43.318900
G1X35.912900Y43.324900
G1X35.922600Y43.328900
G1X35.942700Y43.344300
G1X37.189500Y44.155600
G1X37.214300Y44.169900
G1X37.219500Y44.175100
G1X37.225800Y44.179200
G1X37.245100Y44.200800
G1X37.265500Y44.221100
G1X37.269200Y44.227600
G1X37.274200Y44.233100
G1X37.287300Y44.258900
G1X37.301700Y44.283800
G1X37.303600Y44.291000
G1X37.307000Y44.297600
G1X37.312900Y44.325800
G1X37.320400Y44.353700
G1X37.320400Y44.361300
G1X37.321900Y44.368400
G1X37.320400Y44.397000
G1X37.320400Y44.426200
G1X37.318500Y44.433300
G1X37.318100Y44.440800
G1X37.309100Y44.468400
G1X37.301700Y44.496100
G1X37.298000Y44.502400
G1X37.295700Y44.509600
G1X37.279800Y44.534000
G1X37.265500Y44.558800
G1X37.260300Y44.564000
G1X37.256200Y44.570300
G1X37.234600Y44.589600
G1X37.214300Y44.610000
G1X37.207800Y44.613700
G1X37.202300Y44.618700
G1X37.176500Y44.631800
G1X37.151600Y44.646200
G1X37.144400Y44.648100
G1X37.137800Y44.651500
G1X37.109600Y44.657400
G1X37.081700Y44.664900
G1X37.074100Y44.664900
G1X37.067000Y44.666400
G1X37.048100Y44.665400
G1X36.680000Y45.033500
G1X36.680000Y45.033600
G1X36.637000Y45.076600
G1X36.628800Y45.084800
G1X36.566100Y45.121000
G1X36.496200Y45.139700
G1X36.423700Y45.139700
G1X36.353800Y45.121000
G1X36.291100Y45.084800
G1X36.239900Y45.033600
G1X35.871200Y44.664900
G1X34.508600Y44.664900
G1X33.544900Y45.628600
G1X33.544900Y46.991200
G1X34.508600Y47.954900
G1X35.871200Y47.954900
G1X36.063800Y47.762400
G1X36.063900Y47.762100
G1X36.115100Y47.710900
G1X36.177800Y47.674700
G1X36.246700Y47.656300
G1X36.247700Y47.656000
G1X36.320100Y47.656000
G1X36.320200Y47.656000
G1X36.387100Y47.673900
G1X36.390100Y47.674700
G1X36.452800Y47.710900
G1X36.453600Y47.711700
G1X36.504000Y47.762100
G1X36.540200Y47.824800
G1X36.558600Y47.893700
G1X36.558900Y47.894700
G1X36.558900Y47.967100
G1X36.558900Y48.720200
G1X36.540200Y48.790100
G1X36.504000Y48.852800
G1X36.452800Y48.904000
G1X36.390100Y48.940200
G1X36.320200Y48.958900
G1X36.247700Y48.958900
G1X34.552900Y48.958900
G1X34.483000Y48.940200
G1X34.420300Y48.904000
G1X34.369100Y48.852800
G1X33.871200Y48.354900
G1X32.508600Y48.354900
G1X31.544900Y49.318600
G1X31.544900Y50.681200
G1X32.327200Y51.463500
G1X32.327300Y51.463500
G1X32.363800Y51.500100
G1X32.378500Y51.514700
G1X32.414700Y51.577400
G1X32.433400Y51.647300
G1X32.433400Y51.719800
G1X32.414700Y51.789700
G1X32.378500Y51.852400
G1X32.327300Y51.903600
G1X32.264600Y51.939800
G1X32.194700Y51.958500
G1X32.122200Y51.958500
G1X8.534900Y51.958700
G1X8.465000Y51.940000
G1X8.402300Y51.903800
G1X8.351100Y51.852600
G1X8.314900Y51.789900
G1X8.296200Y51.720000
G1X8.296200Y51.647500
G1X8.314900Y51.577600
G1X8.351100Y51.514900
G1X8.402300Y51.463700
G1X8.402400Y51.463700
G1X8.644900Y51.221200
G1X8.644900Y49.858600
G1X8.225000Y49.438700
G1X8.188800Y49.376000
G1X8.170100Y49.306100
G1X8.170100Y49.233600
G1X8.188800Y49.163700
G1X8.225000Y49.101000
G1X8.276200Y49.049800
G1X8.276300Y49.049800
G1X8.644900Y48.681200
G1X8.644900Y47.749700
G1X8.663600Y47.679800
G1X8.699800Y47.617100
G1X8.751000Y47.565900
G1X8.813700Y47.529700
G1X8.883600Y47.511000
G1X8.956100Y47.511000
G1X9.026000Y47.529700
G1X9.088700Y47.565900
G1X9.139900Y47.617100
G1X9.139900Y47.617200
G1X9.531700Y48.009100
G1X10.185700Y48.279900
G1X10.893900Y48.279900
G1X11.069400Y48.207300
G1X11.069400Y48.207200
G1X11.136300Y48.179500
G1X11.208000Y48.170000
G1X11.279900Y48.179500
G1X11.346800Y48.207200
G1X11.404200Y48.251300
G1X11.435800Y48.292500
G1X11.448200Y48.308600
G1X11.448200Y48.308700
G1X11.530700Y48.508100
G1X12.031700Y49.009100
G1X12.685700Y49.279900
G1X18.394100Y49.279900
G1X19.048100Y49.009100
G1X19.549100Y48.508100
G1X19.819900Y47.854100
G1X19.819900Y47.145700
G1X19.549100Y46.491700
G1X19.048100Y45.990700
G1X18.394100Y45.719900
G1X15.667300Y45.719900
G1X15.736600Y45.761400
G1X15.768800Y45.779900
G1X15.770400Y45.781600
G1X15.772200Y45.782600
G1X15.795400Y45.806600
G1X15.820000Y45.831100
G1X15.821000Y45.832900
G1X15.822600Y45.834500
G1X15.839100Y45.864200
G1X15.856200Y45.893800
G1X15.856800Y45.896000
G1X15.857800Y45.897800
G1X15.865600Y45.929000
G1X15.874900Y45.963700
G1X15.874900Y45.966100
G1X15.875400Y45.968000
G1X15.874900Y46.000600
G1X15.874900Y46.621000
G1X15.904000Y46.621000
G1X16.418900Y47.135900
G1X16.418900Y47.864000
G1X15.904000Y48.378900
G1X15.175900Y48.378900
G1X14.661000Y47.864000
G1X14.661000Y47.135900
G1X15.175900Y46.621000
G1X15.325000Y46.621000
G1X15.325000Y46.155900
G1X14.596300Y45.719900
G1X12.687500Y45.719900
G1X12.683400Y45.721000
G1X12.667100Y45.727800
G1X12.648900Y45.730200
G1X12.631100Y45.735000
G1X12.613200Y45.735000
G1X12.595300Y45.737400
G1X12.576900Y45.735000
G1X12.558600Y45.735000
G1X12.541100Y45.730300
G1X12.523400Y45.728000
G1X12.506800Y45.721100
G1X12.488700Y45.716300
G1X12.472900Y45.707100
G1X12.456500Y45.700400
G1X12.442100Y45.689300
G1X12.426000Y45.680100
G1X12.413400Y45.667400
G1X12.399000Y45.656500
G1X12.387800Y45.641800
G1X12.374800Y45.628900
G1X12.365800Y45.613200
G1X12.354900Y45.599100
G1X12.348000Y45.582300
G1X12.338600Y45.566200
G1X12.333900Y45.548600
G1X12.327100Y45.532300
G1X12.324700Y45.514100
G1X12.319900Y45.496300
G1X12.319900Y45.478400
G1X12.317500Y45.460500
G1X12.319900Y45.442100
G1X12.319900Y43.749500
G1X10.973100Y40.252700
G1X10.893900Y40.219900
G1X10.185700Y40.219900
G1X9.531700Y40.490700
G1X9.030700Y40.991700
G1X8.759900Y41.645700
G1X8.759900Y44.266100
G1X8.741200Y44.336000
G1X8.705000Y44.398700
G1X8.653800Y44.449900
G1X8.591100Y44.486100
G1X8.521200Y44.504800
G1X8.448700Y44.504800
G1X8.378800Y44.486100
G1X8.316100Y44.449900
G1X8.264900Y44.398700
G1X8.264900Y44.398600
G1X7.681200Y43.814900
G1X6.318600Y43.814900
G1X6.126700Y44.006700
G1X6.118800Y44.017900
G1X6.100500Y44.032900
G1X6.084700Y44.048800
G1X6.073400Y44.055300
G1X6.062900Y44.064000
G1X6.041700Y44.073600
G1X6.022100Y44.085000
G1X6.009300Y44.088400
G1X5.997100Y44.094000
G1X5.974300Y44.097800
G1X5.952100Y44.103800
G1X5.938700Y44.103800
G1X5.925700Y44.106000
G1X5.902700Y44.103800
G1X5.879700Y44.103800
G1X5.866900Y44.100400
G1X5.853500Y44.099100
G1X5.831900Y44.091000
G1X5.809700Y44.085100
G1X5.798300Y44.078400
G1X5.785700Y44.073800
G1X5.766900Y44.060300
G1X5.747000Y44.048900
G1X5.737700Y44.039500
G1X5.726800Y44.031800
G1X5.711900Y44.013700
G1X5.695900Y43.997700
G1X5.689400Y43.986400
G1X5.680700Y43.975900
G1X5.671000Y43.954600
G1X5.659700Y43.935100
G1X5.656300Y43.922300
G1X5.071400Y42.640300
G1X5.059600Y42.620000
G1X5.056100Y42.606900
G1X5.050700Y42.595100
G1X5.046900Y42.572500
G1X5.040900Y42.550100
G1X5.040900Y42.536700
G1X5.038700Y42.523700
G1X5.040900Y42.500600
G1X5.040900Y41.962000
G1X4.909500Y41.962000
G1X4.394600Y41.447100
G1X4.394600Y40.719000
G1X4.909500Y40.204100
G1X5.040900Y40.204100
G1X5.040900Y39.422000
G1X4.909500Y39.422000
G1X4.394600Y38.907100
G1X4.394600Y38.179000
G1X4.909500Y37.664100
G1X5.040900Y37.664100
G1X5.040900Y36.882000
G1X4.909500Y36.882000
G1X4.394600Y36.367100
G1X4.394600Y35.639000
G1X4.909500Y35.124100
G1X5.040900Y35.124100
G1X5.040900Y34.342000
G1X4.909500Y34.342000
G1X4.394600Y33.827100
G1X4.394600Y33.099000
G1X4.909500Y32.584100
G1X5.040900Y32.584100
G1X5.040900Y31.802000
G1X4.909500Y31.802000
G1X4.394600Y31.287100
G1X4.394600Y30.559000
G1X4.909500Y30.044100
G1X4.925000Y30.044100
G1X4.925000Y26.712800
G1X4.882600Y26.610300
G1X4.699800Y26.427600
G1X4.663600Y26.364900
G1X4.644900Y26.295000
G1X4.644900Y26.222500
G1X4.644900Y25.588600
G1X4.225000Y25.168700
G1X4.188800Y25.106000
G1X4.170100Y25.036100
G1X4.170100Y24.963600
G1X4.188800Y24.893700
G1X4.225000Y24.831000
G1X4.276200Y24.779800
G1X4.276300Y24.779800
G1X4.644900Y24.411200
G1X4.644900Y23.048600
G1X3.681200Y22.084900
G1X3.279600Y22.084900
G1X3.209700Y22.066200
G1X3.147000Y22.030000
G1X3.095800Y21.978800
G1X3.059600Y21.916100
G1X3.040900Y21.846200
G1X3.040900Y21.773700
G1X3.040900Y18.362800
G1X3.059600Y18.292900
G1X3.095800Y18.230200
G1X3.147000Y18.179000
G1X3.147100Y18.179000
G1X3.541600Y17.784500
G1X3.121000Y17.364000
G1X3.121000Y16.635900
G1X3.541700Y16.215300
G1X2.681200Y15.354900
G1X1.279600Y15.354900
G1X1.209700Y15.336200
G1X1.147000Y15.300000
G1X1.095800Y15.248800
G1X1.059600Y15.186100
G1X1.040900Y15.116200
G1X1.040900Y15.043700
G1X1.040900Y4.858300
G1X1.040900Y4.858200
G1X1.045800Y4.840300
G1X1.059600Y4.788400
G1X1.095800Y4.725700
G1X1.147000Y4.674500
G1X1.147100Y4.674400
G1X1.172800Y4.659600
G1X1.209700Y4.638300
G1X1.279600Y4.619600
G1X1.352100Y4.619600
G1X1.352200Y4.619600
G1X1.370100Y4.624500
G1X1.422000Y4.638300
G1X1.484700Y4.674500
G1X1.484800Y4.674700
G1X1.577000Y4.728000
G1X2.185200Y4.890900
G1X2.814600Y4.890900
G1X3.423000Y4.727900
G1X3.586200Y4.633700
G1X3.586400Y4.633400
G1X3.649100Y4.597200
G1X3.718100Y4.578800
G1X3.729800Y4.567100
G1X3.740900Y4.552500
G1X3.755600Y4.541300
G1X3.768300Y4.528500
G1X3.783800Y4.519600
G1X3.798300Y4.508400
G1X3.815400Y4.501400
G1X3.968000Y4.413300
G1X4.281400Y4.099800
G1X4.281400Y4.099700
G1X4.326200Y4.055000
G1X4.332600Y4.048500
G1X4.395300Y4.012300
G1X4.465200Y3.993600
G1X4.537700Y3.993600
G1X4.607600Y4.012300
G1X4.670300Y4.048500
G1X4.721500Y4.099700
G1X4.757700Y4.162400
G1X4.776400Y4.232300
G1X4.776400Y4.304800
G1X4.776400Y4.496500
G1X4.778800Y4.514700
G1X4.776400Y4.532800
G1X4.776400Y4.550900
G1X4.771600Y4.568600
G1X4.769300Y4.586400
G1X4.762500Y4.602700
G1X4.757700Y4.620800
G1X4.748300Y4.637000
G1X4.741600Y4.653300
G1X4.730800Y4.667300
G1X4.721500Y4.683500
G1X4.708400Y4.696500
G1X4.697600Y4.710700
G1X4.683300Y4.721600
G1X4.670300Y4.734700
G1X4.654400Y4.743800
G1X4.640200Y4.754800
G1X4.623500Y4.761700
G1X4.607600Y4.770900
G1X4.589900Y4.775600
G1X4.059200Y4.995500
G1X4.043200Y5.004800
G1X4.025400Y5.009500
G1X4.008900Y5.016400
G1X3.990800Y5.018800
G1X3.974400Y5.023100
G1X3.498700Y5.498700
G1X3.248300Y6.103200
G1X3.248300Y6.757700
G1X3.443600Y7.229100
G1X3.452900Y7.245100
G1X3.457600Y7.262900
G1X3.464500Y7.279400
G1X3.466900Y7.297400
G1X3.471600Y7.315000
G1X3.471600Y7.333000
G1X3.474000Y7.351100
G1X3.471600Y7.369300
G1X3.471600Y7.387500
G1X3.466800Y7.405200
G1X3.464500Y7.423000
G1X3.457700Y7.439500
G1X3.452900Y7.457400
G1X3.443800Y7.473100
G1X3.436900Y7.489900
G1X3.425800Y7.504400
G1X3.416700Y7.520100
G1X3.403700Y7.533000
G1X3.392800Y7.547300
G1X3.378500Y7.558200
G1X2.894500Y8.042200
G1X2.644100Y8.646600
G1X2.644100Y9.301200
G1X2.894500Y9.905600
G1X3.379800Y10.390900
G1X3.394100Y10.401800
G1X3.404900Y10.416000
G1X3.418000Y10.429000
G1X3.427300Y10.445200
G1X3.438100Y10.459200
G1X3.444800Y10.475500
G1X3.454200Y10.491700
G1X3.459000Y10.509800
G1X3.465800Y10.526100
G1X3.468100Y10.543900
G1X3.472900Y10.561600
G1X3.472900Y10.579700
G1X3.475300Y10.597800
G1X3.472900Y10.616000
G1X3.472900Y10.634100
G1X3.468200Y10.651700
G1X3.465800Y10.669700
G1X3.458900Y10.686200
G1X3.454200Y10.704000
G1X3.444900Y10.720000
G1X3.237800Y11.219900
G1X3.237800Y11.874400
G1X3.488200Y12.478800
G1X3.951100Y12.941700
G1X4.570100Y13.198200
G1X4.617400Y13.210800
G1X4.680100Y13.247000
G1X4.731300Y13.298200
G1X4.767500Y13.360900
G1X4.786200Y13.430800
G1X4.786200Y13.503300
G1X4.786200Y13.794500
G1X5.036600Y14.398900
G1X5.499500Y14.861800
G1X6.103900Y15.112200
G1X6.758500Y15.112200
G1X7.362900Y14.861800
G1X7.823500Y14.401300
G1X7.825800Y14.392400
G1X7.835000Y14.376600
G1X7.841700Y14.360200
G1X7.852700Y14.345900
G1X7.862000Y14.329700
G1X7.875000Y14.316800
G1X7.885700Y14.302700
G1X7.900100Y14.291700
G1X7.913200Y14.278500
G1X7.928900Y14.269500
G1X7.943100Y14.258500
G1X7.960000Y14.251600
G1X7.975900Y14.242300
G1X7.993600Y14.237600
G1X8.009900Y14.230800
G1X8.027900Y14.228400
G1X8.045800Y14.223600
G1X8.063800Y14.223600
G1X8.081700Y14.221200
G1X8.100100Y14.223600
G1X8.118300Y14.223600
G1X8.135700Y14.228300
G1X8.153500Y14.230600
G1X8.170100Y14.237500
G1X8.188200Y14.242300
G1X8.204000Y14.251500
G1X8.220400Y14.258200
G1X8.234700Y14.269200
G1X8.250900Y14.278500
G1X8.263800Y14.291500
G1X8.277900Y14.302200
G1X8.288900Y14.316600
G1X8.302100Y14.329700
G1X8.311100Y14.345400
G1X8.322100Y14.359600
G1X8.329000Y14.376500
G1X8.338300Y14.392400
G1X8.343000Y14.410100
G1X8.349800Y14.426400
G1X8.352200Y14.444400
G1X8.357000Y14.462300
G1X8.357000Y14.480300
G1X8.359400Y14.498200
G1X8.357000Y14.516600
G1X8.357000Y15.057900
G1X8.607400Y15.662300
G1X9.070300Y16.125200
G1X9.674700Y16.375600
G1X10.345300Y16.375600
G1X10.351600Y16.373900
G1X10.367400Y16.373900
G1X10.382700Y16.371600
G1X10.403200Y16.373900
G1X10.424100Y16.373900
G1X10.439200Y16.378000
G1X10.454700Y16.379700
G1X10.473700Y16.387200
G1X10.494000Y16.392600
G1X10.507800Y16.400600
G1X10.522100Y16.406200
G1X10.538300Y16.418300
G1X10.556700Y16.428800
G1X10.568000Y16.440200
G1X10.580300Y16.449200
G1X10.592800Y16.465000
G1X12.904000Y18.776200
G1X12.940200Y18.838900
G1X12.958900Y18.908800
G1X12.958900Y18.981300
G1X12.958900Y20.937400
G1X12.940200Y21.007300
G1X12.904000Y21.070000
G1X12.852800Y21.121200
G1X12.463500Y21.510500
G1X12.463500Y22.873100
G1X13.427200Y23.836800
G1X14.863300Y23.836800
G1X14.933200Y23.855500
G1X14.995900Y23.891700
G1X15.047100Y23.942900
G1X15.083300Y24.005600
G1X15.102000Y24.075500
G1X15.102000Y24.148000
G1X15.083300Y24.217900
G1X15.047100Y24.280600
G1X14.995900Y24.331800
G1X14.995800Y24.331800
G1X10.217600Y29.110000
G1X10.154900Y29.146200
G1X10.085000Y29.164900
G1X10.012500Y29.164900
G1X9.318600Y29.164900
G1X8.354900Y30.128600
G1X8.354900Y31.491200
G1X9.318600Y32.454900
G1X10.681200Y32.454900
G1X11.644900Y31.491200
G1X11.644900Y30.704800
G1X11.663600Y30.634900
G1X11.699800Y30.572200
G1X11.751000Y30.521000
G1X11.968400Y30.303700
G1X11.968500Y30.303400
G1X12.019700Y30.252200
G1X12.082400Y30.216000
G1X12.151300Y30.197600
G1X12.152300Y30.197300
G1X12.224700Y30.197300
G1X12.224800Y30.197300
G1X12.291700Y30.215200
G1X12.294700Y30.216000
G1X12.357400Y30.252200
G1X12.358200Y30.253000
G1X12.408600Y30.303400
G1X12.444800Y30.366100
G1X12.463200Y30.435000
G1X12.463500Y30.436000
G1X12.463500Y30.493100
G1X13.304000Y31.333600
G1X13.340200Y31.396300
G1X13.358900Y31.466200
G1X13.358900Y31.538700
G1X13.358900Y32.233500
G1X13.359500Y32.269600
G1X13.358900Y32.271900
G1X13.358900Y32.274200
G1X13.350200Y32.306600
G1X13.339700Y32.348300
G1X13.353500Y32.441000
G1X13.358900Y32.461000
G1X13.358900Y32.477100
G1X13.361200Y32.492500
G1X13.358900Y32.512700
G1X13.358900Y32.606800
G1X13.376500Y32.649300
G1X13.388900Y32.677800
G1X13.389100Y32.679600
G1X13.390100Y32.681800
G1X13.395300Y32.721200
G1X13.400700Y32.758000
G1X13.449000Y32.838400
G1X13.461600Y32.854700
G1X13.467600Y32.869300
G1X13.475700Y32.882700
G1X13.481300Y32.902400
G1X13.517400Y32.989700
G1X13.546200Y33.018400
G1X13.572100Y33.043400
G1X13.573300Y33.045400
G1X13.574900Y33.047000
G1X13.592000Y33.076700
G1X14.502100Y34.593700
G1X14.504000Y34.595500
G1X14.522700Y34.628100
G1X14.538300Y34.653900
G1X14.538800Y34.656000
G1X14.540200Y34.658200
G1X14.549100Y34.691700
G1X14.558300Y34.723500
G1X14.558300Y34.726100
G1X14.558900Y34.728100
G1X14.558900Y34.759700
G1X14.559500Y34.796000
G1X14.558900Y34.798300
G1X14.558900Y36.846900
G1X14.540200Y36.916800
G1X14.504000Y36.979500
G1X14.452800Y37.030700
G1X14.452700Y37.030700
G1X14.164900Y37.318600
G1X14.164900Y38.681200
G1X14.208600Y38.724900
G1X14.208700Y38.724900
G1X14.258200Y38.774500
G1X14.259800Y38.776000
G1X14.259900Y38.776100
G1X14.296100Y38.838800
G1X14.309500Y38.889100
G1X14.314800Y38.908600
G1X14.314800Y38.981100
G1X14.314800Y38.981200
G1X14.296100Y39.051100
G1X14.259900Y39.113800
G1X14.209600Y39.164100
G1X14.208800Y39.164900
G1X14.208700Y39.165000
G1X14.146000Y39.201200
G1X14.095700Y39.214600
G1X14.076200Y39.219900
G1X14.003700Y39.219900
G1X12.685700Y39.219900
G1X12.031700Y39.490700
G1X11.530700Y39.991700
G1X11.495000Y40.078100
G1X12.532100Y42.770700
G1X12.541100Y42.769500
G1X12.558600Y42.764800
G1X12.576900Y42.764800
G1X12.595300Y42.762400
G1X12.613200Y42.764800
G1X12.631100Y42.764800
G1X12.648900Y42.769600
G1X12.667100Y42.772000
G1X12.683400Y42.778800
G1X12.687500Y42.779900
G1X18.394100Y42.779900
G1X19.048100Y42.509100
G1X19.549100Y42.008100
G1X19.772900Y41.467600
G1X19.819900Y41.162000
G1X19.819900Y40.645700
G1X19.549100Y39.991700
G1X19.048100Y39.490700
G1X18.394100Y39.219900
G1X17.543700Y39.219900
G1X17.543600Y39.219900
G1X17.525700Y39.215000
G1X17.473800Y39.201200
G1X17.411100Y39.165000
G1X17.359900Y39.113800
G1X17.323700Y39.051100
G1X17.305000Y38.981200
G1X17.305000Y38.908700
G1X17.305000Y38.908600
G1X17.309900Y38.890700
G1X17.323700Y38.838800
G1X17.359900Y38.776100
G1X17.411100Y38.724900
G1X17.411300Y38.724900
G1X17.454900Y38.681200
G1X17.454900Y37.318600
G1X16.695800Y36.559500
G1X16.659600Y36.496800
G1X16.640900Y36.426900
G1X16.640900Y36.354400
G1X16.640900Y35.208100
G1X16.640300Y35.205800
G1X16.640900Y35.169700
G1X16.640900Y35.137900
G1X16.641500Y35.135900
G1X16.641500Y35.133400
G1X16.650900Y35.100700
G1X16.659600Y35.068000
G1X16.660800Y35.066000
G1X16.661400Y35.063800
G1X16.678700Y35.035100
G1X16.695800Y35.005300
G1X16.697500Y35.003700
G1X16.698600Y35.001700
G1X16.721800Y34.979400
G1X16.747000Y34.954100
G1X16.749300Y34.952800
G1X16.750700Y34.951400
G1X16.776600Y34.937100
G1X16.809700Y34.917900
G1X16.812300Y34.917300
G1X19.624600Y33.354900
G1X19.636200Y33.345800
G1X19.654900Y33.338000
G1X19.673900Y33.327400
G1X19.689300Y33.323600
G1X19.792100Y33.280500
G1X19.810500Y33.262700
G1X19.832800Y33.240100
G1X19.835300Y33.238700
G1X19.837500Y33.236500
G1X19.866900Y33.220300
G1X19.887500Y33.208300
G1X19.957400Y33.120100
G1X19.965000Y33.106600
G1X19.979900Y33.091700
G1X19.992800Y33.075300
G1X20.005100Y33.066300
G1X20.084000Y32.986700
G1X20.093800Y32.964200
G1X20.106000Y32.934200
G1X20.107900Y32.931800
G1X20.109100Y32.928900
G1X20.130000Y32.902700
G1X20.144300Y32.883800
G1X20.175400Y32.775000
G1X20.177300Y32.760000
G1X20.185100Y32.740900
G1X20.191000Y32.720300
G1X20.199000Y32.706900
G1X20.241200Y32.604000
G1X20.241600Y32.580500
G1X20.241400Y32.546800
G1X20.242300Y32.543600
G1X20.242300Y32.540500
G1X20.251500Y32.508500
G1X20.257600Y32.485400
G1X20.244700Y32.373300
G1X20.240700Y32.358700
G1X20.240600Y32.337700
G1X20.238200Y32.316700
G1X20.240500Y32.301600
G1X20.236100Y31.346100
G1X20.236000Y31.345700
G1X20.236000Y31.318900
G1X20.235800Y31.274400
G1X20.236000Y31.273700
G1X20.236000Y31.273200
G1X20.245600Y31.237400
G1X20.254300Y31.204400
G1X20.254500Y31.204100
G1X20.254700Y31.203300
G1X20.277800Y31.163400
G1X20.290200Y31.141600
G1X20.290500Y31.141300
G1X20.290900Y31.140600
G1X20.320600Y31.110900
G1X20.341100Y31.090200
G1X20.341600Y31.089900
G1X20.342100Y31.089400
G1X20.379900Y31.067600
G1X20.403700Y31.053700
G1X20.404200Y31.053600
G1X20.404800Y31.053200
G1X20.447400Y31.041800
G1X20.473500Y31.034700
G1X20.474000Y31.034700
G1X20.474700Y31.034500
G1X20.509600Y31.034500
G1X20.546000Y31.034300
G1X20.546700Y31.034500
G1X20.547200Y31.034500
G1X20.583000Y31.044100
G1X20.616000Y31.052800
G1X20.616300Y31.053000
G1X20.617100Y31.053200
G1X20.657000Y31.076300
G1X20.678800Y31.088700
G1X20.679100Y31.089000
G1X20.679800Y31.089400
G1X20.709500Y31.119100
G1X20.730200Y31.139600
G1X20.730500Y31.140100
G1X21.047200Y31.456800
G1X22.409800Y31.456800
G1X22.829700Y31.036900
G1X22.892400Y31.000700
G1X22.962300Y30.982000
G1X23.034800Y30.982000
G1X23.104700Y31.000700
G1X23.167400Y31.036900
G1X23.218600Y31.088100
G1X23.218600Y31.088200
G1X23.587200Y31.456800
G1X24.949800Y31.456800
G1X25.262300Y31.144300
G1X25.265200Y31.139600
G1X25.287300Y31.119200
G1X25.309400Y31.097100
G1X25.314400Y31.094300
G1X25.318400Y31.090500
G1X25.344800Y31.076700
G1X25.372100Y31.060900
G1X25.377800Y31.059400
G1X25.382500Y31.056900
G1X25.411300Y31.050400
G1X25.442000Y31.042200
G1X25.447800Y31.042200
G1X25.453100Y31.041000
G1X25.483000Y31.042200
G1X25.514500Y31.042200
G1X25.520000Y31.043700
G1X25.525500Y31.043900
G1X25.553900Y31.052800
G1X25.584400Y31.060900
G1X25.589300Y31.063800
G1X25.594600Y31.065400
G1X25.619800Y31.081400
G1X25.647100Y31.097100
G1X25.651100Y31.101200
G1X25.655800Y31.104100
G1X25.676100Y31.126200
G1X25.698300Y31.148300
G1X25.701100Y31.153300
G1X25.704900Y31.157300
G1X25.718700Y31.183700
G1X25.734500Y31.211000
G1X25.736000Y31.216700
G1X25.738500Y31.221400
G1X25.745000Y31.250200
G1X25.753200Y31.280900
G1X25.753200Y31.286700
G1X25.754400Y31.292000
G1X25.753200Y31.321900
G1X25.753200Y31.353400
G1X25.751700Y31.358900
G1X25.751400Y31.365400
G1X25.754500Y31.373600
G1X25.755700Y31.386500
G1X25.758900Y31.398500
G1X25.758900Y31.406900
G1X25.816100Y31.545100
G1X25.819500Y31.549800
G1X25.830600Y31.580100
G1X25.841800Y31.607000
G1X25.842500Y31.612300
G1X25.894600Y31.753800
G1X25.900000Y31.759600
G1X25.906300Y31.771600
G1X25.914600Y31.782400
G1X25.917600Y31.789900
G1X26.024000Y31.896300
G1X26.028700Y31.899200
G1X26.049100Y31.921400
G1X26.071300Y31.943500
G1X26.074100Y31.948400
G1X26.175400Y32.058200
G1X26.183000Y32.061600
G1X26.193100Y32.070100
G1X26.204800Y32.076800
G1X26.210400Y32.082600
G1X26.349000Y32.139900
G1X26.354600Y32.140800
G1X26.382700Y32.153800
G1X26.410800Y32.165400
G1X26.415100Y32.168800
G1X30.780800Y34.183800
G1X30.800900Y34.190500
G1X30.813300Y34.198800
G1X30.827100Y34.205100
G1X30.843500Y34.218800
G1X30.861200Y34.230500
G1X30.871100Y34.241800
G1X30.882700Y34.251400
G1X30.894900Y34.268800
G1X30.909100Y34.284800
G1X30.915800Y34.298400
G1X30.924400Y34.310500
G1X30.931700Y34.330400
G1X30.941300Y34.349600
G1X30.944200Y34.364200
G1X30.949500Y34.378400
G1X30.951500Y34.400200
G1X30.955600Y34.420500
G1X30.954700Y34.435100
G1X30.956100Y34.450600
G1X30.952300Y34.472200
G1X30.775500Y37.301400
G1X30.775500Y37.329100
G1X30.773200Y37.337500
G1X30.772700Y37.346200
G1X30.764000Y37.371800
G1X30.756800Y37.399000
G1X30.752300Y37.406800
G1X30.749600Y37.414800
G1X30.734700Y37.437100
G1X30.720600Y37.461700
G1X30.714300Y37.467900
G1X30.709600Y37.475100
G1X30.689200Y37.493000
G1X30.669400Y37.512900
G1X30.661700Y37.517300
G1X30.655300Y37.523000
G1X30.630900Y37.535100
G1X30.606700Y37.549100
G1X30.598200Y37.551300
G1X30.590500Y37.555200
G1X30.563600Y37.560600
G1X30.536800Y37.567800
G1X30.528000Y37.567800
G1X30.519600Y37.569500
G1X30.492200Y37.567800
G1X29.117300Y37.567800
G1X28.153600Y38.531500
G1X28.153600Y39.894100
G1X28.522200Y40.262700
G1X28.522300Y40.262700
G1X28.565300Y40.305800
G1X28.573500Y40.313900
G1X28.609700Y40.376600
G1X28.628400Y40.446500
G1X28.628400Y40.519000
G1X28.609700Y40.588900
G1X28.573500Y40.651600
G1X28.522300Y40.702800
G1X28.153600Y41.071500
G1X28.153600Y42.434100
G1X28.522200Y42.802700
G1X28.522300Y42.802700
G1X28.565300Y42.845800
G1X28.573500Y42.853900
G1X28.609700Y42.916600
G1X28.628400Y42.986500
G1X28.628400Y43.059000
G1X28.609700Y43.128900
G1X28.573500Y43.191600
G1X28.522300Y43.242800
G1X28.522200Y43.242800
G1X28.153600Y43.611500
G1X28.153600Y44.974100
G1X28.522100Y45.342600
G1X28.522300Y45.342700
G1X28.573500Y45.393900
G1X28.609700Y45.456600
G1X28.628400Y45.526500
G1X28.628400Y45.599000
G1X28.609700Y45.668900
G1X28.573500Y45.731600
G1X28.153600Y46.151500
G1X28.153600Y47.514100
G1X29.117300Y48.477800
G1X30.479900Y48.477800
G1X31.443600Y47.514100
G1X31.443600Y46.151500
G1X31.023700Y45.731600
G1X30.987500Y45.668900
G1X30.968800Y45.599000
G1X30.968800Y45.526500
G1X30.987500Y45.456600
G1X31.023700Y45.393900
G1X31.074900Y45.342700
G1X31.075000Y45.342700
G1X31.443600Y44.974100
G1X31.443600Y43.611500
G1X31.023700Y43.191600
G1X30.987500Y43.128900
G1X30.968800Y43.059000
G1X30.968800Y42.986500
G1X30.987500Y42.916600
G1X31.023700Y42.853900
G1X31.074900Y42.802700
G1X31.075000Y42.802700
G1X31.443600Y42.434100
G1X31.443600Y42.239900
G1X31.441900Y42.231600
G1X31.443600Y42.203600
G1X31.443600Y42.175600
G1X31.445800Y42.167400
G1X31.446300Y42.159200
G1X31.455000Y42.133200
G1X31.462300Y42.105700
G1X31.466500Y42.098500
G1X31.469100Y42.090600
G1X31.484300Y42.067600
G1X31.498500Y42.043000
G1X31.504600Y42.037000
G1X31.509000Y42.030200
G1X31.529500Y42.012100
G1X31.549700Y41.991800
G1X31.557100Y41.987600
G1X31.563200Y41.982100
G1X31.587900Y41.969800
G1X31.612400Y41.955600
G1X31.620600Y41.953500
G1X31.971300Y41.778000
G1X31.986100Y41.768000
G1X32.002400Y41.762500
G1X32.018800Y41.754200
G1X32.037500Y41.750400
G1X32.133400Y41.717500
G1X32.156500Y41.697100
G1X32.186800Y41.670200
G1X32.187000Y41.670100
G1X32.187100Y41.670000
G1X32.212200Y41.657600
G1X32.250800Y41.638300
G1X32.317000Y41.561900
G1X32.327300Y41.546300
G1X32.340700Y41.534500
G1X32.352300Y41.521100
G1X32.367800Y41.510700
G1X32.443800Y41.443600
G1X32.475300Y41.379100
G1X32.508800Y41.340800
G1X32.521900Y41.325700
G1X32.554100Y41.229100
G1X32.557600Y41.211000
G1X32.565400Y41.195200
G1X32.571000Y41.178200
G1X32.581300Y41.162700
G1X32.626000Y41.071400
G1X32.627200Y41.051300
G1X32.630300Y41.000400
G1X32.630400Y41.000200
G1X32.630400Y40.999900
G1X32.643600Y40.960600
G1X32.653000Y40.932600
G1X32.645800Y40.831500
G1X32.642100Y40.813600
G1X32.643200Y40.796100
G1X32.641900Y40.777900
G1X32.645500Y40.759500
G1X32.961200Y35.707300
G1X32.961200Y35.679600
G1X32.963500Y35.671200
G1X32.964000Y35.662500
G1X32.972700Y35.636900
G1X32.979900Y35.609700
G1X32.984400Y35.601900
G1X32.987100Y35.593900
G1X33.002000Y35.571600
G1X33.016100Y35.547000
G1X33.022400Y35.540800
G1X33.027100Y35.533600
G1X33.047500Y35.515700
G1X33.067300Y35.495800
G1X33.075000Y35.491400
G1X33.081400Y35.485700
G1X33.105800Y35.473600
G1X33.130000Y35.459600
G1X33.138500Y35.457400
G1X33.146200Y35.453500
G1X33.173100Y35.448100
G1X33.199900Y35.440900
G1X33.208700Y35.440900
G1X33.217100Y35.439200
G1X33.244500Y35.440900
G1X33.306200Y35.440900
G1X33.376100Y35.459600
G1X33.438800Y35.495800
G1X33.490000Y35.547000
G1X33.526200Y35.609700
G1X33.544900Y35.679600
G1X33.544900Y35.752100
G1X33.544900Y36.681200
G1X34.039800Y37.176100
G1X34.076000Y37.238800
G1X34.094700Y37.308700
G1X34.094700Y37.381200
G1X34.076000Y37.451100
G1X34.039800Y37.513800
G1X33.988600Y37.565000
G1X33.988500Y37.565000
G1X33.544900Y38.008600
G1X33.544900Y39.371200
G1X34.508600Y40.334900
G1X35.120200Y40.334900
G1X35.190100Y40.353600
G1X35.252800Y40.389800
G1X35.304000Y40.441000
G1X35.340200Y40.503700
G1X35.358900Y40.573600
G1X35.358900Y40.646100
G1X35.358900Y42.267300
G1X35.360900Y42.293100
G1X35.358900Y42.303800
G1X35.358900Y42.314500
G1X35.352300Y42.339000
G1X35.338500Y42.412900
G1X35.351000Y42.471800
G1X35.358900Y42.501400
G1X35.358900Y42.509200
G1X35.360400Y42.516100
G1X35.358900Y42.544000
G1X35.358900Y42.606900
G1X35.387600Y42.676200
G1X35.399200Y42.698900
G1X35.401400Y42.709300
G1X35.405500Y42.719200
G1X35.408900Y42.744900
G1X35.424300Y42.817900
G1X35.460000Y42.869900
G1X35.477100Y42.892200
G1X35.479700Y42.898600
G1X35.484000Y42.904800
G1X35.493900Y42.932900
G1X35.517300Y42.989500
G1X35.570700Y43.042900
G1X35.589900Y43.059300
G1X35.595800Y43.067900
G1X35.603500Y43.075600
G1X35.616500Y43.098200
G1X35.658400Y43.159400
G1X35.711000Y43.193600
G1X35.735700Y43.207800

G0Z0.500
G0X3.033000Y43.185600
G1Z-0.100 f25
G1X3.045500Y43.216000 f200
G1X3.057900Y43.243000
G1X3.058700Y43.247800
G1X3.117200Y43.389300
G1X3.121000Y43.393000
G1X3.127900Y43.404900
G1X3.136600Y43.415400
G1X3.145800Y43.435700
G1X3.157400Y43.455500
G1X3.161000Y43.469000
G1X4.249000Y45.853600
G1X4.251600Y45.856900
G1X4.264200Y45.887000
G1X4.277300Y45.915600
G1X4.278000Y45.919700
G1X4.338500Y46.063600
G1X4.339700Y46.064800
G1X4.346900Y46.077200
G1X4.356200Y46.088400
G1X4.356900Y46.090100
G1X4.470900Y46.196300
G1X4.474700Y46.198400
G1X4.498300Y46.221800
G1X4.520900Y46.242800
G1X4.523000Y46.246300
G1X4.633100Y46.355100
G1X4.634600Y46.355700
G1X4.645600Y46.364100
G1X4.658500Y46.370900
G1X4.659900Y46.372300
G1X4.804900Y46.426400
G1X4.809300Y46.426900
G1X4.839300Y46.439200
G1X4.868900Y46.450200
G1X4.872300Y46.452700
G1X5.016400Y46.511500
G1X5.018700Y46.511500
G1X5.032300Y46.515100
G1X5.046100Y46.516400
G1X5.047800Y46.517100
G1X5.201200Y46.511700
G1X5.205200Y46.510500
G1X5.237700Y46.510400
G1X5.269400Y46.509200
G1X5.273400Y46.510200
G1X5.463900Y46.509100
G1X5.464600Y46.508900
G1X5.498600Y46.508900
G1X5.535600Y46.508700
G1X5.536300Y46.508900
G1X5.537100Y46.508900
G1X5.578400Y46.520000
G1X5.605600Y46.527100
G1X5.606000Y46.527400
G1X5.607000Y46.527600
G1X5.643000Y46.548500
G1X5.668500Y46.562900
G1X5.669000Y46.563400
G1X5.669700Y46.563800
G1X5.694100Y46.588300
G1X5.720000Y46.613800
G1X5.720400Y46.614600
G1X5.720900Y46.615000
G1X5.738100Y46.644800
G1X5.756500Y46.676300
G1X5.756700Y46.677000
G1X5.757100Y46.677700
G1X5.766500Y46.713000
G1X5.775600Y46.746100
G1X5.775600Y46.746900
G1X5.775800Y46.747600
G1X5.775800Y46.782200
G1X5.776000Y46.818600
G1X5.775800Y46.819300
G1X5.775800Y46.820100
G1X5.764700Y46.861400
G1X5.757600Y46.888600
G1X5.757300Y46.889000
G1X5.757100Y46.890000
G1X5.736200Y46.926000
G1X5.721800Y46.951500
G1X5.721300Y46.952000
G1X5.720900Y46.952700
G1X5.696900Y46.976600
G1X5.670900Y47.003000
G1X5.670100Y47.003400
G1X5.354900Y47.318600
G1X5.354900Y48.681200
G1X5.723500Y49.049800
G1X5.723600Y49.049800
G1X5.766600Y49.092900
G1X5.774800Y49.101000
G1X5.811000Y49.163700
G1X5.829700Y49.233600
G1X5.829700Y49.306100
G1X5.811000Y49.376000
G1X5.774800Y49.438700
G1X5.723600Y49.489900
G1X5.354900Y49.858600
G1X5.354900Y49.864900
G1X5.336200Y49.934800
G1X5.300000Y49.997500
G1X5.248800Y50.048700
G1X5.186100Y50.084900
G1X5.116200Y50.103600
G1X5.043700Y50.103600
G1X4.973800Y50.084900
G1X4.911100Y50.048700
G1X4.859900Y49.997500
G1X4.823700Y49.934800
G1X4.821300Y49.925500
G1X4.728000Y49.577000
G1X4.413200Y49.031700
G1X3.968100Y48.586600
G1X3.422800Y48.271800
G1X2.814600Y48.108900
G1X2.185200Y48.108900
G1X1.577200Y48.271800
G1X1.484700Y48.325200
G1X1.448700Y48.346000
G1X1.422000Y48.361400
G1X1.352100Y48.380100
G1X1.279600Y48.380100
G1X1.209700Y48.361400
G1X1.147000Y48.325200
G1X1.095800Y48.274000
G1X1.059600Y48.211300
G1X1.040900Y48.141400
G1X1.040900Y48.068900
G1X1.040900Y32.184300
G1X1.059600Y32.114400
G1X1.095800Y32.051700
G1X1.147000Y32.000500
G1X1.209700Y31.964300
G1X1.279600Y31.945600
G1X1.352100Y31.945600
G1X1.422000Y31.964300
G1X1.484700Y32.000500
G1X1.535900Y32.051700
G1X2.052200Y32.568000
G1X2.720200Y32.568000
G1X2.780400Y32.584100
G1X3.097600Y32.584100
G1X3.612500Y33.099000
G1X3.612500Y33.827100
G1X3.097600Y34.342000
G1X2.958900Y34.342000
G1X2.958900Y35.124100
G1X3.097600Y35.124100
G1X3.612500Y35.639000
G1X3.612500Y36.367100
G1X3.097600Y36.882000
G1X2.958900Y36.882000
G1X2.958900Y37.664100
G1X3.097600Y37.664100
G1X3.612500Y38.179000
G1X3.612500Y38.907100
G1X3.097600Y39.422000
G1X2.958900Y39.422000
G1X2.958900Y40.204100
G1X3.097600Y40.204100
G1X3.612500Y40.719000
G1X3.612500Y41.447100
G1X3.097600Y41.962000
G1X2.958900Y41.962000
G1X2.958900Y42.539400
G1X2.961100Y42.552400
G1X2.958900Y42.575400
G1X2.958900Y42.598500
G1X2.955400Y42.611300
G1X2.954200Y42.624500
G1X2.952200Y42.629800
G1X2.957600Y42.781300
G1X2.958900Y42.786100
G1X2.958900Y42.817800
G1X2.960000Y42.848900
G1X2.958900Y42.853600
G1X2.958900Y43.006500
G1X2.961000Y43.011500
G1X2.962900Y43.025800
G1X2.966800Y43.038600
G1X2.967000Y43.043900
G1X3.029800Y43.181400
G1X3.033000Y43.185600

G0Z0.500
G0X36.320100Y51.958500
G1Z-0.100 f25
G1X36.319900Y51.958500 f200
G1X36.247400Y51.958500
G1X34.257600Y51.958500
G1X34.185100Y51.958500
G1X34.115200Y51.939800
G1X34.052500Y51.903600
G1X34.001300Y51.852400
G1X33.965100Y51.789700
G1X33.946400Y51.719800
G1X33.946400Y51.647300
G1X33.965100Y51.577400
G1X34.001300Y51.514700
G1X34.027400Y51.488600
G1X34.052500Y51.463500
G1X34.052600Y51.463500
G1X34.420300Y51.095800
G1X34.483000Y51.059600
G1X34.552900Y51.040900
G1X34.625400Y51.040900
G1X36.320200Y51.040900
G1X36.390100Y51.059600
G1X36.452800Y51.095800
G1X36.504000Y51.147000
G1X36.540200Y51.209700
G1X36.558900Y51.279600
G1X36.558900Y51.352100
G1X36.558900Y51.585200
G1X36.558800Y51.585300
G1X36.558800Y51.720000
G1X36.548500Y51.758100
G1X36.540100Y51.789700
G1X36.540000Y51.789800
G1X36.540000Y51.789900
G1X36.533900Y51.800400
G1X36.503900Y51.852400
G1X36.503700Y51.852600
G1X36.502900Y51.853400
G1X36.452700Y51.903600
G1X36.390000Y51.939800
G1X36.320100Y51.958500

G0Z0.500
G0X57.643000Y41.064900
G1Z-0.100 f25
G1X57.619300Y41.058500 f200
G1X57.595800Y41.054400
G1X57.585100Y41.049400
G1X57.573100Y41.046200
G1X57.551700Y41.033800
G1X57.530200Y41.023800
G1X57.521100Y41.016100
G1X57.510400Y41.010000
G1X57.493300Y40.992800
G1X57.474700Y40.977300
G1X57.467700Y40.967200
G1X57.459200Y40.958800
G1X57.447300Y40.938000
G1X55.909000Y38.740600
G1X55.899700Y38.731100
G1X55.888900Y38.711900
G1X55.875600Y38.692900
G1X55.870900Y38.679800
G1X55.864200Y38.668000
G1X55.858700Y38.646100
G1X55.850900Y38.624900
G1X55.849700Y38.611200
G1X55.846300Y38.597900
G1X55.846600Y38.575100
G1X55.844600Y38.552700
G1X55.847000Y38.539500
G1X55.847100Y38.525400
G1X55.853400Y38.503200
G1X55.857200Y38.481400
G1X55.863000Y38.469200
G1X55.866700Y38.455700
G1X55.878400Y38.436100
G1X55.887800Y38.415800
G1X55.896600Y38.405300
G1X55.903600Y38.393500
G1X55.919500Y38.378000
G1X55.934300Y38.360300
G1X55.945900Y38.352200
G1X55.955400Y38.342900
G1X55.974600Y38.332100
G1X55.993600Y38.318800
G1X56.006700Y38.314100
G1X56.018500Y38.307400
G1X56.040400Y38.301900
G1X56.061600Y38.294100
G1X56.075300Y38.292900
G1X56.088600Y38.289500
G1X56.111400Y38.289800
G1X56.133800Y38.287800
G1X56.147000Y38.290200
G1X56.161100Y38.290300
G1X56.183300Y38.296600
G1X56.205100Y38.300400
G1X56.217300Y38.306200
G1X56.230800Y38.309900
G1X56.250400Y38.321600
G1X56.270700Y38.331000
G1X56.281100Y38.339800
G1X60.009900Y40.550800
G1X60.043000Y40.569900
G1X60.044200Y40.571200
G1X60.045500Y40.571900
G1X60.066600Y40.593600
G1X60.094200Y40.621100
G1X60.095100Y40.622700
G1X60.096100Y40.623700
G1X60.111300Y40.650900
G1X60.130400Y40.683800
G1X60.130800Y40.685500
G1X60.131600Y40.686800
G1X60.139900Y40.719600
G1X60.149100Y40.753700
G1X60.149100Y40.755400
G1X60.149500Y40.756900
G1X60.149100Y40.793200
G1X60.149100Y40.826200
G1X60.148700Y40.827600
G1X60.148700Y40.829400
G1X60.139300Y40.862800
G1X60.130400Y40.896100
G1X60.129500Y40.897600
G1X60.129100Y40.899100
G1X60.112900Y40.926300
G1X60.094200Y40.958800
G1X60.092900Y40.960000
G1X60.092200Y40.961300
G1X60.070500Y40.982400
G1X60.043000Y41.010000
G1X60.041400Y41.010900
G1X60.040400Y41.011900
G1X60.013200Y41.027100
G1X59.980300Y41.046200
G1X59.978600Y41.046600
G1X59.977300Y41.047400
G1X59.944500Y41.055700
G1X59.910400Y41.064900
G1X59.908700Y41.064900
G1X59.907200Y41.065300
G1X59.870900Y41.064900
G1X59.258600Y41.064900
G1X58.890000Y41.433500
G1X58.890000Y41.433600
G1X58.847000Y41.476600
G1X58.838800Y41.484800
G1X58.776100Y41.521000
G1X58.706200Y41.539700
G1X58.633700Y41.539700
G1X58.563800Y41.521000
G1X58.501100Y41.484800
G1X58.449900Y41.433600
G1X58.081200Y41.064900
G1X57.691200Y41.064900
G1X57.667100Y41.067000
G1X57.655200Y41.064900
G1X57.643000Y41.064900

G0Z0.500
G0X18.307800Y27.860200
G1Z-0.100 f25
G1X18.308400Y27.857900 f200
G1X18.308400Y27.855600
G1X18.317000Y27.823800
G1X18.352400Y27.682000
G1X18.352400Y27.679600
G1X18.361600Y27.645300
G1X18.369400Y27.614000
G1X18.370500Y27.612200
G1X18.371100Y27.609700
G1X18.388700Y27.579300
G1X18.404500Y27.550700
G1X18.406200Y27.549100
G1X18.407300Y27.547000
G1X18.431500Y27.522800
G1X18.454800Y27.498700
G1X18.456800Y27.497600
G1X18.458500Y27.495800
G1X18.490500Y27.477400
G1X18.516900Y27.461500
G1X18.518900Y27.461000
G1X18.521200Y27.459600
G1X18.555200Y27.450500
G1X18.586500Y27.441500
G1X18.589000Y27.441500
G1X18.591100Y27.440900
G1X18.623300Y27.440900
G1X18.659000Y27.440300
G1X18.661300Y27.440900
G1X21.075400Y27.440900
G1X21.094000Y27.438500
G1X21.111900Y27.440900
G1X21.129500Y27.440900
G1X21.147100Y27.445600
G1X21.165700Y27.448100
G1X21.182200Y27.455000
G1X21.199400Y27.459600
G1X21.215500Y27.468900
G1X21.232500Y27.476000
G1X21.246400Y27.486800
G1X21.262100Y27.495800
G1X21.275300Y27.509100
G1X21.289800Y27.520200
G1X21.300500Y27.534300
G1X21.313300Y27.547000
G1X21.322500Y27.563000
G1X21.333800Y27.577700
G1X21.340600Y27.594400
G1X21.349500Y27.609700
G1X21.354300Y27.627700
G1X21.361300Y27.644700
G1X21.363600Y27.662400
G1X21.368200Y27.679600
G1X21.368200Y27.698000
G1X21.370600Y27.716600
G1X21.368200Y27.734500
G1X21.368200Y27.752100
G1X21.363500Y27.769700
G1X21.361000Y27.788300
G1X21.358900Y27.793300
G1X21.358900Y27.835800
G1X21.359500Y27.869200
G1X21.358900Y27.871600
G1X21.358900Y27.874200
G1X21.349500Y27.909000
G1X21.345500Y27.925400
G1X21.345500Y27.928100
G1X21.335900Y27.963900
G1X21.328600Y27.993300
G1X21.327500Y27.995200
G1X21.326800Y27.998000
G1X21.308700Y28.029300
G1X21.293600Y28.056700
G1X21.291800Y28.058500
G1X21.290600Y28.060700
G1X21.267200Y28.084000
G1X21.243400Y28.108800
G1X21.241100Y28.110100
G1X21.239400Y28.111900
G1X21.209500Y28.129100
G1X21.181300Y28.146100
G1X21.179000Y28.146700
G1X21.176700Y28.148100
G1X21.143300Y28.157000
G1X21.111800Y28.166100
G1X21.109200Y28.166100
G1X21.106800Y28.166800
G1X21.072800Y28.166800
G1X21.046700Y28.167200
G1X20.627300Y28.586700
G1X20.564600Y28.622900
G1X20.494700Y28.641600
G1X20.422200Y28.641600
G1X20.352300Y28.622900
G1X20.289600Y28.586700
G1X20.238400Y28.535500
G1X20.238400Y28.535400
G1X19.869800Y28.166800
G1X18.587900Y28.166800
G1X18.551700Y28.167400
G1X18.549400Y28.166800
G1X18.547100Y28.166800
G1X18.514200Y28.157900
G1X18.481500Y28.149800
G1X18.479600Y28.148700
G1X18.477200Y28.148100
G1X18.447200Y28.130700
G1X18.418200Y28.114700
G1X18.416500Y28.113000
G1X18.414500Y28.111900
G1X18.390700Y28.088000
G1X18.366200Y28.064400
G1X18.365000Y28.062400
G1X18.363300Y28.060700
G1X18.345100Y28.029100
G1X18.329000Y28.002300
G1X18.328500Y28.000300
G1X18.327100Y27.998000
G1X18.318200Y27.964400
G1X18.309000Y27.932700
G1X18.309000Y27.930100
G1X18.308400Y27.928100
G1X18.308400Y27.896400
G1X18.307800Y27.860200

G0Z0.500
G0X85.347100Y31.013400
G1Z-0.100 f25
G1X85.361800Y31.028100 f200
G1X85.378300Y31.041300
G1X85.387400Y31.053800
G1X85.560900Y31.227300
G1X85.576900Y31.236000
G1X85.579100Y31.238200
G1X85.582000Y31.239800
G1X85.606500Y31.264400
G1X85.629300Y31.286100
G1X85.630800Y31.288700
G1X85.633200Y31.291000
G1X85.650300Y31.320700
G1X85.666900Y31.347900
G1X85.667700Y31.350900
G1X85.669400Y31.353700
G1X85.678200Y31.386600
G1X85.687200Y31.417400
G1X85.687200Y31.420600
G1X85.688100Y31.423600
G1X85.688100Y31.455800
G1X85.688900Y31.489800
G1X85.688100Y31.493000
G1X85.688100Y31.496100
G1X85.679500Y31.528000
G1X85.671700Y31.560200
G1X85.670200Y31.562800
G1X85.669400Y31.566000
G1X85.652500Y31.595100
G1X85.637000Y31.623600
G1X85.634800Y31.625800
G1X85.633200Y31.628700
G1X85.608600Y31.653200
G1X85.586900Y31.676000
G1X85.584300Y31.677500
G1X85.582000Y31.679900
G1X85.552000Y31.697200
G1X84.756200Y32.181100
G1X84.736800Y32.195400
G1X84.725500Y32.199800
G1X84.715000Y32.206200
G1X84.691600Y32.213000
G1X84.669400Y32.221700
G1X84.657300Y32.223000
G1X84.645500Y32.226500
G1X84.621000Y32.227000
G1X84.597400Y32.229700
G1X84.585700Y32.227900
G1X84.573100Y32.228200
G1X84.549300Y32.222300
G1X84.525800Y32.218800
G1X84.514700Y32.213900
G1X84.502700Y32.211000
G1X84.481800Y32.199500
G1X84.459500Y32.189800
G1X84.449900Y32.182000
G1X84.439300Y32.176300
G1X84.422300Y32.160000
G1X84.403000Y32.144600
G1X84.395600Y32.134500
G1X84.386900Y32.126200
G1X84.374500Y32.105700
G1X84.360100Y32.086200
G1X84.355700Y32.074900
G1X84.349300Y32.064400
G1X84.342500Y32.041000
G1X84.333800Y32.018800
G1X84.332500Y32.006700
G1X84.329000Y31.994900
G1X84.328500Y31.970400
G1X84.325800Y31.946800
G1X84.327600Y31.935100
G1X84.327300Y31.922500
G1X84.333200Y31.898700
G1X84.336700Y31.875200
G1X84.341600Y31.864100
G1X84.344500Y31.852100
G1X84.356000Y31.831200
G1X84.365700Y31.808900
G1X84.373500Y31.799300
G1X84.379200Y31.788700
G1X84.395500Y31.771700
G1X84.950600Y31.077800
G1X84.958200Y31.064600
G1X84.972900Y31.049900
G1X84.986100Y31.033400
G1X84.998600Y31.024300
G1X85.009400Y31.013400
G1X85.027800Y31.002900
G1X85.044500Y30.990500
G1X85.058600Y30.985000
G1X85.072100Y30.977200
G1X85.092800Y30.971700
G1X85.111900Y30.964200
G1X85.127000Y30.962600
G1X85.142000Y30.958500
G1X85.163200Y30.958500
G1X85.183900Y30.956200
G1X85.199000Y30.958500
G1X85.214500Y30.958500
G1X85.234900Y30.964000
G1X85.255500Y30.967100
G1X85.269400Y30.973200
G1X85.284400Y30.977200
G1X85.302500Y30.987700
G1X85.321800Y30.996100
G1X85.333900Y31.005800
G1X85.347100Y31.013400

G0Z0.500
G0X78.693800Y32.240900
G1Z-0.100 f25
G1X78.703400Y32.240900 f200
G1X78.712600Y32.239100
G1X78.739200Y32.240900
G1X80.501900Y32.240900
G1X80.766900Y32.240900
G1X80.787600Y32.238600
G1X80.802700Y32.240900
G1X80.818200Y32.240900
G1X80.838600Y32.246400
G1X80.859200Y32.249500
G1X80.873100Y32.255600
G1X80.888100Y32.259600
G1X80.906200Y32.270100
G1X80.925500Y32.278500
G1X80.937600Y32.288200
G1X80.950800Y32.295800
G1X80.965500Y32.310500
G1X80.982000Y32.323700
G1X80.991100Y32.336200
G1X81.002000Y32.347000
G1X81.012600Y32.365400
G1X81.024900Y32.382100
G1X81.030400Y32.396200
G1X81.038200Y32.409700
G1X81.043700Y32.430400
G1X81.051200Y32.449500
G1X81.052900Y32.464600
G1X81.056900Y32.479600
G1X81.056900Y32.500800
G1X81.059200Y32.521500
G1X81.056900Y32.536600
G1X81.056900Y32.552100
G1X81.051400Y32.572500
G1X81.048300Y32.593100
G1X81.042200Y32.607000
G1X81.038200Y32.622000
G1X81.027700Y32.640100
G1X81.019300Y32.659400
G1X81.009600Y32.671500
G1X81.002000Y32.684700
G1X80.987300Y32.699400
G1X80.888500Y32.822800
G1X80.870000Y32.846600
G1X80.868800Y32.847400
G1X80.867700Y32.848900
G1X80.838600Y32.870300
G1X80.807600Y32.893600
G1X80.758800Y32.976800
G1X80.750800Y32.995000
G1X80.740600Y33.007600
G1X80.732300Y33.021900
G1X80.718000Y33.036000
G1X80.657600Y33.111300
G1X80.645700Y33.152700
G1X80.637100Y33.183800
G1X80.636400Y33.184800
G1X80.636000Y33.186500
G1X80.618100Y33.215900
G1X80.591600Y33.260900
G1X80.587600Y33.276100
G1X80.578000Y33.292600
G1X80.570700Y33.310100
G1X80.560100Y33.323700
G1X80.551400Y33.338800
G1X80.537700Y33.352400
G1X80.526200Y33.367300
G1X80.512500Y33.377600
G1X80.500200Y33.390000
G1X80.483800Y33.399400
G1X80.468600Y33.411000
G1X80.452400Y33.417600
G1X80.437500Y33.426200
G1X80.419200Y33.431100
G1X80.401500Y33.438300
G1X80.384100Y33.440500
G1X80.367600Y33.444900
G1X80.348800Y33.444900
G1X80.329600Y33.447300
G1X80.312300Y33.444900
G1X79.578600Y33.444900
G1X79.158700Y33.864800
G1X79.096000Y33.901000
G1X79.026100Y33.919700
G1X78.953600Y33.919700
G1X78.883700Y33.901000
G1X78.821000Y33.864800
G1X78.769800Y33.813600
G1X78.755400Y33.799200
G1X78.734800Y33.781100
G1X78.729900Y33.773600
G1X78.723700Y33.767500
G1X78.709800Y33.743300
G1X78.694800Y33.720800
G1X78.692100Y33.712700
G1X78.687500Y33.704800
G1X78.680400Y33.678000
G1X78.671600Y33.652200
G1X78.671100Y33.643200
G1X78.668800Y33.634900
G1X78.668800Y33.607800
G1X78.648600Y33.287200
G1X78.645400Y33.255900
G1X78.646300Y33.250900
G1X78.645900Y33.245600
G1X78.652200Y33.214200
G1X78.660600Y33.162600
G1X78.641500Y33.081600
G1X78.634000Y33.059600
G1X78.633200Y33.046800
G1X78.630200Y33.034200
G1X78.631000Y33.010500
G1X78.625700Y32.927300
G1X78.601500Y32.878000
G1X78.587200Y32.851500
G1X78.586200Y32.846900
G1X78.583800Y32.842200
G1X78.577500Y32.810100
G1X78.565600Y32.759400
G1X78.517300Y32.692400
G1X78.514300Y32.689000
G1X78.510000Y32.684700
G1X78.509000Y32.682800
G1X78.501400Y32.674200
G1X78.495600Y32.662300
G1X78.488300Y32.652200
G1X78.482700Y32.637300
G1X78.473800Y32.622000
G1X78.471400Y32.612700
G1X78.467200Y32.604300
G1X78.464200Y32.588600
G1X78.462600Y32.584600
G1X78.461900Y32.577300
G1X78.455100Y32.552100
G1X78.455100Y32.542500
G1X78.453300Y32.533300
G1X78.455100Y32.506700
G1X78.455100Y32.479600
G1X78.457600Y32.470400
G1X78.458200Y32.461000
G1X78.466800Y32.436200
G1X78.473800Y32.409700
G1X78.478800Y32.401200
G1X78.481700Y32.392500
G1X78.496400Y32.370700
G1X78.510000Y32.347000
G1X78.516700Y32.340300
G1X78.522000Y32.332400
G1X78.542300Y32.314700
G1X78.561200Y32.295800
G1X78.569500Y32.291100
G1X78.576600Y32.284800
G1X78.600600Y32.273100
G1X78.623900Y32.259600
G1X78.633200Y32.257200
G1X78.641600Y32.253000
G1X78.667700Y32.247900
G1X78.693800Y32.240900

G0Z0.500
G0X60.655200Y31.983100
G1Z-0.100 f25
G1X60.649500Y31.977400 f200
G1X60.643100Y31.973200
G1X60.624800Y31.952700
G1X60.613300Y31.941200
G1X60.562100Y31.890000
G1X60.525900Y31.827300
G1X60.507200Y31.757400
G1X60.507200Y31.684900
G1X60.525900Y31.615000
G1X60.562100Y31.552300
G1X60.613300Y31.501100
G1X60.676000Y31.464900
G1X60.745900Y31.446200
G1X60.809600Y31.446200
G1X60.817200Y31.444600
G1X60.845400Y31.446200
G1X60.874100Y31.446200
G1X60.881800Y31.448300
G1X60.889500Y31.448700
G1X60.916000Y31.457400
G1X60.944000Y31.464900
G1X60.950800Y31.468900
G1X60.958300Y31.471300
G1X60.981800Y31.486800
G1X61.006700Y31.501100
G1X61.012400Y31.506800
G1X61.018800Y31.511000
G1X61.037000Y31.531500
G1X61.057900Y31.552300
G1X61.062000Y31.559400
G1X61.067000Y31.565000
G1X61.079200Y31.589300
G1X61.094100Y31.615000
G1X61.096200Y31.622900
G1X61.099600Y31.629600
G1X61.105200Y31.656700
G1X61.112800Y31.684900
G1X61.112800Y31.692900
G1X61.114400Y31.700500
G1X61.112800Y31.728700
G1X61.112800Y31.757400
G1X61.110700Y31.765100
G1X61.110300Y31.772800
G1X61.101600Y31.799200
G1X61.094100Y31.827300
G1X61.090100Y31.834200
G1X61.087700Y31.841500
G1X61.080300Y31.869200
G1X61.076300Y31.876000
G1X61.073900Y31.883500
G1X61.058400Y31.907000
G1X61.044100Y31.931900
G1X61.038400Y31.937600
G1X61.034200Y31.944000
G1X61.013700Y31.962300
G1X60.992900Y31.983100
G1X60.985800Y31.987200
G1X60.980200Y31.992200
G1X60.955800Y32.004500
G1X60.930200Y32.019300
G1X60.922300Y32.021400
G1X60.915600Y32.024800
G1X60.888400Y32.030400
G1X60.860300Y32.038000
G1X60.852300Y32.038000
G1X60.844700Y32.039600
G1X60.816500Y32.038000
G1X60.787800Y32.038000
G1X60.780100Y32.035900
G1X60.772400Y32.035500
G1X60.745900Y32.026700
G1X60.717900Y32.019300
G1X60.711100Y32.015300
G1X60.703600Y32.012900
G1X60.680100Y31.997400
G1X60.655200Y31.983100

G0Z0.500
G0X69.012100Y17.406300
G1Z-0.100 f25
G1X69.030100Y17.404000 f200
G1X69.047700Y17.399200
G1X69.065800Y17.399200
G1X69.083800Y17.396800
G1X69.101900Y17.399200
G1X69.120200Y17.399200
G1X69.138000Y17.404000
G1X69.155700Y17.406300
G1X69.172100Y17.413100
G1X69.190100Y17.417900
G1X69.205800Y17.427000
G1X69.222600Y17.433900
G1X69.237000Y17.445000
G1X69.252800Y17.454100
G1X69.265800Y17.467100
G1X69.280000Y17.478000
G1X69.290900Y17.492200
G1X69.304000Y17.505300
G1X69.313100Y17.521200
G1X69.324100Y17.535400
G1X69.331000Y17.552100
G1X69.340200Y17.568000
G1X69.344900Y17.585800
G1X69.351800Y17.602300
G1X69.354100Y17.620300
G1X69.358900Y17.637900
G1X69.358900Y17.656000
G1X69.361300Y17.674000
G1X69.358900Y17.692100
G1X69.358900Y19.352200
G1X69.360300Y19.358500
G1X69.358900Y19.388300
G1X69.358900Y19.418200
G1X69.357200Y19.424500
G1X69.356900Y19.430900
G1X69.348000Y19.458900
G1X69.340200Y19.488100
G1X69.336900Y19.493700
G1X69.335000Y19.499900
G1X69.319000Y19.524800
G1X69.304000Y19.550800
G1X69.299300Y19.555500
G1X69.295900Y19.560800
G1X69.274300Y19.580500
G1X69.252800Y19.602000
G1X69.247100Y19.605200
G1X69.242400Y19.609600
G1X69.216200Y19.623100
G1X69.190100Y19.638200
G1X69.183600Y19.639900
G1X69.178100Y19.642800
G1X69.149300Y19.649100
G1X69.120200Y19.656900
G1X69.113700Y19.656900
G1X69.107400Y19.658300
G1X69.077600Y19.656900
G1X69.047700Y19.656900
G1X69.041400Y19.655200
G1X69.035000Y19.654900
G1X69.007600Y19.646100
G1X68.977800Y19.638200
G1X68.972000Y19.634800
G1X67.710100Y19.233100
G1X67.681700Y19.225500
G1X67.676200Y19.222300
G1X67.669900Y19.220300
G1X67.645000Y19.204300
G1X67.619000Y19.189300
G1X67.614300Y19.184600
G1X67.609000Y19.181200
G1X67.589300Y19.159500
G1X67.567800Y19.138100
G1X67.564600Y19.132400
G1X67.560200Y19.127700
G1X67.546700Y19.101500
G1X67.531600Y19.075400
G1X67.529900Y19.068900
G1X67.527000Y19.063400
G1X67.520700Y19.034600
G1X67.512900Y19.005500
G1X67.512900Y18.999000
G1X67.511500Y18.992700
G1X67.512900Y18.962900
G1X67.512900Y18.933000
G1X67.514600Y18.926700
G1X67.514900Y18.920300
G1X67.523800Y18.892300
G1X67.531600Y18.863100
G1X67.534900Y18.857500
G1X67.536800Y18.851300
G1X67.552800Y18.826400
G1X67.567800Y18.800400
G1X67.572500Y18.795700
G1X67.575900Y18.790400
G1X67.597600Y18.770600
G1X68.143500Y18.224800
G1X68.143500Y17.679600
G1X68.162200Y17.609700
G1X68.198400Y17.547000
G1X68.249600Y17.495800
G1X68.312300Y17.459600
G1X68.382200Y17.440900
G1X68.454700Y17.440900
G1X68.928600Y17.440900
G1X68.961800Y17.427200
G1X68.977800Y17.417900
G1X68.995700Y17.413200
G1X69.012100Y17.406300

G0Z0.500
G0X63.440900Y17.724400
G1Z-0.100 f25
G1X63.438500Y17.705800 f200
G1X63.440900Y17.687900
G1X63.440900Y17.670300
G1X63.445600Y17.652700
G1X63.448100Y17.634100
G1X63.455000Y17.617600
G1X63.459600Y17.600400
G1X63.468900Y17.584300
G1X63.476000Y17.567300
G1X63.486800Y17.553400
G1X63.495800Y17.537700
G1X63.509100Y17.524500
G1X63.520200Y17.510000
G1X63.534300Y17.499300
G1X63.547000Y17.486500
G1X63.563000Y17.477300
G1X63.577700Y17.466000
G1X63.594400Y17.459200
G1X63.609700Y17.450300
G1X63.627700Y17.445500
G1X63.644700Y17.438500
G1X63.662400Y17.436200
G1X63.679600Y17.431600
G1X63.698000Y17.431600
G1X63.716600Y17.429200
G1X63.734500Y17.431600
G1X63.752100Y17.431600
G1X63.769700Y17.436300
G1X63.788300Y17.438800
G1X63.793300Y17.440900
G1X64.297900Y17.440900
G1X64.614800Y17.440900
G1X64.684700Y17.459600
G1X64.747400Y17.495800
G1X64.798600Y17.547000
G1X64.834800Y17.609700
G1X64.853500Y17.679600
G1X64.853500Y17.752100
G1X64.853500Y18.224800
G1X65.735000Y19.106300
G1X65.753700Y19.122000
G1X65.760300Y19.131600
G1X65.768700Y19.139900
G1X65.781200Y19.161600
G1X65.795000Y19.181400
G1X65.798900Y19.192300
G1X65.804900Y19.202600
G1X65.811300Y19.226600
G1X65.819600Y19.249500
G1X65.820600Y19.261300
G1X65.823600Y19.272500
G1X65.823600Y19.296800
G1X65.825700Y19.321700
G1X65.823600Y19.333300
G1X65.823600Y19.345000
G1X65.817200Y19.368600
G1X65.812900Y19.393000
G1X65.807900Y19.403500
G1X65.804900Y19.414900
G1X65.792500Y19.436300
G1X65.782100Y19.458500
G1X65.774600Y19.467300
G1X65.768700Y19.477600
G1X65.757600Y19.488600
G1X65.719600Y19.608100
G1X65.718100Y19.619900
G1X65.708700Y19.642400
G1X65.701300Y19.665900
G1X65.694800Y19.675900
G1X65.646800Y19.791700
G1X65.646400Y19.801900
G1X65.646400Y19.831700
G1X65.644700Y19.838000
G1X65.644400Y19.844500
G1X65.635500Y19.872200
G1X65.632700Y19.882600
G1X65.643300Y20.008000
G1X65.646400Y20.019200
G1X65.646400Y20.043500
G1X65.648500Y20.068400
G1X65.646400Y20.080000
G1X65.646400Y20.297500
G1X65.627700Y20.367400
G1X65.591500Y20.430100
G1X65.540300Y20.481300
G1X65.477600Y20.517500
G1X65.407700Y20.536200
G1X65.358600Y20.536200
G1X65.286100Y20.536200
G1X65.216200Y20.517500
G1X65.153500Y20.481300
G1X63.495800Y18.823600
G1X63.459600Y18.760900
G1X63.440900Y18.691000
G1X63.440900Y18.618500
G1X63.440900Y17.724400

G0Z0.500
G0X48.226400Y4.567400
G1Z-0.100 f25
G1X48.226400Y4.552100 f200
G1X48.226400Y4.549200
G1X48.224000Y4.531100
G1X48.226400Y4.513100
G1X48.226400Y4.479600
G1X48.245100Y4.409700
G1X48.281300Y4.347000
G1X48.332500Y4.295800
G1X48.395200Y4.259600
G1X48.465100Y4.240900
G1X49.856200Y4.240900
G1X49.892100Y4.240800
G1X49.892400Y4.240900
G1X49.892600Y4.240900
G1X49.916500Y4.247300
G1X49.962000Y4.259400
G1X49.962200Y4.259600
G1X49.962500Y4.259600
G1X49.997800Y4.280000
G1X50.024800Y4.295500
G1X50.024900Y4.295700
G1X50.025200Y4.295800
G1X50.052000Y4.322700
G1X50.645200Y4.913700
G1X50.645700Y4.913900
G1X50.696000Y4.964300
G1X50.696500Y4.964700
G1X50.696900Y4.965100
G1X50.720200Y5.005500
G1X50.732900Y5.027300
G1X50.732900Y5.027600
G1X50.733100Y5.027800
G1X50.745100Y5.072800
G1X50.751700Y5.097200
G1X50.751700Y5.097400
G1X50.751800Y5.097700
G1X50.751800Y5.133100
G1X50.751900Y5.169700
G1X50.751800Y5.170000
G1X50.751800Y5.170200
G1X50.745800Y5.192500
G1X50.733300Y5.239600
G1X50.733100Y5.239800
G1X50.733100Y5.240100
G1X50.713300Y5.274400
G1X50.697200Y5.302400
G1X50.697000Y5.302500
G1X50.696900Y5.302800
G1X50.646900Y5.352800
G1X50.646100Y5.353600
G1X50.499500Y5.500200
G1X50.264000Y6.068600
G1X50.264000Y6.068700
G1X50.236300Y6.135600
G1X50.217500Y6.160000
G1X50.192300Y6.193000
G1X50.134800Y6.237000
G1X50.068000Y6.264700
G1X49.996200Y6.274200
G1X49.924300Y6.264700
G1X49.922400Y6.263900
G1X49.857400Y6.237000
G1X49.833000Y6.218200
G1X49.800000Y6.193000
G1X49.756000Y6.135500
G1X49.728300Y6.068700
G1X49.728300Y6.068500
G1X49.498200Y5.512700
G1X49.035200Y5.049700
G1X48.413300Y4.792200
G1X48.395200Y4.787400
G1X48.379100Y4.778000
G1X48.362700Y4.771300
G1X48.348700Y4.760500
G1X48.332500Y4.751200
G1X48.319500Y4.738100
G1X48.305300Y4.727300
G1X48.294400Y4.713000
G1X48.281300Y4.700000
G1X48.272200Y4.684100
G1X48.261200Y4.669900
G1X48.254300Y4.653200
G1X48.245100Y4.637300
G1X48.240400Y4.619500
G1X48.233500Y4.603000
G1X48.231200Y4.585000
G1X48.226400Y4.567400

G0Z0.500
G0X18.965100Y3.040900
G1Z-0.100 f25
G1X18.983000Y3.045800 f200
G1X19.034900Y3.059600
G1X19.097600Y3.095800
G1X19.148800Y3.147000
G1X19.185000Y3.209700
G1X19.203700Y3.279600
G1X19.203700Y3.352100
G1X19.203700Y3.352200
G1X19.198800Y3.370100
G1X19.185000Y3.422000
G1X19.148800Y3.484700
G1X19.097600Y3.535900
G1X19.097400Y3.535900
G1X19.030900Y3.602400
G1X18.780500Y4.206800
G1X18.780500Y4.496500
G1X18.782900Y4.514700
G1X18.780500Y4.532800
G1X18.780500Y4.550900
G1X18.775800Y4.568500
G1X18.773400Y4.586500
G1X18.766600Y4.602900
G1X18.761800Y4.620800
G1X18.752500Y4.636900
G1X18.745700Y4.653300
G1X18.734800Y4.667400
G1X18.725600Y4.683500
G1X18.712800Y4.696300
G1X18.701700Y4.710800
G1X18.687200Y4.721900
G1X18.674400Y4.734700
G1X18.658300Y4.743900
G1X18.644200Y4.754800
G1X18.627800Y4.761500
G1X18.611700Y4.770900
G1X18.593700Y4.775700
G1X17.965700Y5.035900
G1X17.502800Y5.498800
G1X17.264500Y6.074100
G1X17.264500Y6.074200
G1X17.237900Y6.138400
G1X17.236800Y6.141000
G1X17.192800Y6.198500
G1X17.135300Y6.242500
G1X17.068500Y6.270200
G1X16.996700Y6.279700
G1X16.924800Y6.270200
G1X16.858000Y6.242500
G1X16.800500Y6.198500
G1X16.756500Y6.141000
G1X16.728800Y6.074200
G1X16.728800Y6.074100
G1X16.495600Y5.511200
G1X16.032700Y5.048300
G1X15.410700Y4.790600
G1X15.392700Y4.785800
G1X15.376600Y4.776500
G1X15.360200Y4.769700
G1X15.346000Y4.758800
G1X15.330000Y4.749600
G1X15.317200Y4.736800
G1X15.302700Y4.725700
G1X15.291600Y4.711200
G1X15.278800Y4.698400
G1X15.269600Y4.682400
G1X15.258700Y4.668200
G1X15.251900Y4.651800
G1X15.242600Y4.635700
G1X15.237900Y4.617800
G1X15.231000Y4.601400
G1X15.228600Y4.583400
G1X15.223900Y4.565800
G1X15.223900Y4.547700
G1X15.221500Y4.529600
G1X15.223900Y4.511400
G1X15.223900Y4.211100
G1X14.973500Y3.606600
G1X14.902800Y3.535900
G1X14.902600Y3.535900
G1X14.853000Y3.486200
G1X14.851500Y3.484800
G1X14.851500Y3.484700
G1X14.851400Y3.484700
G1X14.815200Y3.422000
G1X14.801800Y3.371600
G1X14.796500Y3.352200
G1X14.796500Y3.279700
G1X14.796500Y3.279600
G1X14.815200Y3.209700
G1X14.851400Y3.147000
G1X14.901800Y3.096700
G1X14.902500Y3.095900
G1X14.902600Y3.095900
G1X14.902600Y3.095800
G1X14.965300Y3.059600
G1X15.015700Y3.046200
G1X15.035100Y3.040900
G1X15.107600Y3.040900
G1X18.965000Y3.040900
G1X18.965100Y3.040900

G0Z0.500
G0X75.681900Y20.536200
G1Z-0.100 f25
G1X75.654900Y20.536200 f200
G1X75.627200Y20.538000
G1X75.618200Y20.536200
G1X74.873700Y20.536200
G1X74.556900Y20.853100
G1X74.556600Y20.853600
G1X74.530400Y20.879500
G1X74.506100Y20.903900
G1X74.505600Y20.904100
G1X74.505200Y20.904600
G1X74.478000Y20.920100
G1X74.443400Y20.940100
G1X74.442600Y20.940300
G1X74.442300Y20.940500
G1X74.419900Y20.946400
G1X74.373500Y20.958800
G1X74.372600Y20.958800
G1X74.372300Y20.958900
G1X74.348400Y20.958800
G1X74.301000Y20.958800
G1X74.300300Y20.958600
G1X74.299900Y20.958600
G1X74.278200Y20.952700
G1X74.231100Y20.940100
G1X74.230500Y20.939700
G1X74.230000Y20.939600
G1X74.203500Y20.924100
G1X74.168400Y20.903900
G1X74.168000Y20.903400
G1X74.167500Y20.903200
G1X74.142200Y20.877700
G1X74.117200Y20.852700
G1X74.117000Y20.852200
G1X74.116500Y20.851800
G1X74.101000Y20.824600
G1X74.081000Y20.790000
G1X74.080800Y20.789200
G1X74.080600Y20.788900
G1X74.074700Y20.766500
G1X74.062300Y20.720100
G1X74.062300Y20.719200
G1X74.062200Y20.718900
G1X74.062300Y20.695100
G1X74.062300Y20.647600
G1X74.062500Y20.646900
G1X74.082600Y15.830900
G1X74.080700Y15.821300
G1X74.082700Y15.794100
G1X74.082800Y15.767900
G1X74.085300Y15.758800
G1X74.086000Y15.749000
G1X74.094900Y15.723600
G1X74.101800Y15.698000
G1X74.106700Y15.689700
G1X74.109800Y15.680600
G1X74.121700Y15.663200
G1X74.125000Y15.655200
G1X74.132000Y15.646300
G1X74.138200Y15.635500
G1X74.145100Y15.628700
G1X74.157500Y15.610400
G1X74.164100Y15.604700
G1X74.169300Y15.598000
G1X74.191600Y15.581100
G1X74.212300Y15.563200
G1X74.219900Y15.559600
G1X74.227000Y15.554100
G1X74.253000Y15.543500
G1X74.277400Y15.531700
G1X74.286100Y15.530100
G1X74.294000Y15.526800
G1X74.321300Y15.523300
G1X74.348500Y15.518100
G1X74.357100Y15.518700
G1X74.365900Y15.517600
G1X74.393800Y15.521400
G1X74.420800Y15.523400
G1X74.428800Y15.526200
G1X74.437600Y15.527400
G1X74.463200Y15.538200
G1X74.489200Y15.547200
G1X74.496300Y15.552100
G1X74.504300Y15.555400
G1X74.525900Y15.572200
G1X74.549100Y15.587900
G1X74.554800Y15.594500
G1X74.561500Y15.599700
G1X74.578400Y15.622000
G1X74.596300Y15.642700
G1X74.599900Y15.650300
G1X74.605400Y15.657400
G1X74.608200Y15.664400
G1X75.070600Y16.126700
G1X75.675000Y16.377100
G1X76.358300Y16.377100
G1X76.386000Y16.375300
G1X76.394900Y16.377100
G1X76.403800Y16.377100
G1X76.429800Y16.384100
G1X76.457000Y16.389500
G1X76.465000Y16.393500
G1X76.473700Y16.395800
G1X76.497400Y16.409500
G1X76.521900Y16.421600
G1X76.528600Y16.427500
G1X76.536400Y16.432000
G1X76.555700Y16.451300
G1X76.576300Y16.469400
G1X76.581300Y16.476900
G1X76.587600Y16.483200
G1X76.601300Y16.507000
G1X76.616400Y16.529600
G1X76.619200Y16.538000
G1X76.623800Y16.545900
G1X76.630900Y16.572700
G1X76.639600Y16.598200
G1X76.640200Y16.607200
G1X76.642500Y16.615800
G1X76.642500Y16.642800
G1X76.644300Y16.670500
G1X76.642500Y16.679400
