(This G-Code generated with CNC-DRILL-GCODE.ulp program)
(running under Eagle CAD.)

N00010  M03 S3000
G00 Z2.00 F400
(----------------------------------------------------------)
( Drill size=0.010mm )
(----------------------------------------------------------)
N00020  G00 X4.548 Y55.819
N00030  G1Z-0.40f50
N00040  G00 Z1.00 F400
N00050  G00 X26.547 Y55.780
N00060  G1Z-0.40f50
N00070  G00 Z1.00 F400
(----------------------------------------------------------)
( Drill size=0.610mm )
(----------------------------------------------------------)
N00080  G00 X14.060 Y41.861
N00090  G1Z-0.40f50
N00100  G00 Z1.00 F400
(----------------------------------------------------------)
( Drill size=1.000mm )
(----------------------------------------------------------)
N00110  G00 X4.577 Y14.650
N00120  G1Z-0.40f50
N00130  G00 Z1.00 F400
N00140  G00 X3.115 Y37.478
N00150  G1Z-0.40f50
N00160  G00 Z1.00 F400
N00170  G00 X3.136 Y40.013
N00180  G1Z-0.40f50
N00190  G00 Z1.00 F400
N00200  G00 X3.130 Y42.547
N00210  G1Z-0.40f50
N00220  G00 Z1.00 F400
N00230  G00 X3.137 Y46.159
N00240  G1Z-0.40f50
N00250  G00 Z1.00 F400
N00260  G00 X3.542 Y67.267
N00270  G1Z-0.40f50
N00280  G00 Z1.00 F400
N00290  G00 X3.542 Y69.807
N00300  G1Z-0.40f50
N00310  G00 Z1.00 F400
N00320  G00 X3.589 Y73.333
N00330  G1Z-0.40f50
N00340  G00 Z1.00 F400
N00350  G00 X3.589 Y75.873
N00360  G1Z-0.40f50
N00370  G00 Z1.00 F400
N00380  G00 X3.277 Y95.061
N00390  G1Z-0.40f50
N00400  G00 Z1.00 F400
N00410  G00 X3.277 Y97.601
N00420  G1Z-0.40f50
N00430  G00 Z1.00 F400
N00440  G00 X7.920 Y2.730
N00450  G1Z-0.40f50
N00460  G00 Z1.00 F400
N00470  G00 X7.920 Y5.270
N00480  G1Z-0.40f50
N00490  G00 Z1.00 F400
N00500  G00 X7.349 Y25.671
N00510  G1Z-0.40f50
N00520  G00 Z1.00 F400
N00530  G00 X7.362 Y33.291
N00540  G1Z-0.40f50
N00550  G00 Z1.00 F400
N00560  G00 X5.655 Y37.474
N00570  G1Z-0.40f50
N00580  G00 Z1.00 F400
N00590  G00 X5.676 Y40.008
N00600  G1Z-0.40f50
N00610  G00 Z1.00 F400
N00620  G00 X5.670 Y42.542
N00630  G1Z-0.40f50
N00640  G00 Z1.00 F400
N00650  G00 X5.677 Y46.154
N00660  G1Z-0.40f50
N00670  G00 Z1.00 F400
N00680  G00 X7.740 Y81.650
N00690  G1Z-0.40f50
N00700  G00 Z1.00 F400
N00710  G00 X7.740 Y89.270
N00720  G1Z-0.40f50
N00730  G00 Z1.00 F400
N00740  G00 X7.920 Y94.730
N00750  G1Z-0.40f50
N00760  G00 Z1.00 F400
N00770  G00 X7.920 Y97.270
N00780  G1Z-0.40f50
N00790  G00 Z1.00 F400
N00800  G00 X8.091 Y69.700
N00810  G1Z-0.40f50
N00820  G00 Z1.00 F400
N00830  G00 X8.091 Y67.160
N00840  G1Z-0.40f50
N00850  G00 Z1.00 F400
N00860  G00 X8.091 Y72.240
N00870  G1Z-0.40f50
N00880  G00 Z1.00 F400
N00890  G00 X8.897 Y38.327
N00900  G1Z-0.40f50
N00910  G00 Z1.00 F400
N00920  G00 X8.910 Y45.947
N00930  G1Z-0.40f50
N00940  G00 Z1.00 F400
N00950  G00 X10.460 Y2.730
N00960  G1Z-0.40f50
N00970  G00 Z1.00 F400
N00980  G00 X10.460 Y5.270
N00990  G1Z-0.40f50
N01000  G00 Z1.00 F400
N01010  G00 X10.460 Y94.730
N01020  G1Z-0.40f50
N01030  G00 Z1.00 F400
N01040  G00 X10.460 Y97.270
N01050  G1Z-0.40f50
N01060  G00 Z1.00 F400
N01070  G00 X13.000 Y2.730
N01080  G1Z-0.40f50
N01090  G00 Z1.00 F400
N01100  G00 X13.000 Y5.270
N01110  G1Z-0.40f50
N01120  G00 Z1.00 F400
N01130  G00 X12.197 Y14.636
N01140  G1Z-0.40f50
N01150  G00 Z1.00 F400
N01160  G00 X11.437 Y38.322
N01170  G1Z-0.40f50
N01180  G00 Z1.00 F400
N01190  G00 X11.450 Y45.942
N01200  G1Z-0.40f50
N01210  G00 Z1.00 F400
N01220  G00 X13.000 Y94.730
N01230  G1Z-0.40f50
N01240  G00 Z1.00 F400
N01250  G00 X13.000 Y97.270
N01260  G1Z-0.40f50
N01270  G00 Z1.00 F400
N01280  G00 X13.977 Y38.318
N01290  G1Z-0.40f50
N01300  G00 Z1.00 F400
N01310  G00 X13.990 Y45.938
N01320  G1Z-0.40f50
N01330  G00 Z1.00 F400
N01340  G00 X15.540 Y2.730
N01350  G1Z-0.40f50
N01360  G00 Z1.00 F400
N01370  G00 X15.540 Y5.270
N01380  G1Z-0.40f50
N01390  G00 Z1.00 F400
N01400  G00 X15.540 Y94.730
N01410  G1Z-0.40f50
N01420  G00 Z1.00 F400
N01430  G00 X15.540 Y97.270
N01440  G1Z-0.40f50
N01450  G00 Z1.00 F400
N01460  G00 X16.517 Y38.314
N01470  G1Z-0.40f50
N01480  G00 Z1.00 F400
N01490  G00 X16.530 Y45.934
N01500  G1Z-0.40f50
N01510  G00 Z1.00 F400
N01520  G00 X16.967 Y26.306
N01530  G1Z-0.40f50
N01540  G00 Z1.00 F400
N01550  G00 X16.972 Y28.846
N01560  G1Z-0.40f50
N01570  G00 Z1.00 F400
N01580  G00 X16.976 Y31.386
N01590  G1Z-0.40f50
N01600  G00 Z1.00 F400
N01610  G00 X17.110 Y82.210
N01620  G1Z-0.40f50
N01630  G00 Z1.00 F400
N01640  G00 X18.000 Y87.000
N01650  G1Z-0.40f50
N01660  G00 Z1.00 F400
N01670  G00 X18.080 Y2.730
N01680  G1Z-0.40f50
N01690  G00 Z1.00 F400
N01700  G00 X18.080 Y5.270
N01710  G1Z-0.40f50
N01720  G00 Z1.00 F400
N01730  G00 X18.080 Y94.730
N01740  G1Z-0.40f50
N01750  G00 Z1.00 F400
N01760  G00 X18.080 Y97.270
N01770  G1Z-0.40f50
N01780  G00 Z1.00 F400
N01790  G00 X18.605 Y67.234
N01800  G1Z-0.40f50
N01810  G00 Z1.00 F400
N01820  G00 X18.605 Y64.694
N01830  G1Z-0.40f50
N01840  G00 Z1.00 F400
N01850  G00 X18.728 Y50.729
N01860  G1Z-0.40f50
N01870  G00 Z1.00 F400
N01880  G00 X18.728 Y53.269
N01890  G1Z-0.40f50
N01900  G00 Z1.00 F400
N01910  G00 X18.978 Y10.817
N01920  G1Z-0.40f50
N01930  G00 Z1.00 F400
N01940  G00 X18.982 Y13.357
N01950  G1Z-0.40f50
N01960  G00 Z1.00 F400
N01970  G00 X19.987 Y40.085
N01980  G1Z-0.40f50
N01990  G00 Z1.00 F400
N02000  G00 X19.992 Y42.625
N02010  G1Z-0.40f50
N02020  G00 Z1.00 F400
N02030  G00 X21.036 Y67.309
N02040  G1Z-0.40f50
N02050  G00 Z1.00 F400
N02060  G00 X21.045 Y69.858
N02070  G1Z-0.40f50
N02080  G00 Z1.00 F400
N02090  G00 X21.055 Y64.729
N02100  G1Z-0.40f50
N02110  G00 Z1.00 F400
N02120  G00 X21.268 Y53.269
N02130  G1Z-0.40f50
N02140  G00 Z1.00 F400
N02150  G00 X21.268 Y50.729
N02160  G1Z-0.40f50
N02170  G00 Z1.00 F400
N02180  G00 X22.190 Y82.210
N02190  G1Z-0.40f50
N02200  G00 Z1.00 F400
N02210  G00 X22.328 Y45.695
N02220  G1Z-0.40f50
N02230  G00 Z1.00 F400
N02240  G00 X23.341 Y95.609
N02250  G1Z-0.40f50
N02260  G00 Z1.00 F400
N02270  G00 X23.341 Y98.148
N02280  G1Z-0.40f50
N02290  G00 Z1.00 F400
N02300  G00 X23.576 Y67.309
N02310  G1Z-0.40f50
N02320  G00 Z1.00 F400
N02330  G00 X23.585 Y69.858
N02340  G1Z-0.40f50
N02350  G00 Z1.00 F400
N02360  G00 X23.595 Y64.729
N02370  G1Z-0.40f50
N02380  G00 Z1.00 F400
N02390  G00 X23.867 Y38.348
N02400  G1Z-0.40f50
N02410  G00 Z1.00 F400
N02420  G00 X23.872 Y40.887
N02430  G1Z-0.40f50
N02440  G00 Z1.00 F400
N02450  G00 X24.868 Y45.690
N02460  G1Z-0.40f50
N02470  G00 Z1.00 F400
N02480  G00 X25.096 Y13.443
N02490  G1Z-0.40f50
N02500  G00 Z1.00 F400
N02510  G00 X25.105 Y18.523
N02520  G1Z-0.40f50
N02530  G00 Z1.00 F400
N02540  G00 X26.513 Y92.820
N02550  G1Z-0.40f50
N02560  G00 Z1.00 F400
N02570  G00 X26.513 Y90.280
N02580  G1Z-0.40f50
N02590  G00 Z1.00 F400
N02600  G00 X26.513 Y87.740
N02610  G1Z-0.40f50
N02620  G00 Z1.00 F400
N02630  G00 X26.974 Y72.309
N02640  G1Z-0.40f50
N02650  G00 Z1.00 F400
N02660  G00 X26.974 Y77.389
N02670  G1Z-0.40f50
N02680  G00 Z1.00 F400
N02690  G00 X26.983 Y79.922
N02700  G1Z-0.40f50
N02710  G00 Z1.00 F400
N02720  G00 X26.983 Y85.002
N02730  G1Z-0.40f50
N02740  G00 Z1.00 F400
N02750  G00 X26.993 Y64.678
N02760  G1Z-0.40f50
N02770  G00 Z1.00 F400
N02780  G00 X26.993 Y69.758
N02790  G1Z-0.40f50
N02800  G00 Z1.00 F400
N02810  G00 X27.000 Y98.270
N02820  G1Z-0.40f50
N02830  G00 Z1.00 F400
N02840  G00 X27.000 Y95.730
N02850  G1Z-0.40f50
N02860  G00 Z1.00 F400
N02870  G00 X27.033 Y2.300
N02880  G1Z-0.40f50
N02890  G00 Z1.00 F400
N02900  G00 X27.046 Y9.920
N02910  G1Z-0.40f50
N02920  G00 Z1.00 F400
N02930  G00 X27.640 Y15.978
N02940  G1Z-0.40f50
N02950  G00 Z1.00 F400
N02960  G00 X27.790 Y28.217
N02970  G1Z-0.40f50
N02980  G00 Z1.00 F400
N02990  G00 X27.794 Y30.757
N03000  G1Z-0.40f50
N03010  G00 Z1.00 F400
N03020  G00 X27.799 Y33.297
N03030  G1Z-0.40f50
N03040  G00 Z1.00 F400
N03050  G00 X27.839 Y37.680
N03060  G1Z-0.40f50
N03070  G00 Z1.00 F400
N03080  G00 X27.852 Y45.300
N03090  G1Z-0.40f50
N03100  G00 Z1.00 F400
N03110  G00 X27.890 Y22.487
N03120  G1Z-0.40f50
N03130  G00 Z1.00 F400
N03140  G00 X27.894 Y25.027
N03150  G1Z-0.40f50
N03160  G00 Z1.00 F400

(----------------------------------------------------------)
N03170  G00 Z2.00 F400
N03180  G00 X0 Y0 F400
N03190  M05 
