(This G-Code generated with CNC-DRILL-GCODE.ulp program)
(running under Eagle CAD.)

N00010  M03 S3000
G00 Z2.00 F400
(----------------------------------------------------------)
( Drill size=0.010mm )
(----------------------------------------------------------)
N00020  G00 X55.819 Y4.548
N00030  G1Z-1.70f50
N00040  G00 Z1.00 F400
N00050  G00 X55.780 Y26.547
N00060  G1Z-1.70f50
N00070  G00 Z1.00 F400
(----------------------------------------------------------)
( Drill size=0.610mm )
(----------------------------------------------------------)
N00080  G00 X41.861 Y14.060
N00090  G1Z-1.70f50
N00100  G00 Z1.00 F400
(----------------------------------------------------------)
( Drill size=1.000mm )
(----------------------------------------------------------)
N00110  G00 X14.650 Y4.577
N00120  G1Z-1.70f50
N00130  G00 Z1.00 F400
N00140  G00 X37.478 Y3.115
N00150  G1Z-1.70f50
N00160  G00 Z1.00 F400
N00170  G00 X40.013 Y3.136
N00180  G1Z-1.70f50
N00190  G00 Z1.00 F400
N00200  G00 X42.547 Y3.130
N00210  G1Z-1.70f50
N00220  G00 Z1.00 F400
N00230  G00 X46.159 Y3.137
N00240  G1Z-1.70f50
N00250  G00 Z1.00 F400
N00260  G00 X67.267 Y3.542
N00270  G1Z-1.70f50
N00280  G00 Z1.00 F400
N00290  G00 X69.807 Y3.542
N00300  G1Z-1.70f50
N00310  G00 Z1.00 F400
N00320  G00 X73.333 Y3.589
N00330  G1Z-1.70f50
N00340  G00 Z1.00 F400
N00350  G00 X75.873 Y3.589
N00360  G1Z-1.70f50
N00370  G00 Z1.00 F400
N00380  G00 X95.061 Y3.277
N00390  G1Z-1.70f50
N00400  G00 Z1.00 F400
N00410  G00 X97.601 Y3.277
N00420  G1Z-1.70f50
N00430  G00 Z1.00 F400
N00440  G00 X2.730 Y7.920
N00450  G1Z-1.70f50
N00460  G00 Z1.00 F400
N00470  G00 X5.270 Y7.920
N00480  G1Z-1.70f50
N00490  G00 Z1.00 F400
N00500  G00 X25.671 Y7.349
N00510  G1Z-1.70f50
N00520  G00 Z1.00 F400
N00530  G00 X33.291 Y7.362
N00540  G1Z-1.70f50
N00550  G00 Z1.00 F400
N00560  G00 X37.474 Y5.655
N00570  G1Z-1.70f50
N00580  G00 Z1.00 F400
N00590  G00 X40.008 Y5.676
N00600  G1Z-1.70f50
N00610  G00 Z1.00 F400
N00620  G00 X42.542 Y5.670
N00630  G1Z-1.70f50
N00640  G00 Z1.00 F400
N00650  G00 X46.154 Y5.677
N00660  G1Z-1.70f50
N00670  G00 Z1.00 F400
N00680  G00 X81.650 Y7.740
N00690  G1Z-1.70f50
N00700  G00 Z1.00 F400
N00710  G00 X89.270 Y7.740
N00720  G1Z-1.70f50
N00730  G00 Z1.00 F400
N00740  G00 X94.730 Y7.920
N00750  G1Z-1.70f50
N00760  G00 Z1.00 F400
N00770  G00 X97.270 Y7.920
N00780  G1Z-1.70f50
N00790  G00 Z1.00 F400
N00800  G00 X69.700 Y8.091
N00810  G1Z-1.70f50
N00820  G00 Z1.00 F400
N00830  G00 X67.160 Y8.091
N00840  G1Z-1.70f50
N00850  G00 Z1.00 F400
N00860  G00 X72.240 Y8.091
N00870  G1Z-1.70f50
N00880  G00 Z1.00 F400
N00890  G00 X38.327 Y8.897
N00900  G1Z-1.70f50
N00910  G00 Z1.00 F400
N00920  G00 X45.947 Y8.910
N00930  G1Z-1.70f50
N00940  G00 Z1.00 F400
N00950  G00 X2.730 Y10.460
N00960  G1Z-1.70f50
N00970  G00 Z1.00 F400
N00980  G00 X5.270 Y10.460
N00990  G1Z-1.70f50
N01000  G00 Z1.00 F400
N01010  G00 X94.730 Y10.460
N01020  G1Z-1.70f50
N01030  G00 Z1.00 F400
N01040  G00 X97.270 Y10.460
N01050  G1Z-1.70f50
N01060  G00 Z1.00 F400
N01070  G00 X2.730 Y13.000
N01080  G1Z-1.70f50
N01090  G00 Z1.00 F400
N01100  G00 X5.270 Y13.000
N01110  G1Z-1.70f50
N01120  G00 Z1.00 F400
N01130  G00 X14.636 Y12.197
N01140  G1Z-1.70f50
N01150  G00 Z1.00 F400
N01160  G00 X38.322 Y11.437
N01170  G1Z-1.70f50
N01180  G00 Z1.00 F400
N01190  G00 X45.942 Y11.450
N01200  G1Z-1.70f50
N01210  G00 Z1.00 F400
N01220  G00 X94.730 Y13.000
N01230  G1Z-1.70f50
N01240  G00 Z1.00 F400
N01250  G00 X97.270 Y13.000
N01260  G1Z-1.70f50
N01270  G00 Z1.00 F400
N01280  G00 X38.318 Y13.977
N01290  G1Z-1.70f50
N01300  G00 Z1.00 F400
N01310  G00 X45.938 Y13.990
N01320  G1Z-1.70f50
N01330  G00 Z1.00 F400
N01340  G00 X2.730 Y15.540
N01350  G1Z-1.70f50
N01360  G00 Z1.00 F400
N01370  G00 X5.270 Y15.540
N01380  G1Z-1.70f50
N01390  G00 Z1.00 F400
N01400  G00 X94.730 Y15.540
N01410  G1Z-1.70f50
N01420  G00 Z1.00 F400
N01430  G00 X97.270 Y15.540
N01440  G1Z-1.70f50
N01450  G00 Z1.00 F400
N01460  G00 X38.314 Y16.517
N01470  G1Z-1.70f50
N01480  G00 Z1.00 F400
N01490  G00 X45.934 Y16.530
N01500  G1Z-1.70f50
N01510  G00 Z1.00 F400
N01520  G00 X26.306 Y16.967
N01530  G1Z-1.70f50
N01540  G00 Z1.00 F400
N01550  G00 X28.846 Y16.972
N01560  G1Z-1.70f50
N01570  G00 Z1.00 F400
N01580  G00 X31.386 Y16.976
N01590  G1Z-1.70f50
N01600  G00 Z1.00 F400
N01610  G00 X82.210 Y17.110
N01620  G1Z-1.70f50
N01630  G00 Z1.00 F400
N01640  G00 X87.000 Y18.000
N01650  G1Z-1.70f50
N01660  G00 Z1.00 F400
N01670  G00 X2.730 Y18.080
N01680  G1Z-1.70f50
N01690  G00 Z1.00 F400
N01700  G00 X5.270 Y18.080
N01710  G1Z-1.70f50
N01720  G00 Z1.00 F400
N01730  G00 X94.730 Y18.080
N01740  G1Z-1.70f50
N01750  G00 Z1.00 F400
N01760  G00 X97.270 Y18.080
N01770  G1Z-1.70f50
N01780  G00 Z1.00 F400
N01790  G00 X67.234 Y18.605
N01800  G1Z-1.70f50
N01810  G00 Z1.00 F400
N01820  G00 X64.694 Y18.605
N01830  G1Z-1.70f50
N01840  G00 Z1.00 F400
N01850  G00 X50.729 Y18.728
N01860  G1Z-1.70f50
N01870  G00 Z1.00 F400
N01880  G00 X53.269 Y18.728
N01890  G1Z-1.70f50
N01900  G00 Z1.00 F400
N01910  G00 X10.817 Y18.978
N01920  G1Z-1.70f50
N01930  G00 Z1.00 F400
N01940  G00 X13.357 Y18.982
N01950  G1Z-1.70f50
N01960  G00 Z1.00 F400
N01970  G00 X40.085 Y19.987
N01980  G1Z-1.70f50
N01990  G00 Z1.00 F400
N02000  G00 X42.625 Y19.992
N02010  G1Z-1.70f50
N02020  G00 Z1.00 F400
N02030  G00 X67.309 Y21.036
N02040  G1Z-1.70f50
N02050  G00 Z1.00 F400
N02060  G00 X69.858 Y21.045
N02070  G1Z-1.70f50
N02080  G00 Z1.00 F400
N02090  G00 X64.729 Y21.055
N02100  G1Z-1.70f50
N02110  G00 Z1.00 F400
N02120  G00 X53.269 Y21.268
N02130  G1Z-1.70f50
N02140  G00 Z1.00 F400
N02150  G00 X50.729 Y21.268
N02160  G1Z-1.70f50
N02170  G00 Z1.00 F400
N02180  G00 X82.210 Y22.190
N02190  G1Z-1.70f50
N02200  G00 Z1.00 F400
N02210  G00 X45.695 Y22.328
N02220  G1Z-1.70f50
N02230  G00 Z1.00 F400
N02240  G00 X95.609 Y23.341
N02250  G1Z-1.70f50
N02260  G00 Z1.00 F400
N02270  G00 X98.148 Y23.341
N02280  G1Z-1.70f50
N02290  G00 Z1.00 F400
N02300  G00 X67.309 Y23.576
N02310  G1Z-1.70f50
N02320  G00 Z1.00 F400
N02330  G00 X69.858 Y23.585
N02340  G1Z-1.70f50
N02350  G00 Z1.00 F400
N02360  G00 X64.729 Y23.595
N02370  G1Z-1.70f50
N02380  G00 Z1.00 F400
N02390  G00 X38.348 Y23.867
N02400  G1Z-1.70f50
N02410  G00 Z1.00 F400
N02420  G00 X40.887 Y23.872
N02430  G1Z-1.70f50
N02440  G00 Z1.00 F400
N02450  G00 X45.690 Y24.868
N02460  G1Z-1.70f50
N02470  G00 Z1.00 F400
N02480  G00 X13.443 Y25.096
N02490  G1Z-1.70f50
N02500  G00 Z1.00 F400
N02510  G00 X18.523 Y25.105
N02520  G1Z-1.70f50
N02530  G00 Z1.00 F400
N02540  G00 X92.820 Y26.513
N02550  G1Z-1.70f50
N02560  G00 Z1.00 F400
N02570  G00 X90.280 Y26.513
N02580  G1Z-1.70f50
N02590  G00 Z1.00 F400
N02600  G00 X87.740 Y26.513
N02610  G1Z-1.70f50
N02620  G00 Z1.00 F400
N02630  G00 X72.309 Y26.974
N02640  G1Z-1.70f50
N02650  G00 Z1.00 F400
N02660  G00 X77.389 Y26.974
N02670  G1Z-1.70f50
N02680  G00 Z1.00 F400
N02690  G00 X79.922 Y26.983
N02700  G1Z-1.70f50
N02710  G00 Z1.00 F400
N02720  G00 X85.002 Y26.983
N02730  G1Z-1.70f50
N02740  G00 Z1.00 F400
N02750  G00 X64.678 Y26.993
N02760  G1Z-1.70f50
N02770  G00 Z1.00 F400
N02780  G00 X69.758 Y26.993
N02790  G1Z-1.70f50
N02800  G00 Z1.00 F400
N02810  G00 X98.270 Y27.000
N02820  G1Z-1.70f50
N02830  G00 Z1.00 F400
N02840  G00 X95.730 Y27.000
N02850  G1Z-1.70f50
N02860  G00 Z1.00 F400
N02870  G00 X2.300 Y27.033
N02880  G1Z-1.70f50
N02890  G00 Z1.00 F400
N02900  G00 X9.920 Y27.046
N02910  G1Z-1.70f50
N02920  G00 Z1.00 F400
N02930  G00 X15.978 Y27.640
N02940  G1Z-1.70f50
N02950  G00 Z1.00 F400
N02960  G00 X28.217 Y27.790
N02970  G1Z-1.70f50
N02980  G00 Z1.00 F400
N02990  G00 X30.757 Y27.794
N03000  G1Z-1.70f50
N03010  G00 Z1.00 F400
N03020  G00 X33.297 Y27.799
N03030  G1Z-1.70f50
N03040  G00 Z1.00 F400
N03050  G00 X37.680 Y27.839
N03060  G1Z-1.70f50
N03070  G00 Z1.00 F400
N03080  G00 X45.300 Y27.852
N03090  G1Z-1.70f50
N03100  G00 Z1.00 F400
N03110  G00 X22.487 Y27.890
N03120  G1Z-1.70f50
N03130  G00 Z1.00 F400
N03140  G00 X25.027 Y27.894
N03150  G1Z-1.70f50
N03160  G00 Z1.00 F400

(----------------------------------------------------------)
N03170  G00 Z2.00 F400
N03180  G00 X0 Y0 F400
N03190  M05 
