(This GCode generated with outlines_gcode_excel_mirrored.ulp program)
(running under Eagle CAD.)
(Use with mechanical etching/engraving bits, such as the)
(Think&Tinker Mechanical Etching Bit with 60-degree tip angle)
(X/Y/Z home should be at lower left corner of the board, with the tip just touching)
(C:/Users/Owner/Documents/eagle/nixieclock_power/untitledpattern_top_1mm.nc layer 1)

(mm, Absolute mode, lift cutter above work, rapid to X/Y home, turn spindle on.)
G90
G0Z0.500
G0X0Y0
M03

(Begin)
G0Z0.500
G0X51.590400Y25.744000
G1Z-0.100 f25
G1X51.375500Y26.260200 f200
G1X51.374600Y26.819100
G1X51.587600Y27.336000
G1X51.982000Y27.731800
G1X52.498300Y27.946700
G1X59.057000Y27.958100
G1X59.573900Y27.745100
G1X59.969700Y27.350700
G1X60.184600Y26.834500
G1X60.185500Y26.275600
G1X59.972500Y25.758700
G1X59.578100Y25.362900
G1X59.061800Y25.148000
G1X52.503100Y25.136600
G1X51.986300Y25.349600
G1X51.590400Y25.744000

G0Z0.500
G0X52.673200Y25.153000
G1Z-0.100 f25
G1X58.891800Y25.163900 f200
G1X59.107700Y25.198500
G1X59.315500Y25.266400
G1X59.510100Y25.366000
G1X59.686800Y25.494800
G1X59.841100Y25.649600
G1X59.969300Y25.826700
G1X60.068200Y26.021700
G1X60.135400Y26.229700
G1X60.169200Y26.445700
G1X60.168800Y26.664400
G1X60.134200Y26.880300
G1X60.066300Y27.088100
G1X59.966700Y27.282700
G1X59.837900Y27.459400
G1X59.683100Y27.613700
G1X59.506000Y27.741900
G1X59.311000Y27.840800
G1X59.103000Y27.908000
G1X58.887000Y27.941800
G1X52.668400Y27.930900
G1X52.452500Y27.896300
G1X52.244700Y27.828400
G1X52.050100Y27.728800
G1X51.873400Y27.600000
G1X51.719100Y27.445200
G1X51.590900Y27.268100
G1X51.492000Y27.073100
G1X51.424800Y26.865100
G1X51.391000Y26.649100
G1X51.391400Y26.430400
G1X51.426000Y26.214500
G1X51.493900Y26.006700
G1X51.593500Y25.812100
G1X51.722300Y25.635400
G1X51.877100Y25.481100
G1X52.054200Y25.352900
G1X52.249200Y25.254000
G1X52.457200Y25.186800
G1X52.673200Y25.153000

G0Z0.500
G0X81.683900Y15.839900
G1Z-0.100 f25
G1X80.939900Y16.583900 f200
G1X80.939900Y17.635900
G1X81.683900Y18.379900
G1X82.735900Y18.379900
G1X83.479900Y17.635900
G1X83.479900Y16.583800
G1X82.735900Y15.839900
G1X81.683900Y15.839900

G0Z0.500
G0X83.463900Y16.590600
G1Z-0.100 f25
G1X83.463900Y17.629300 f200
G1X82.729300Y18.363900
G1X81.690600Y18.363900
G1X80.956000Y17.629300
G1X80.956000Y16.590600
G1X81.690600Y15.856000
G1X82.729300Y15.856000
G1X83.463900Y16.590600

G0Z0.500
G0X38.813700Y20.510700
G1Z-0.100 f25
G1X39.556400Y21.256000 f200
G1X40.608400Y21.257800
G1X41.353700Y20.515100
G1X41.355500Y19.463100
G1X40.612800Y18.717800
G1X39.507600Y18.716000
G1X39.494900Y18.746600
G1X39.423600Y18.852900
G1X39.350500Y18.925700
G1X39.333000Y18.943200
G1X39.332900Y18.943200
G1X38.815500Y19.458800
G1X38.813700Y20.510700

G0Z0.500
G0X38.829800Y20.504100
G1Z-0.100 f25
G1X38.831700Y19.465500 f200
G1X39.567500Y18.732100
G1X40.606100Y18.734000
G1X41.339500Y19.469800
G1X41.337600Y20.508400
G1X40.601800Y21.241800
G1X39.563200Y21.239900
G1X38.829800Y20.504100

G0Z0.500
G0X39.733400Y14.017000
G1Z-0.100 f25
G1X39.733000Y14.016400 f200
G1X39.732600Y14.016000
G1X39.697800Y13.963600
G1X39.662300Y13.910500
G1X39.662100Y13.909900
G1X39.661700Y13.909400
G1X39.632900Y13.839400
G1X39.613300Y13.792300
G1X39.613200Y13.791800
G1X39.612900Y13.791100
G1X39.599800Y13.724100
G1X39.588300Y13.666700
G1X39.588300Y13.666000
G1X39.588200Y13.665500
G1X39.588300Y13.611500
G1X39.588300Y13.538600
G1X39.588500Y13.538000
G1X39.588600Y13.453000
G1X39.259500Y13.122800
G1X39.259400Y13.122700
G1X39.236700Y13.088600
G1X39.188500Y13.016300
G1X39.167900Y12.966000
G1X39.139700Y12.897800
G1X39.120200Y12.798400
G1X39.115000Y12.772300
G1X39.115200Y12.644200
G1X39.115200Y12.644100
G1X39.140400Y12.518500
G1X39.169000Y12.450100
G1X39.189600Y12.400500
G1X39.260900Y12.294200
G1X39.351600Y12.203800
G1X39.351800Y12.203800
G1X39.591400Y11.965000
G1X39.593200Y10.913000
G1X39.354600Y10.673600
G1X39.354300Y10.673500
G1X39.263900Y10.582800
G1X39.222000Y10.519600
G1X39.193000Y10.476300
G1X39.172400Y10.426000
G1X39.144200Y10.357800
G1X39.124700Y10.258400
G1X39.119500Y10.232300
G1X39.119700Y10.104200
G1X39.119700Y10.104100
G1X39.144900Y9.978600
G1X39.194100Y9.860400
G1X39.265400Y9.754100
G1X39.595800Y9.424900
G1X39.597600Y8.373000
G1X39.234600Y8.008900
G1X39.233700Y8.007400
G1X39.163600Y7.902400
G1X39.115500Y7.785400
G1X39.114900Y7.784000
G1X39.090100Y7.658400
G1X39.090300Y7.530300
G1X39.115500Y7.404800
G1X39.164700Y7.286600
G1X39.236000Y7.180300
G1X39.326700Y7.089900
G1X39.328200Y7.089000
G1X39.433200Y7.018900
G1X39.550200Y6.970800
G1X39.551600Y6.970200
G1X39.677200Y6.945400
G1X39.805300Y6.945600
G1X39.805300Y6.945700
G1X40.531900Y6.946900
G1X40.773600Y6.706000
G1X40.773700Y6.705800
G1X40.864400Y6.615400
G1X40.969600Y6.545500
G1X40.971000Y6.544500
G1X41.089300Y6.495700
G1X41.214900Y6.471000
G1X41.343100Y6.471200
G1X41.468600Y6.496400
G1X41.586800Y6.545600
G1X41.693100Y6.616900
G1X41.694900Y6.618800
G1X42.013900Y6.938900
G1X43.065800Y6.940700
G1X43.811100Y6.198100
G1X43.812800Y5.146000
G1X43.483800Y4.815900
G1X43.412800Y4.709400
G1X43.364100Y4.591000
G1X43.339300Y4.465400
G1X43.339500Y4.337300
G1X43.364700Y4.211800
G1X43.413900Y4.093600
G1X43.485200Y3.987300
G1X43.575900Y3.896900
G1X43.846300Y3.627400
G1X43.846500Y3.627100
G1X43.937200Y3.536700
G1X44.043800Y3.465800
G1X44.162200Y3.417000
G1X44.261600Y3.397500
G1X44.287700Y3.392300
G1X44.415800Y3.392500
G1X44.415900Y3.392500
G1X44.541400Y3.417700
G1X44.659600Y3.466900
G1X44.765900Y3.538200
G1X45.630800Y4.406300
G1X46.682700Y4.408100
G1X47.428000Y3.665400
G1X47.429800Y2.613400
G1X46.687100Y1.868100
G1X45.635200Y1.866300
G1X44.859000Y2.639700
G1X44.858900Y2.640000
G1X44.768200Y2.730400
G1X44.663000Y2.800300
G1X44.661600Y2.801300
G1X44.543300Y2.850100
G1X44.417700Y2.874800
G1X44.289600Y2.874600
G1X44.289500Y2.874600
G1X44.171100Y2.850800
G1X44.164000Y2.849400
G1X44.160600Y2.848000
G1X44.045800Y2.800200
G1X43.941700Y2.730300
G1X43.939500Y2.728900
G1X43.937600Y2.726900
G1X43.074600Y1.860800
G1X42.022700Y1.859000
G1X41.781000Y2.099900
G1X41.780900Y2.100100
G1X41.690200Y2.190500
G1X41.585000Y2.260400
G1X41.583600Y2.261400
G1X41.465300Y2.310200
G1X41.339700Y2.334900
G1X41.211500Y2.334700
G1X41.086000Y2.309500
G1X40.967800Y2.260300
G1X40.861500Y2.189000
G1X40.859700Y2.187100
G1X40.540700Y1.867000
G1X39.488800Y1.865200
G1X39.260400Y2.092800
G1X39.260300Y2.093100
G1X39.171500Y2.181400
G1X39.169600Y2.183400
G1X39.063000Y2.254400
G1X38.944700Y2.303200
G1X38.819100Y2.327900
G1X38.691000Y2.327700
G1X38.690900Y2.327700
G1X38.565400Y2.302500
G1X38.447200Y2.253300
G1X38.343100Y2.183400
G1X38.340900Y2.182000
G1X38.338800Y2.179800
G1X38.006400Y1.846200
G1X36.954400Y1.844400
G1X36.209100Y2.587100
G1X36.207300Y3.639100
G1X36.445800Y3.878400
G1X36.446100Y3.878500
G1X36.536500Y3.969200
G1X36.578400Y4.032400
G1X36.607400Y4.075700
G1X36.628000Y4.126000
G1X36.656200Y4.194200
G1X36.675700Y4.293600
G1X36.680900Y4.319700
G1X36.680700Y4.447800
G1X36.680700Y4.447900
G1X36.655500Y4.573400
G1X36.606300Y4.691600
G1X36.535000Y4.797900
G1X36.204600Y5.127000
G1X36.202800Y6.179000
G1X36.945400Y6.924200
G1X36.999400Y6.924300
G1X37.124900Y6.949500
G1X37.243100Y6.998700
G1X37.349400Y7.070000
G1X37.439800Y7.160700
G1X37.510700Y7.267300
G1X37.559500Y7.385700
G1X37.584200Y7.511300
G1X37.584000Y7.639400
G1X37.558800Y7.764900
G1X37.509600Y7.883100
G1X37.438300Y7.989400
G1X37.057600Y8.368700
G1X37.055900Y9.420600
G1X37.294400Y9.659900
G1X37.294700Y9.660100
G1X37.385100Y9.750800
G1X37.427100Y9.813900
G1X37.456000Y9.857300
G1X37.476600Y9.907600
G1X37.504800Y9.975800
G1X37.524300Y10.075200
G1X37.529500Y10.101300
G1X37.529300Y10.229400
G1X37.529300Y10.229500
G1X37.504100Y10.355000
G1X37.454900Y10.473200
G1X37.383600Y10.579500
G1X37.053200Y10.908700
G1X37.051400Y11.960600
G1X37.380600Y12.290800
G1X37.380700Y12.290900
G1X37.403400Y12.325000
G1X37.451600Y12.397300
G1X37.472200Y12.447600
G1X37.500400Y12.515800
G1X37.519900Y12.615200
G1X37.525100Y12.641300
G1X37.524900Y12.769400
G1X37.524900Y12.769500
G1X37.499700Y12.895100
G1X37.471100Y12.963500
G1X37.450500Y13.013100
G1X37.379200Y13.119400
G1X37.288500Y13.209800
G1X37.288400Y13.209900
G1X37.048700Y13.448600
G1X37.046900Y14.500600
G1X37.285500Y14.739900
G1X37.285800Y14.740100
G1X37.376200Y14.830800
G1X37.418100Y14.893900
G1X37.447100Y14.937300
G1X37.467700Y14.987600
G1X37.495900Y15.055800
G1X37.515400Y15.155200
G1X37.520600Y15.181300
G1X37.520400Y15.309400
G1X37.520400Y15.309500
G1X37.495200Y15.435000
G1X37.446000Y15.553200
G1X37.374700Y15.659500
G1X37.044300Y15.988700
G1X37.042500Y17.040600
G1X37.785200Y17.785900
G1X38.890400Y17.787700
G1X38.903100Y17.757100
G1X38.974400Y17.650800
G1X39.047500Y17.578000
G1X39.065000Y17.560500
G1X39.065100Y17.560500
G1X39.582500Y17.044900
G1X39.584300Y15.993000
G1X39.345700Y15.753700
G1X39.345400Y15.753500
G1X39.255000Y15.662800
G1X39.213100Y15.599600
G1X39.184100Y15.556300
G1X39.163500Y15.506000
G1X39.135300Y15.437800
G1X39.115800Y15.338400
G1X39.110600Y15.312300
G1X39.110800Y15.184200
G1X39.110800Y15.184100
G1X39.136000Y15.058600
G1X39.185200Y14.940400
G1X39.256500Y14.834100
G1X39.584800Y14.507000
G1X39.583900Y14.495000
G1X39.586900Y14.471500
G1X39.586900Y14.447800
G1X39.592100Y14.422100
G1X39.594000Y14.397700
G1X39.597900Y14.384000
G1X39.599900Y14.368000
G1X39.607500Y14.345300
G1X39.612100Y14.322300
G1X39.622400Y14.297700
G1X39.628900Y14.274500
G1X39.635300Y14.262200
G1X39.640400Y14.246600
G1X39.652100Y14.226300
G1X39.661200Y14.204100
G1X39.676500Y14.181300
G1X39.687100Y14.160500
G1X39.695600Y14.149900
G1X39.703800Y14.135300
G1X39.719200Y14.117600
G1X39.732500Y14.097700
G1X39.751900Y14.078400
G1X39.766400Y14.060000
G1X39.771900Y14.055400
G1X39.733400Y14.017000

G0Z0.500
G0X45.641800Y1.882400
G1Z-0.100 f25
G1X46.680400Y1.884300 f200
G1X47.413800Y2.620100
G1X47.411900Y3.658700
G1X46.676100Y4.392100
G1X45.637500Y4.390200
G1X44.904100Y3.654400
G1X44.906000Y2.615800
G1X45.641800Y1.882400

G0Z0.500
G0X37.990900Y6.910100
G1Z-0.100 f25
G1X36.952300Y6.908200 f200
G1X36.218900Y6.172400
G1X36.220800Y5.133800
G1X36.956600Y4.400400
G1X37.995200Y4.402300
G1X38.728600Y5.138100
G1X38.726700Y6.176700
G1X37.990900Y6.910100

G0Z0.500
G0X37.995400Y4.370200
G1Z-0.100 f25
G1X36.956800Y4.368300 f200
G1X36.223400Y3.632500
G1X36.225300Y2.593900
G1X36.961100Y1.860500
G1X37.999700Y1.862400
G1X38.733100Y2.598200
G1X38.731200Y3.636800
G1X37.995400Y4.370200

G0Z0.500
G0X40.525300Y6.930900
G1Z-0.100 f25
G1X39.486700Y6.929000 f200
G1X38.753300Y6.193200
G1X38.755200Y5.154600
G1X39.491000Y4.421200
G1X40.529600Y4.423100
G1X41.263000Y5.158900
G1X41.261100Y6.197500
G1X40.525300Y6.930900

G0Z0.500
G0X40.529800Y4.391000
G1Z-0.100 f25
G1X39.491200Y4.389100 f200
G1X38.757800Y3.653300
G1X38.759700Y2.614700
G1X39.495500Y1.881300
G1X40.534100Y1.883200
G1X41.267500Y2.619000
G1X41.265600Y3.657600
G1X40.529800Y4.391000

G0Z0.500
G0X42.029400Y1.875100
G1Z-0.100 f25
G1X43.068000Y1.877000 f200
G1X43.801400Y2.612800
G1X43.799500Y3.651400
G1X43.063700Y4.384800
G1X42.025100Y4.382900
G1X41.291700Y3.647100
G1X41.293600Y2.608500
G1X42.029400Y1.875100

G0Z0.500
G0X42.024900Y4.415000
G1Z-0.100 f25
G1X43.063500Y4.416900 f200
G1X43.796900Y5.152700
G1X43.795000Y6.191300
G1X43.059200Y6.924700
G1X42.020600Y6.922800
G1X41.287200Y6.187000
G1X41.289100Y5.148400
G1X42.024900Y4.415000

G0Z0.500
G0X37.071900Y9.414000
G1Z-0.100 f25
G1X37.073800Y8.375400 f200
G1X37.809600Y7.642000
G1X38.848200Y7.643900
G1X39.581600Y8.379700
G1X39.579700Y9.418300
G1X38.843900Y10.151700
G1X37.805300Y10.149800
G1X37.071900Y9.414000

G0Z0.500
G0X37.067500Y11.954000
G1Z-0.100 f25
G1X37.069400Y10.915400 f200
G1X37.805200Y10.182000
G1X38.843800Y10.183900
G1X39.577200Y10.919700
G1X39.575300Y11.958300
G1X38.839500Y12.691700
G1X37.800900Y12.689800
G1X37.067500Y11.954000

G0Z0.500
G0X37.063000Y14.494000
G1Z-0.100 f25
G1X37.064900Y13.455400 f200
G1X37.800700Y12.722000
G1X38.839300Y12.723900
G1X39.572700Y13.459700
G1X39.570800Y14.498300
G1X38.835000Y15.231700
G1X37.796400Y15.229800
G1X37.063000Y14.494000

G0Z0.500
G0X37.058600Y17.034000
G1Z-0.100 f25
G1X37.060500Y15.995400 f200
G1X37.796300Y15.262000
G1X38.834900Y15.263900
G1X39.568300Y15.999700
G1X39.566400Y17.038300
G1X38.830600Y17.771700
G1X37.792000Y17.769800
G1X37.058600Y17.034000

G0Z0.500
G0X32.766700Y6.090900
G1Z-0.100 f25
G1X32.021400Y6.833600 f200
G1X32.019600Y7.885600
G1X32.762300Y8.630900
G1X33.814300Y8.632700
G1X34.559600Y7.890000
G1X34.561400Y6.838100
G1X33.818700Y6.092700
G1X32.766700Y6.090900

G0Z0.500
G0X34.545400Y6.844700
G1Z-0.100 f25
G1X34.543500Y7.883300 f200
G1X33.807700Y8.616700
G1X32.769100Y8.614800
G1X32.035700Y7.879000
G1X32.037600Y6.840400
G1X32.773400Y6.107000
G1X33.812000Y6.108900
G1X34.545400Y6.844700

G0Z0.500
G0X46.949600Y21.810700
G1Z-0.100 f25
G1X46.947700Y22.849300 f200
G1X46.211900Y23.582700
G1X45.173300Y23.580800
G1X44.439900Y22.845000
G1X44.441800Y21.806400
G1X44.699300Y21.549800
G1X44.698900Y21.182200
G1X43.878900Y19.716100
G1X43.878900Y19.749000
G1X44.558600Y20.964400
G1X44.579800Y20.996100
G1X44.589300Y21.019200
G1X44.601800Y21.041500
G1X44.613800Y21.078700
G1X44.628600Y21.114400
G1X44.633400Y21.139200
G1X44.641300Y21.163300
G1X44.645800Y21.202200
G1X44.653300Y21.240000
G1X44.653200Y21.265400
G1X44.656200Y21.290400
G1X44.653100Y21.328900
G1X44.653100Y21.368200
G1X44.648000Y21.393200
G1X44.646100Y21.418200
G1X44.635500Y21.455400
G1X44.627900Y21.493700
G1X44.618100Y21.517000
G1X44.611300Y21.541400
G1X44.593600Y21.575900
G1X44.578700Y21.611900
G1X44.564500Y21.633000
G1X44.553100Y21.655400
G1X44.529200Y21.685600
G1X44.507400Y21.718200
G1X44.489400Y21.736100
G1X44.473800Y21.755900
G1X44.444200Y21.781100
G1X44.425600Y21.799600
G1X44.423800Y22.851600
G1X45.166500Y23.596900
G1X46.218400Y23.598700
G1X46.963800Y22.856000
G1X46.965500Y21.804100
G1X46.889000Y21.727300
G1X46.860600Y21.699000
G1X46.860200Y21.698400
G1X46.859200Y21.697400
G1X46.820500Y21.639200
G1X46.789300Y21.592700
G1X46.788900Y21.591600
G1X46.788300Y21.590800
G1X46.758000Y21.517400
G1X46.740200Y21.474500
G1X46.740100Y21.473900
G1X46.739500Y21.472500
G1X46.725800Y21.402800
G1X46.715000Y21.349000
G1X46.715000Y21.347800
G1X46.714800Y21.346800
G1X46.714900Y21.282900
G1X46.714800Y21.189500
G1X46.711700Y21.163500
G1X46.714700Y21.126100
G1X46.714600Y21.088100
G1X46.719700Y21.062300
G1X46.721800Y21.035800
G1X46.731100Y21.002900
G1X46.721900Y20.924200
G1X46.714400Y20.886900
G1X46.714400Y20.860900
G1X46.711300Y20.834900
G1X46.714300Y20.796900
G1X46.714200Y20.717900
G1X46.701200Y20.686700
G1X46.695900Y20.660300
G1X46.687800Y20.635300
G1X46.683900Y20.601500
G1X46.645200Y20.532400
G1X46.624000Y20.500800
G1X46.614000Y20.476600
G1X46.601300Y20.454000
G1X46.589600Y20.417700
G1X46.559300Y20.344800
G1X46.535300Y20.321000
G1X46.520600Y20.299000
G1X46.503200Y20.278700
G1X46.484900Y20.245900
G1X46.463900Y20.214700
G1X46.453700Y20.190100
G1X44.718000Y17.086800
G1X44.678600Y17.047300
G1X44.678700Y17.016500
G1X43.819400Y15.480100
G1X43.798100Y15.448100
G1X43.788600Y15.425000
G1X43.776100Y15.402700
G1X43.764000Y15.365200
G1X43.749300Y15.329700
G1X43.744500Y15.305200
G1X43.736600Y15.280900
G1X43.732000Y15.241800
G1X43.724600Y15.204100
G1X43.724700Y15.178800
G1X43.721700Y15.153800
G1X43.724800Y15.115300
G1X43.724800Y15.084100
G1X43.708200Y15.077300
G1X43.687300Y15.063200
G1X43.664600Y15.051700
G1X43.633900Y15.027400
G1X43.601900Y15.006000
G1X43.584300Y14.988300
G1X43.564100Y14.972400
G1X43.538500Y14.942300
G1X43.511500Y14.915300
G1X43.497800Y14.894500
G1X43.481000Y14.875000
G1X43.461800Y14.840500
G1X43.440600Y14.808800
G1X43.431200Y14.785800
G1X42.841000Y13.730600
G1X42.820000Y13.699300
G1X42.810400Y13.675900
G1X42.797500Y13.653000
G1X42.785700Y13.616200
G1X42.731900Y13.486300
G1X42.709800Y13.460400
G1X42.683100Y13.433800
G1X42.668400Y13.411800
G1X42.651400Y13.391800
G1X42.648900Y13.387300
G1X42.640800Y13.380900
G1X42.609100Y13.359700
G1X42.591200Y13.341800
G1X42.570800Y13.325700
G1X42.545700Y13.296200
G1X42.445800Y13.196300
G1X42.416300Y13.181200
G1X42.380800Y13.166600
G1X42.359200Y13.152100
G1X42.336000Y13.140300
G1X42.331600Y13.136800
G1X42.321900Y13.134000
G1X42.284500Y13.126600
G1X42.260900Y13.116800
G1X42.235700Y13.109700
G1X42.201400Y13.092200
G1X42.071100Y13.038200
G1X42.037700Y13.035600
G1X41.999300Y13.035600
G1X41.974100Y13.030500
G1X41.947900Y13.028500
G1X41.942600Y13.027000
G1X41.932800Y13.028100
G1X41.895300Y13.035600
G1X41.869200Y13.035600
G1X41.843700Y13.038600
G1X41.805700Y13.035600
G1X41.664000Y13.035600
G1X41.632700Y13.045700
G1X41.597200Y13.060500
G1X41.571700Y13.065500
G1X41.547000Y13.073600
G1X41.541300Y13.074200
G1X41.532300Y13.079300
G1X41.500600Y13.100500
G1X41.477200Y13.110200
G1X41.454500Y13.122900
G1X41.417500Y13.134800
G1X41.287500Y13.188700
G1X41.262000Y13.210400
G1X41.235100Y13.237400
G1X41.212800Y13.252300
G1X41.193100Y13.269100
G1X41.188600Y13.271600
G1X41.182200Y13.279700
G1X41.161000Y13.311400
G1X41.143100Y13.329300
G1X41.127000Y13.349700
G1X41.097500Y13.374800
G1X40.997600Y13.474600
G1X40.982500Y13.504200
G1X40.967900Y13.539700
G1X40.953400Y13.561300
G1X40.941600Y13.584500
G1X40.938000Y13.588900
G1X40.935400Y13.598400
G1X40.927900Y13.636100
G1X40.918000Y13.659900
G1X40.911000Y13.684800
G1X40.893500Y13.719000
G1X40.863100Y13.792400
G1X40.862900Y13.793500
G1X40.833200Y13.864400
G1X40.814200Y13.910500
G1X40.813800Y13.911000
G1X40.813600Y13.911600
G1X40.778000Y13.964600
G1X40.743100Y14.017000
G1X40.742700Y14.017400
G1X40.742300Y14.018000
G1X40.703100Y14.057000
G1X40.711000Y14.063800
G1X40.725600Y14.082700
G1X40.742200Y14.099300
G1X40.756200Y14.120400
G1X40.773000Y14.140000
G1X40.780200Y14.153000
G1X40.789500Y14.164900
G1X40.800100Y14.186300
G1X40.813200Y14.205800
G1X40.823000Y14.229700
G1X40.835400Y14.251800
G1X40.840000Y14.266100
G1X40.846800Y14.279600
G1X40.853000Y14.302600
G1X40.862000Y14.324200
G1X40.866800Y14.348700
G1X40.874900Y14.373500
G1X40.875500Y14.379200
G1X40.880600Y14.388200
G1X40.901800Y14.419900
G1X40.911400Y14.443300
G1X40.924200Y14.466000
G1X40.936100Y14.503000
G1X40.990000Y14.633200
G1X41.011600Y14.658400
G1X41.038700Y14.685400
G1X41.053200Y14.707200
G1X41.070100Y14.726900
G1X41.088500Y14.760000
G1X41.109900Y14.791800
G1X41.119900Y14.816000
G1X43.528200Y19.122000
G1X43.570200Y19.164200
G1X41.056900Y14.670500
G1X40.967700Y14.537100
G1X40.891700Y14.353700
G1X40.853000Y14.159000
G1X40.853000Y13.960300
G1X40.891700Y13.765600
G1X40.967700Y13.582200
G1X41.078000Y13.417100
G1X41.218400Y13.276700
G1X41.383500Y13.166400
G1X41.566900Y13.090400
G1X41.761600Y13.051700
G1X41.960300Y13.051700
G1X42.155000Y13.090400
G1X42.338400Y13.166400
G1X42.503500Y13.276700
G1X42.643900Y13.417100
G1X42.754200Y13.582200
G1X42.795800Y13.682800
G1X46.551800Y20.398200
G1X46.584200Y20.446500
G1X46.599600Y20.483800
G1X46.619400Y20.519000
G1X46.637300Y20.574400
G1X46.659800Y20.628400
G1X46.667700Y20.668300
G1X46.680100Y20.706300
G1X46.686900Y20.764100
G1X46.698400Y20.821500
G1X46.698400Y20.861700
G1X46.703200Y20.901900
G1X46.698500Y20.960500
G1X46.699100Y21.559500
G1X46.949600Y21.810700

G0Z0.500
G0X71.176100Y13.590600
G1Z-0.100 f25
G1X71.130700Y13.560200 f200
G1X71.083800Y13.530800
G1X71.077300Y13.524600
G1X71.069600Y13.519500
G1X71.029900Y13.479700
G1X70.990800Y13.442800
G1X70.985700Y13.435500
G1X70.979100Y13.429000
G1X70.949000Y13.383700
G1X70.916700Y13.338400
G1X70.912900Y13.329700
G1X70.908000Y13.322500
G1X70.887300Y13.272400
G1X70.864500Y13.221500
G1X70.862500Y13.212700
G1X70.859000Y13.204300
G1X70.848200Y13.149800
G1X70.825100Y13.048500
G1X70.478400Y12.613800
G1X69.977600Y12.372600
G1X69.421400Y12.372600
G1X68.920600Y12.613800
G1X68.873000Y12.673500
G1X69.772300Y12.673500
G1X69.965500Y12.711900
G1X70.147400Y12.787300
G1X70.311200Y12.896700
G1X70.450500Y13.036000
G1X70.559900Y13.199800
G1X70.635300Y13.381700
G1X70.673700Y13.574900
G1X70.673700Y13.772000
G1X70.635300Y13.965200
G1X70.559900Y14.147100
G1X70.450500Y14.310900
G1X70.311200Y14.450200
G1X70.147400Y14.559600
G1X69.965500Y14.635000
G1X69.772300Y14.673400
G1X69.140600Y14.673400
G1X69.421400Y14.808600
G1X69.977600Y14.808600
G1X70.478400Y14.567400
G1X70.825100Y14.132700
G1X70.848200Y14.031300
G1X70.859000Y13.976900
G1X70.862500Y13.968500
G1X70.864500Y13.959700
G1X70.887300Y13.908700
G1X70.908000Y13.858700
G1X70.912900Y13.851500
G1X70.916700Y13.842800
G1X70.949000Y13.797400
G1X70.979100Y13.752200
G1X70.985700Y13.745700
G1X70.990800Y13.738400
G1X71.029900Y13.701400
G1X71.069600Y13.661700
G1X71.077300Y13.656600
G1X71.083800Y13.650400
G1X71.130800Y13.620900
G1X71.176100Y13.590600

G0Z0.500
G0X71.176100Y13.590600
G1Z-0.100 f25
G1X71.176200Y13.590600 f200
G1X71.176100Y13.590600

G0Z0.500
G0X46.461600Y15.261000
G1Z-0.100 f25
G1X47.206900Y14.518300 f200
G1X47.208700Y13.466300
G1X46.879500Y13.136100
G1X46.879400Y13.136000
G1X46.856700Y13.101900
G1X46.808500Y13.029600
G1X46.787900Y12.979300
G1X46.759700Y12.911100
G1X46.740200Y12.811700
G1X46.735000Y12.785600
G1X46.735200Y12.657500
G1X46.735200Y12.657400
G1X46.760400Y12.531800
G1X46.789000Y12.463400
G1X46.809600Y12.413800
G1X46.880900Y12.307500
G1X46.971600Y12.217100
G1X46.971800Y12.217100
G1X47.211400Y11.978300
G1X47.213200Y10.926300
G1X46.974600Y10.687000
G1X46.974300Y10.686800
G1X46.883900Y10.596100
G1X46.842000Y10.532900
G1X46.813000Y10.489600
G1X46.792400Y10.439300
G1X46.764200Y10.371100
G1X46.744700Y10.271700
G1X46.739500Y10.245600
G1X46.739700Y10.117500
G1X46.739700Y10.117400
G1X46.764900Y9.991900
G1X46.814100Y9.873700
G1X46.885400Y9.767400
G1X47.215800Y9.438200
G1X47.217600Y8.386300
G1X46.474900Y7.641000
G1X45.422900Y7.639200
G1X44.677600Y8.381900
G1X44.675800Y9.433900
G1X44.914400Y9.673300
G1X44.914700Y9.673400
G1X45.005100Y9.764100
G1X45.047000Y9.827300
G1X45.076000Y9.870600
G1X45.096600Y9.920900
G1X45.124800Y9.989100
G1X45.144300Y10.088500
G1X45.149500Y10.114600
G1X45.149300Y10.242700
G1X45.149300Y10.242800
G1X45.124100Y10.368300
G1X45.074900Y10.486500
G1X45.003600Y10.592800
G1X44.673200Y10.922000
G1X44.671400Y11.973900
G1X45.000600Y12.304100
G1X45.000700Y12.304200
G1X45.023300Y12.338300
G1X45.071600Y12.410600
G1X45.092200Y12.460900
G1X45.120400Y12.529100
G1X45.139900Y12.628500
G1X45.145100Y12.654600
G1X45.144900Y12.782700
G1X45.144900Y12.782800
G1X45.119700Y12.908400
G1X45.091100Y12.976800
G1X45.070500Y13.026400
G1X44.999200Y13.132700
G1X44.908500Y13.223100
G1X44.908300Y13.223100
G1X44.668700Y13.461900
G1X44.667000Y14.464500
G1X44.670000Y14.489300
G1X44.666900Y14.527700
G1X44.666900Y14.558900
G1X44.683600Y14.565800
G1X44.704700Y14.580000
G1X44.727100Y14.591400
G1X44.757300Y14.615300
G1X44.789900Y14.637100
G1X44.807800Y14.655100
G1X44.827600Y14.670700
G1X44.852700Y14.700200
G1X45.409700Y15.259200
G1X46.461600Y15.261000

G0Z0.500
G0X44.683000Y14.507300
G1Z-0.100 f25
G1X44.684900Y13.468700 f200
G1X45.420700Y12.735300
G1X46.459300Y12.737200
G1X47.192700Y13.473000
G1X47.190800Y14.511600
G1X46.455000Y15.245000
G1X45.416400Y15.243100
G1X44.683000Y14.507300

G0Z0.500
G0X44.691900Y9.427300
G1Z-0.100 f25
G1X44.693800Y8.388700 f200
G1X45.429600Y7.655300
G1X46.468200Y7.657200
G1X47.201600Y8.393000
G1X47.199700Y9.431600
G1X46.463900Y10.165000
G1X45.425300Y10.163100
G1X44.691900Y9.427300

G0Z0.500
G0X44.687500Y11.967300
G1Z-0.100 f25
G1X44.689400Y10.928700 f200
G1X45.425200Y10.195300
G1X46.463800Y10.197200
G1X47.197200Y10.933000
G1X47.195300Y11.971600
G1X46.459500Y12.705000
G1X45.420900Y12.703100
G1X44.687500Y11.967300

G0Z0.500
G0X72.806600Y2.318600
G1Z-0.100 f25
G1X72.062600Y3.062600 f200
G1X72.062600Y4.114600
G1X72.806600Y4.858600
G1X73.858600Y4.858600
G1X74.602600Y4.114600
G1X74.602600Y3.062600
G1X73.858600Y2.318600
G1X72.806600Y2.318600

G0Z0.500
G0X74.586600Y3.069300
G1Z-0.100 f25
G1X74.586600Y4.108000 f200
G1X73.852000Y4.842600
G1X72.813300Y4.842600
G1X72.078700Y4.108000
G1X72.078700Y3.069300
G1X72.813300Y2.334700
G1X73.852000Y2.334700
G1X74.586600Y3.069300

G0Z0.500
G0X65.248700Y22.309200
G1Z-0.100 f25
G1X64.210000Y22.309200 f200
G1X63.475400Y21.574600
G1X63.475400Y20.535900
G1X64.164000Y19.847400
G1X63.440400Y19.123900
G1X63.440400Y18.085200
G1X64.175000Y17.350600
G1X65.213700Y17.350600
G1X65.948300Y18.085200
G1X65.948300Y19.123900
G1X65.259700Y19.812400
G1X65.830800Y20.383400
G1X66.187700Y20.383400
G1X66.713900Y19.857300
G1X65.980400Y19.123900
G1X65.980400Y18.085200
G1X66.555100Y17.510500
G1X66.533900Y16.640800
G1X63.065200Y16.652100
G1X63.064200Y16.652300
G1X62.998900Y16.652300
G1X62.937800Y16.652500
G1X62.936800Y16.652300
G1X62.935700Y16.652300
G1X62.868800Y16.638900
G1X62.811700Y16.627800
G1X62.810900Y16.627400
G1X62.809600Y16.627200
G1X62.745300Y16.600500
G1X62.692800Y16.579100
G1X62.692000Y16.578500
G1X62.690900Y16.578100
G1X62.634700Y16.540500
G1X62.585700Y16.508000
G1X62.585000Y16.507300
G1X62.584100Y16.506700
G1X62.539900Y16.462500
G1X62.494600Y16.417500
G1X62.494000Y16.416600
G1X62.493200Y16.415800
G1X62.459000Y16.364600
G1X62.422800Y16.310900
G1X62.422400Y16.309800
G1X62.421800Y16.309000
G1X62.398700Y16.253000
G1X62.373300Y16.192300
G1X62.373100Y16.191200
G1X62.372700Y16.190300
G1X62.361600Y16.134100
G1X62.347800Y16.066400
G1X62.347800Y16.065100
G1X62.347600Y16.064200
G1X62.347600Y16.001700
G1X62.347400Y15.937800
G1X62.347600Y15.936800
G1X62.347600Y10.278100
G1X62.344500Y10.242300
G1X62.347600Y10.214300
G1X62.347600Y10.186000
G1X62.354600Y10.150900
G1X62.358600Y10.114600
G1X62.367300Y10.087300
G1X62.372700Y10.059900
G1X62.386500Y10.026700
G1X62.397400Y9.992100
G1X62.410900Y9.967500
G1X62.421800Y9.941200
G1X62.442000Y9.911100
G1X62.459300Y9.879500
G1X62.477600Y9.857800
G1X62.493200Y9.834400
G1X62.518700Y9.809000
G1X62.542000Y9.781200
G1X62.564100Y9.763600
G1X62.584100Y9.743500
G1X62.614400Y9.723300
G1X62.642300Y9.700900
G1X62.667100Y9.688100
G1X62.690900Y9.672100
G1X62.724700Y9.658100
G1X65.905600Y8.006700
G1X65.905600Y7.607700
G1X65.839700Y7.541800
G1X65.746700Y7.402600
G1X65.682700Y7.247900
G1X65.650000Y7.083700
G1X65.650000Y6.916200
G1X65.650000Y4.416200
G1X65.682700Y4.252000
G1X65.746700Y4.097300
G1X65.839700Y3.958100
G1X65.958100Y3.839700
G1X66.012700Y3.785100
G1X66.012700Y3.022600
G1X66.747300Y2.288000
G1X67.786000Y2.288000
G1X68.520600Y3.022600
G1X68.520600Y4.061300
G1X67.786000Y4.795900
G1X67.406100Y4.795900
G1X67.349900Y4.852100
G1X67.349900Y6.647800
G1X67.538800Y6.836700
G1X67.678900Y6.836700
G1X68.413500Y7.571300
G1X68.413500Y8.610000
G1X67.678900Y9.344600
G1X66.640200Y9.344600
G1X66.476100Y9.180500
G1X63.652300Y10.646500
G1X63.652300Y15.345500
G1X67.161300Y15.334100
G1X67.218800Y15.332600
G1X67.225800Y15.333800
G1X67.232600Y15.333800
G1X67.286800Y15.344500
G1X67.345400Y15.354600
G1X67.352200Y15.357300
G1X67.358700Y15.358500
G1X67.411400Y15.380200
G1X67.465300Y15.400900
G1X67.470900Y15.404500
G1X67.477600Y15.407200
G1X67.526100Y15.439500
G1X67.573800Y15.469600
G1X67.578800Y15.474500
G1X67.584700Y15.478300
G1X67.624800Y15.518200
G1X67.666900Y15.558200
G1X67.671000Y15.564100
G1X67.675800Y15.568800
G1X67.708700Y15.617800
G1X67.740800Y15.663300
G1X67.743400Y15.669200
G1X67.747600Y15.675400
G1X67.770600Y15.730600
G1X67.792900Y15.780800
G1X67.794400Y15.787600
G1X67.797100Y15.794000
G1X67.808800Y15.851800
G1X67.821000Y15.906200
G1X67.821100Y15.912800
G1X67.822600Y15.919900
G1X67.822800Y15.979400
G1X67.858800Y17.455800
G1X68.488300Y18.085200
G1X68.488300Y19.123900
G1X67.829100Y19.783000
G1X68.429600Y20.383400
G1X68.746100Y20.383400
G1X69.338300Y19.791100
G1X69.542800Y19.791100
G1X72.150000Y15.971500
G1X72.150000Y9.352100
G1X72.142500Y9.344600
G1X71.720200Y9.344600
G1X70.985600Y8.610000
G1X70.985600Y7.571300
G1X71.720200Y6.836700
G1X72.758900Y6.836700
G1X73.493500Y7.571300
G1X73.493500Y8.291400
G1X73.541800Y8.339700
G1X73.660200Y8.458100
G1X73.753200Y8.597300
G1X73.817200Y8.752000
G1X73.849900Y8.916200
G1X73.849900Y14.448000
G1X76.839700Y11.458100
G1X76.958100Y11.339700
G1X77.097300Y11.246700
G1X77.252000Y11.182700
G1X77.416200Y11.150000
G1X90.083700Y11.150000
G1X91.150000Y11.150000
G1X91.150000Y6.034900
G1X91.146000Y5.986100
G1X91.150000Y5.951300
G1X91.150000Y5.916200
G1X91.159500Y5.868500
G1X91.165100Y5.819800
G1X91.175900Y5.786300
G1X91.182700Y5.752000
G1X91.201400Y5.706900
G1X91.216300Y5.660400
G1X91.233100Y5.630200
G1X91.246700Y5.597300
G1X91.274400Y5.555800
G1X91.297600Y5.514100
G1X91.319800Y5.488000
G1X91.339700Y5.458100
G1X91.374700Y5.423100
G1X91.405800Y5.386400
G1X91.433000Y5.364800
G1X91.458100Y5.339700
G1X91.499200Y5.312300
G1X91.536900Y5.282300
G1X91.567900Y5.266400
G1X91.597300Y5.246700
G1X91.642300Y5.228100
G1X91.685800Y5.205700
G1X91.720200Y5.195900
G1X91.752000Y5.182700
G1X91.799100Y5.173400
G1X94.431900Y4.420800
G1X94.418900Y4.407800
G1X92.001200Y5.098800
G1X91.977000Y5.108900
G1X91.941000Y5.116000
G1X91.904500Y5.126500
G1X91.877300Y5.128700
G1X91.851400Y5.133900
G1X91.827800Y5.133900
G1X91.772900Y5.156600
G1X91.740300Y5.173400
G1X91.715000Y5.180600
G1X91.690000Y5.191000
G1X91.652800Y5.198400
G1X91.596300Y5.214500
G1X91.577500Y5.229500
G1X91.553500Y5.241800
G1X91.531400Y5.256600
G1X91.509400Y5.265600
G1X91.467800Y5.307400
G1X91.443500Y5.336100
G1X91.422500Y5.352600
G1X91.403800Y5.371500
G1X91.372700Y5.392200
G1X91.326600Y5.428800
G1X91.315200Y5.449400
G1X91.297500Y5.470200
G1X91.282400Y5.492900
G1X91.265500Y5.509600
G1X91.243200Y5.563600
G1X91.231700Y5.599500
G1X91.218500Y5.623100
G1X91.208400Y5.647700
G1X91.187800Y5.678500
G1X91.159300Y5.729700
G1X91.156700Y5.753300
G1X91.148300Y5.779400
G1X91.143000Y5.806000
G1X91.133900Y5.827900
G1X91.133900Y5.885600
G1X91.137000Y5.923800
G1X91.133900Y5.951100
G1X91.133900Y5.977300
G1X91.126800Y6.012900
G1X91.119900Y6.072300
G1X91.126500Y6.095200
G1X91.128700Y6.122400
G1X91.133900Y6.148300
G1X91.133900Y6.185200
G1X91.137000Y6.222900
G1X91.133900Y6.249900
G1X91.133900Y6.302900
G1X91.133900Y6.303000
G1X91.110300Y6.421400
G1X91.108900Y6.428500
G1X91.107500Y6.431900
G1X91.059900Y6.546800
G1X90.990200Y6.651100
G1X90.988800Y6.653200
G1X90.898300Y6.743700
G1X90.898200Y6.743800
G1X90.791800Y6.814900
G1X90.709100Y6.849000
G1X90.673600Y6.863800
G1X90.548000Y6.888800
G1X90.419900Y6.888800
G1X90.419800Y6.888800
G1X90.301400Y6.865200
G1X90.294300Y6.863800
G1X90.290900Y6.862400
G1X90.176000Y6.814800
G1X90.071700Y6.745100
G1X90.069600Y6.743700
G1X89.979100Y6.653200
G1X89.979100Y6.653100
G1X89.795900Y6.469900
G1X88.743900Y6.469900
G1X87.999900Y7.213900
G1X87.999900Y8.265900
G1X88.743900Y9.009900
G1X89.795900Y9.009900
G1X89.979100Y8.826700
G1X89.979100Y8.826600
G1X90.061700Y8.744100
G1X90.069600Y8.736100
G1X90.176000Y8.665000
G1X90.294300Y8.616000
G1X90.419800Y8.591000
G1X90.547900Y8.591000
G1X90.548000Y8.591000
G1X90.673600Y8.616000
G1X90.707100Y8.629900
G1X90.791800Y8.664900
G1X90.898200Y8.736000
G1X90.988800Y8.826600
G1X91.059900Y8.933000
G1X91.108900Y9.051300
G1X91.133900Y9.176800
G1X91.133900Y9.304900
G1X91.133900Y10.548000
G1X91.108900Y10.673600
G1X91.059900Y10.791800
G1X90.988800Y10.898300
G1X90.898300Y10.988800
G1X90.791800Y11.059900
G1X90.673600Y11.108900
G1X90.548000Y11.133900
G1X90.419900Y11.133900
G1X90.237400Y11.133900
G1X77.327500Y11.133900
G1X77.009300Y11.265700
G1X76.691600Y11.583400
G1X75.020700Y13.254500
G1X74.958200Y13.317000
G1X74.930200Y13.345000
G1X74.823800Y13.416100
G1X74.705500Y13.465100
G1X74.579900Y13.490100
G1X74.451800Y13.490100
G1X74.326200Y13.465100
G1X74.208000Y13.416100
G1X74.101500Y13.345000
G1X74.011000Y13.254500
G1X73.939900Y13.148100
G1X73.890900Y13.029800
G1X73.865900Y12.904200
G1X73.865900Y12.776100
G1X73.865900Y8.827500
G1X73.734100Y8.509300
G1X73.654600Y8.429900
G1X73.583500Y8.323400
G1X73.534500Y8.205200
G1X73.509500Y8.079600
G1X73.509500Y7.951500
G1X73.509500Y7.564600
G1X72.765500Y6.820600
G1X71.713500Y6.820600
G1X70.969500Y7.564600
G1X70.969500Y8.616600
G1X71.784400Y9.431600
G1X71.791800Y9.434600
G1X71.898300Y9.505700
G1X71.988800Y9.596200
G1X72.059900Y9.702700
G1X72.108900Y9.820900
G1X72.133900Y9.946500
G1X72.133900Y10.074600
G1X72.133900Y13.005800
G1X72.135400Y13.060700
G1X72.133900Y13.069400
G1X72.133900Y13.078700
G1X72.123000Y13.133300
G1X72.113900Y13.186900
G1X72.110700Y13.195200
G1X72.108900Y13.204300
G1X72.087800Y13.255100
G1X72.068200Y13.306500
G1X72.063300Y13.314200
G1X72.059900Y13.322500
G1X72.029500Y13.367900
G1X72.000100Y13.414800
G1X71.993900Y13.421300
G1X71.988800Y13.429000
G1X71.949000Y13.468700
G1X71.912100Y13.507800
G1X71.904800Y13.512900
G1X71.898300Y13.519500
G1X71.853000Y13.549600
G1X71.807700Y13.581900
G1X71.799000Y13.585700
G1X71.791800Y13.590600
G1X71.791700Y13.590600
G1X71.791800Y13.590600
G1X71.799000Y13.595500
G1X71.807700Y13.599300
G1X71.853100Y13.631600
G1X71.898300Y13.661700
G1X71.904800Y13.668300
G1X71.912100Y13.673400
G1X71.949100Y13.712500
G1X71.988800Y13.752200
G1X71.993900Y13.759900
G1X72.000100Y13.766400
G1X72.029600Y13.813400
G1X72.059900Y13.858700
G1X72.063300Y13.867000
G1X72.068200Y13.874700
G1X72.087800Y13.926200
G1X72.108900Y13.976900
G1X72.110700Y13.985900
G1X72.113900Y13.994300
G1X72.123000Y14.048000
G1X72.133900Y14.102500
G1X72.133900Y14.111700
G1X72.135400Y14.120500
G1X72.133900Y14.175400
G1X72.133900Y15.705000
G1X72.134500Y15.708100
G1X72.133900Y15.767100
G1X72.133900Y15.829800
G1X72.133200Y15.833100
G1X72.133200Y15.836200
G1X72.121300Y15.893100
G1X72.108900Y15.955400
G1X72.107600Y15.958400
G1X72.107000Y15.961500
G1X72.082100Y16.019900
G1X72.059900Y16.073600
G1X72.058300Y16.075900
G1X72.056900Y16.079300
G1X72.020100Y16.133100
G1X71.988800Y16.180100
G1X71.986600Y16.182300
G1X69.726500Y19.493500
G1X69.695900Y19.539400
G1X69.693700Y19.541500
G1X69.691800Y19.544400
G1X69.646000Y19.589200
G1X69.605400Y19.629900
G1X69.602800Y19.631600
G1X69.600400Y19.634000
G1X69.548200Y19.668100
G1X69.498900Y19.701000
G1X69.495800Y19.702200
G1X69.493200Y19.704000
G1X69.435200Y19.727400
G1X69.380700Y19.750000
G1X69.377700Y19.750600
G1X69.374500Y19.751900
G1X69.311800Y19.763700
G1X69.255100Y19.775000
G1X69.251800Y19.775000
G1X69.248700Y19.775600
G1X69.189500Y19.775000
G1X69.090200Y19.775000
G1X68.964600Y19.750000
G1X68.846400Y19.701000
G1X68.739900Y19.629900
G1X68.649400Y19.539400
G1X68.578300Y19.432900
G1X68.529300Y19.314700
G1X68.504300Y19.189100
G1X68.504300Y19.061000
G1X68.504300Y18.078400
G1X68.065800Y17.640100
G1X68.023400Y17.599700
G1X68.018700Y17.592900
G1X68.013200Y17.587500
G1X67.983000Y17.542200
G1X67.949700Y17.495000
G1X67.946400Y17.487500
G1X67.942100Y17.481100
G1X67.920800Y17.429500
G1X67.897900Y17.377900
G1X67.896200Y17.370200
G1X67.893100Y17.362800
G1X67.881800Y17.306100
G1X67.869900Y17.253000
G1X67.869700Y17.245400
G1X67.868100Y17.237300
G1X67.868100Y17.179200
G1X67.840300Y16.039300
G1X67.838900Y16.032700
G1X67.838800Y15.976500
G1X67.837300Y15.918300
G1X67.838500Y15.911400
G1X67.838300Y15.843700
G1X67.811000Y15.782100
G1X67.806700Y15.775800
G1X67.783600Y15.720400
G1X67.761800Y15.671300
G1X67.760300Y15.664600
G1X67.733000Y15.599000
G1X67.683000Y15.551500
G1X67.677100Y15.547600
G1X67.636000Y15.506600
G1X67.595300Y15.468000
G1X67.591400Y15.462400
G1X67.541900Y15.413100
G1X67.474900Y15.387300
G1X67.468000Y15.386000
G1X67.415300Y15.364300
G1X67.362000Y15.343800
G1X67.356200Y15.340000
G1X67.294400Y15.314700
G1X67.223400Y15.316400
G1X67.216500Y15.317900
G1X67.159400Y15.318000
G1X67.102400Y15.319500
G1X67.095500Y15.318200
G1X64.383500Y15.327000
G1X64.382300Y15.327300
G1X64.306100Y15.327300
G1X64.256300Y15.327500
G1X64.255500Y15.327300
G1X64.254200Y15.327300
G1X64.175500Y15.311600
G1X64.130700Y15.302900
G1X64.130100Y15.302600
G1X64.128600Y15.302300
G1X64.060100Y15.273900
G1X64.012200Y15.254300
G1X64.011400Y15.253700
G1X64.010400Y15.253300
G1X63.955600Y15.216700
G1X63.905600Y15.183600
G1X63.905000Y15.182900
G1X63.903900Y15.182200
G1X63.851900Y15.130200
G1X63.814700Y15.093300
G1X63.814200Y15.092500
G1X63.813400Y15.091700
G1X63.775000Y15.034200
G1X63.743300Y14.987100
G1X63.743000Y14.986200
G1X63.742300Y14.985200
G1X63.714900Y14.919000
G1X63.693900Y14.869000
G1X63.693800Y14.868100
G1X63.693300Y14.867000
G1X63.679300Y14.796800
G1X63.668500Y14.743500
G1X63.668500Y14.742500
G1X63.668300Y14.741400
G1X63.668300Y14.667100
G1X63.668100Y14.615400
G1X63.668300Y14.614600
G1X63.668300Y11.079300
G1X63.665200Y11.043300
G1X63.668300Y11.015400
G1X63.668300Y10.987100
G1X63.675400Y10.951700
G1X63.679300Y10.916000
G1X63.687800Y10.889200
G1X63.693300Y10.861500
G1X63.707000Y10.828500
G1X63.717900Y10.794000
G1X63.731700Y10.769100
G1X63.742300Y10.743300
G1X63.762100Y10.713700
G1X63.779600Y10.681800
G1X63.797900Y10.660100
G1X63.813400Y10.636800
G1X63.838800Y10.611500
G1X63.862000Y10.583800
G1X63.884100Y10.566100
G1X63.903900Y10.546300
G1X63.933600Y10.526500
G1X63.961900Y10.503800
G1X63.987400Y10.490600
G1X64.010400Y10.475200
G1X64.043100Y10.461700
G1X66.020100Y9.435200
G1X66.044200Y9.419200
G1X66.076100Y9.406200
G1X66.107300Y9.389900
G1X66.135600Y9.381700
G1X66.162600Y9.370600
G1X66.196700Y9.364000
G1X66.230300Y9.354200
G1X66.259900Y9.351700
G1X66.288300Y9.346100
G1X66.323000Y9.346200
G1X66.357900Y9.343200
G1X66.386800Y9.346400
G1X66.416400Y9.346500
G1X66.451000Y9.353500
G1X66.485200Y9.357300
G1X66.495600Y9.360600
G1X67.685500Y9.360600
G1X68.429500Y8.616600
G1X68.429500Y7.564600
G1X67.601500Y6.736700
G1X67.529100Y6.664200
G1X67.511000Y6.646200
G1X67.439900Y6.539800
G1X67.390900Y6.421500
G1X67.365900Y6.295900
G1X67.365900Y6.167800
G1X67.365900Y5.397800
G1X67.390900Y5.272200
G1X67.439900Y5.154000
G1X67.511000Y5.047500
G1X67.601500Y4.957000
G1X67.708000Y4.885900
G1X67.726100Y4.878400
G1X68.536600Y4.067900
G1X68.536600Y3.015900
G1X67.792600Y2.271900
G1X66.740600Y2.271900
G1X65.996600Y3.015900
G1X65.996600Y3.573300
G1X65.971600Y3.698900
G1X65.922600Y3.817100
G1X65.851500Y3.923600
G1X65.765700Y4.009300
G1X65.633900Y4.327500
G1X65.633900Y6.762400
G1X65.633900Y7.172300
G1X65.721300Y7.383400
G1X65.738000Y7.415400
G1X65.745800Y7.442500
G1X65.756600Y7.468400
G1X65.763500Y7.503500
G1X65.773700Y7.538300
G1X65.776100Y7.566600
G1X65.781600Y7.594000
G1X65.781600Y7.630000
G1X65.784700Y7.666000
G1X65.781600Y7.693900
G1X65.781600Y7.722100
G1X65.774500Y7.757400
G1X65.770600Y7.793200
G1X65.762100Y7.820000
G1X65.756600Y7.847700
G1X65.742800Y7.880800
G1X65.732000Y7.915200
G1X65.718400Y7.939900
G1X65.707600Y7.966000
G1X65.687600Y7.995900
G1X65.670300Y8.027400
G1X65.652100Y8.049000
G1X65.636500Y8.072400
G1X65.611100Y8.097700
G1X65.587900Y8.125400
G1X65.565800Y8.143000
G1X65.546000Y8.162900
G1X65.516300Y8.182700
G1X65.488000Y8.205400
G1X65.462500Y8.218600
G1X65.439500Y8.234000
G1X65.406700Y8.247500
G1X62.774200Y9.614200
G1X62.750500Y9.630100
G1X62.716700Y9.644000
G1X62.685300Y9.660400
G1X62.658500Y9.668100
G1X62.614800Y9.686200
G1X62.596000Y9.698800
G1X62.578400Y9.712900
G1X62.548200Y9.748900
G1X62.532400Y9.772600
G1X62.506800Y9.798100
G1X62.484100Y9.825200
G1X62.462200Y9.842700
G1X62.428500Y9.876400
G1X62.415900Y9.895300
G1X62.404900Y9.915200
G1X62.390700Y9.960000
G1X62.385200Y9.988000
G1X62.371400Y10.021200
G1X62.360700Y10.055100
G1X62.347100Y10.079700
G1X62.328800Y10.123800
G1X62.324400Y10.145700
G1X62.321900Y10.168500
G1X62.326000Y10.215500
G1X62.331500Y10.243000
G1X62.331500Y10.278900
G1X62.334600Y10.314900
G1X62.331500Y10.342800
G1X62.331500Y15.677800
G1X62.331900Y15.679800
G1X62.331500Y15.743700
G1X62.331500Y15.804100
G1X62.331100Y15.806000
G1X62.331100Y15.807900
G1X62.330900Y15.808700
G1X62.331200Y15.923200
G1X62.331500Y15.924400
G1X62.331500Y16.000000
G1X62.331700Y16.050400
G1X62.331500Y16.051200
G1X62.331500Y16.134000
G1X62.357200Y16.195600
G1X62.357900Y16.196500
G1X62.383300Y16.258000
G1X62.406200Y16.312600
G1X62.406400Y16.313600
G1X62.433700Y16.379700
G1X62.476400Y16.422000
G1X62.477500Y16.422700
G1X62.523600Y16.468800
G1X62.566400Y16.511300
G1X62.567100Y16.512400
G1X62.622000Y16.567300
G1X62.672800Y16.588100
G1X62.673900Y16.588300
G1X62.730200Y16.611600
G1X62.790100Y16.636200
G1X62.791000Y16.636900
G1X62.867900Y16.668700
G1X62.922100Y16.668500
G1X62.923100Y16.668300
G1X62.986500Y16.668300
G1X63.049100Y16.668100
G1X63.050100Y16.668300
G1X63.191900Y16.668300
G1X63.192300Y16.668200
G1X63.198200Y16.668200
G1X63.202300Y16.667300
G1X63.251100Y16.667300
G1X63.299400Y16.665000
G1X63.311400Y16.666800
G1X63.320400Y16.666700
G1X63.323600Y16.667300
G1X63.330400Y16.667300
G1X63.378400Y16.676900
G1X63.426000Y16.684000
G1X63.439500Y16.688900
G1X63.446200Y16.690100
G1X63.447400Y16.690600
G1X63.456000Y16.692300
G1X63.500900Y16.710900
G1X63.546500Y16.727300
G1X63.559900Y16.735400
G1X63.574200Y16.741300
G1X63.614500Y16.768300
G1X63.656200Y16.793300
G1X63.667500Y16.803700
G1X63.680700Y16.812400
G1X63.715600Y16.847400
G1X63.750900Y16.879400
G1X63.760000Y16.891700
G1X63.771200Y16.902900
G1X63.798300Y16.943500
G1X63.827000Y16.982300
G1X63.833700Y16.996600
G1X63.842300Y17.009400
G1X63.860600Y17.053700
G1X63.881600Y17.098100
G1X63.885400Y17.113400
G1X63.891300Y17.127600
G1X63.900800Y17.175400
G1X63.912500Y17.222400
G1X63.913200Y17.237900
G1X63.916300Y17.253200
G1X63.916300Y17.302000
G1X63.918600Y17.350300
G1X63.916300Y17.365600
G1X63.916300Y17.381300
G1X63.906700Y17.429300
G1X63.899600Y17.476900
G1X63.894300Y17.491400
G1X63.891300Y17.506900
G1X63.872700Y17.551800
G1X63.856300Y17.597400
G1X63.848200Y17.610800
G1X63.842300Y17.625100
G1X63.815300Y17.665400
G1X63.790300Y17.707100
G1X63.779900Y17.718400
G1X63.771200Y17.731600
G1X63.736200Y17.766500
G1X63.704200Y17.801800
G1X63.691900Y17.810900
G1X63.424300Y18.078500
G1X63.424300Y19.130500
G1X63.636300Y19.342500
G1X63.636400Y19.342500
G1X63.718400Y19.424600
G1X63.726900Y19.433000
G1X63.727000Y19.433100
G1X63.798100Y19.539500
G1X63.826100Y19.607400
G1X63.847000Y19.657700
G1X63.872000Y19.783200
G1X63.872000Y19.911300
G1X63.872000Y19.911500
G1X63.847000Y20.037000
G1X63.827300Y20.084400
G1X63.798100Y20.155200
G1X63.727000Y20.261600
G1X63.636400Y20.352200
G1X63.636300Y20.352200
G1X63.459300Y20.529200
G1X63.459300Y21.581200
G1X63.698400Y21.820300
G1X63.698500Y21.820300
G1X63.780100Y21.902000
G1X63.789000Y21.910800
G1X63.860100Y22.017200
G1X63.909100Y22.135500
G1X63.934100Y22.261000
G1X63.934100Y22.389100
G1X63.934100Y22.389200
G1X63.909100Y22.514800
G1X63.895100Y22.548300
G1X63.860200Y22.633000
G1X63.789100Y22.739400
G1X63.698500Y22.830000
G1X63.459300Y23.069200
G1X63.459300Y24.121200
G1X64.101200Y24.763100
G1X64.101300Y24.763100
G1X64.176600Y24.838500
G1X64.191800Y24.853600
G1X64.194600Y24.857900
G1X64.263000Y24.960100
G1X64.291000Y25.028000
G1X64.311900Y25.078300
G1X64.336900Y25.203900
G1X64.336900Y25.332000
G1X64.335400Y25.339100
G1X64.311900Y25.457600
G1X64.292200Y25.505000
G1X64.263000Y25.575800
G1X64.191800Y25.682300
G1X64.101300Y25.772800
G1X64.101200Y25.772800
G1X63.407400Y26.466600
G1X63.407400Y27.518600
G1X63.562400Y27.673600
G1X63.585200Y27.673600
G1X63.423500Y27.512000
G1X63.423500Y26.473300
G1X64.158100Y25.738700
G1X65.196800Y25.738700
G1X65.931400Y26.473300
G1X65.931400Y27.512000
G1X65.769700Y27.673600
G1X65.792400Y27.673600
G1X65.947400Y27.518600
G1X65.947400Y26.466600
G1X65.305500Y25.824700
G1X65.305400Y25.824700
G1X65.230100Y25.749300
G1X65.214900Y25.734200
G1X65.143800Y25.627800
G1X65.094800Y25.509500
G1X65.069800Y25.383900
G1X65.069800Y25.255800
G1X65.071200Y25.248700
G1X65.094800Y25.130200
G1X65.108800Y25.096700
G1X65.143700Y25.012000
G1X65.214900Y24.905500
G1X65.305400Y24.815000
G1X65.614300Y24.506100
G1X65.720800Y24.435000
G1X65.839000Y24.386000
G1X65.964600Y24.361000
G1X66.092700Y24.361000
G1X66.218300Y24.386000
G1X66.336500Y24.435000
G1X66.443000Y24.506100
G1X66.533500Y24.596600
G1X66.782600Y24.845700
G1X67.834600Y24.845700
G1X68.073600Y24.606700
G1X68.073600Y24.606600
G1X68.155300Y24.525000
G1X68.164100Y24.516100
G1X68.164200Y24.516000
G1X68.270600Y24.444900
G1X68.338500Y24.416900
G1X68.388800Y24.396000
G1X68.514300Y24.371000
G1X68.642400Y24.371000
G1X68.642600Y24.371000
G1X68.768100Y24.396000
G1X68.815500Y24.415700
G1X68.886300Y24.444900
G1X68.992700Y24.516000
G1X69.083300Y24.606600
G1X69.083300Y24.606700
G1X69.331600Y24.855000
G1X70.383600Y24.855000
G1X71.127600Y24.111000
G1X71.127600Y23.059000
G1X70.797900Y22.729300
G1X70.797800Y22.729200
G1X70.726700Y22.622800
G1X70.692600Y22.540100
G1X70.677800Y22.504600
G1X70.652800Y22.379000
G1X70.652800Y22.250900
G1X70.652800Y22.250800
G1X70.676400Y22.132500
G1X70.677800Y22.125300
G1X70.679300Y22.121900
G1X70.726800Y22.007000
G1X70.796500Y21.902800
G1X70.797900Y21.900600
G1X70.888400Y21.810100
G1X70.888500Y21.810100
G1X71.127600Y21.571000
G1X71.127600Y21.306600
G1X71.127000Y21.303500
G1X71.127600Y21.244500
G1X71.127600Y21.181800
G1X71.128300Y21.178500
G1X71.128300Y21.175400
G1X71.140200Y21.118500
G1X71.152600Y21.056200
G1X71.153900Y21.053200
G1X71.154500Y21.050100
G1X71.179400Y20.991700
G1X71.201600Y20.938000
G1X71.203200Y20.935700
G1X71.204600Y20.932300
G1X71.241300Y20.878500
G1X71.272700Y20.831500
G1X71.274900Y20.829300
G1X73.952600Y16.906300
G1X73.960000Y16.869000
G1X73.961200Y16.866300
G1X73.961800Y16.863100
G1X73.986500Y16.805000
G1X74.009000Y16.750700
G1X74.010700Y16.748300
G1X74.011900Y16.745300
G1X74.048500Y16.691700
G1X74.080100Y16.644300
G1X74.082100Y16.642400
G1X74.084000Y16.639500
G1X74.129900Y16.594600
G1X77.713500Y13.011000
G1X77.820000Y12.939900
G1X77.938200Y12.890900
G1X78.063800Y12.865900
G1X78.191900Y12.865900
G1X88.548000Y12.865900
G1X88.673600Y12.890900
G1X88.791800Y12.939900
G1X88.898300Y13.011000
G1X88.988800Y13.101500
G1X89.059900Y13.208000
G1X89.108900Y13.326200
G1X89.133900Y13.451800
G1X89.133900Y13.579900
G1X89.133900Y19.923300
G1X89.135600Y19.933500
G1X89.133900Y19.986800
G1X89.133900Y20.040900
G1X89.131800Y20.051200
G1X89.127700Y20.181200
G1X89.133900Y20.212300
G1X89.133900Y20.222600
G1X89.135600Y20.232800
G1X89.133900Y20.287300
G1X89.133900Y20.365500
G1X89.133900Y20.436000
G1X89.108900Y20.561600
G1X89.059900Y20.679800
G1X88.988800Y20.786300
G1X88.898300Y20.876800
G1X87.005600Y22.769400
G1X86.873800Y23.087600
G1X86.873800Y23.625600
G1X86.873800Y25.377900
G1X86.848800Y25.503500
G1X86.799800Y25.621700
G1X86.728700Y25.728200
G1X86.638200Y25.818700
G1X86.469800Y25.987100
G1X86.469800Y27.039100
G1X87.213800Y27.783100
G1X88.265800Y27.783100
G1X88.595500Y27.453400
G1X88.595600Y27.453300
G1X88.702000Y27.382200
G1X88.784700Y27.348100
G1X88.820200Y27.333300
G1X88.945800Y27.308300
G1X89.073900Y27.308300
G1X89.074000Y27.308300
G1X89.192300Y27.331900
G1X89.199500Y27.333300
G1X89.202900Y27.334800
G1X89.317800Y27.382300
G1X89.422000Y27.452000
G1X89.424200Y27.453400
G1X89.514700Y27.543900
G1X89.514700Y27.544000
G1X89.753800Y27.783100
G1X90.805800Y27.783100
G1X91.549800Y27.039100
G1X91.549800Y25.987100
G1X90.805800Y25.243100
G1X89.753800Y25.243100
G1X89.675100Y25.321800
G1X89.670200Y25.326800
G1X89.670100Y25.326800
G1X89.670100Y25.326900
G1X89.649800Y25.340400
G1X89.563800Y25.398000
G1X89.445500Y25.447000
G1X89.320000Y25.472000
G1X89.191800Y25.472000
G1X89.191700Y25.472000
G1X89.162400Y25.466100
G1X89.066300Y25.447100
G1X88.948000Y25.398100
G1X88.841500Y25.327000
G1X88.751000Y25.236500
G1X88.751000Y25.236400
G1X88.750900Y25.236400
G1X88.737400Y25.216100
G1X88.679800Y25.130100
G1X88.630800Y25.011800
G1X88.605800Y24.886300
G1X88.605800Y24.758100
G1X88.605800Y23.823900
G1X88.630800Y23.698300
G1X88.679800Y23.580100
G1X88.750900Y23.473600
G1X88.841400Y23.383100
G1X88.841500Y23.383100
G1X89.585600Y22.638900
G1X89.692100Y22.567800
G1X89.810300Y22.518800
G1X89.935900Y22.493800
G1X90.064000Y22.493800
G1X90.189600Y22.518800
G1X90.193000Y22.520300
G1X90.307900Y22.567800
G1X90.412100Y22.637500
G1X90.414300Y22.638900
G1X90.504800Y22.729400
G1X90.504800Y22.729500
G1X93.034500Y25.259200
G1X93.057200Y25.259200
G1X90.000000Y22.202000
G1X88.589800Y23.612200
G1X88.589800Y25.589800
G1X88.993800Y25.993800
G1X88.993800Y27.032500
G1X88.259200Y27.767100
G1X87.220500Y27.767100
G1X86.485900Y27.032500
G1X86.485900Y25.993800
G1X86.889900Y25.589800
G1X86.889900Y23.343800
G1X86.889900Y23.176300
G1X86.922600Y23.012100
G1X86.986600Y22.857400
G1X87.079600Y22.718200
G1X89.150000Y20.647800
G1X89.150000Y20.083700
G1X89.150000Y20.069800
G1X89.147800Y20.056600
G1X89.150000Y19.987200
G1X89.150000Y12.849900
G1X77.852100Y12.849900
G1X73.973800Y16.728200
G1X73.958500Y16.801100
G1X73.881400Y16.982400
G1X71.111600Y21.040200
G1X71.111600Y21.564400
G1X70.377000Y22.299000
G1X69.338300Y22.299000
G1X68.727500Y21.688100
G1X68.429600Y21.688100
G1X67.828000Y22.289700
G1X66.789300Y22.289700
G1X66.187700Y21.688100
G1X65.869800Y21.688100
G1X65.248700Y22.309200

G0Z0.500
G0X71.111600Y23.065700
G1Z-0.100 f25
G1X71.111600Y24.104400 f200
G1X70.377000Y24.839000
G1X69.338300Y24.839000
G1X68.603700Y24.104400
G1X68.603700Y23.065700
G1X69.338300Y22.331100
G1X70.377000Y22.331100
G1X71.111600Y23.065700

G0Z0.500
G0X68.562600Y23.056400
G1Z-0.100 f25
G1X68.562600Y24.095100 f200
G1X67.828000Y24.829700
G1X66.789300Y24.829700
G1X66.054700Y24.095100
G1X66.054700Y23.056400
G1X66.789300Y22.321800
G1X67.828000Y22.321800
G1X68.562600Y23.056400

G0Z0.500
G0X65.983300Y23.075900
G1Z-0.100 f25
G1X65.983300Y24.114600 f200
G1X65.248700Y24.849200
G1X64.210000Y24.849200
G1X63.475400Y24.114600
G1X63.475400Y23.075900
G1X64.210000Y22.341300
G1X65.248700Y22.341300
G1X65.983300Y23.075900

G0Z0.500
G0X91.533800Y25.993800
G1Z-0.100 f25
G1X91.533800Y27.032500 f200
G1X90.799200Y27.767100
G1X89.760500Y27.767100
G1X89.025900Y27.032500
G1X89.025900Y25.993800
G1X89.760500Y25.259200
G1X90.799200Y25.259200
G1X91.533800Y25.993800

G0Z0.500
G0X90.523900Y7.220600
G1Z-0.100 f25
G1X90.523900Y8.259300 f200
G1X89.789300Y8.993900
G1X88.750600Y8.993900
G1X88.016000Y8.259300
G1X88.016000Y7.220600
G1X88.750600Y6.486000
G1X89.789300Y6.486000
G1X90.523900Y7.220600

G0Z0.500
G0X97.637700Y24.594700
G1Z-0.100 f25
G1X97.652300Y24.668000 f200
G1X97.652300Y24.742600
G1X97.654100Y24.746900
G1X97.679100Y24.872400
G1X97.679100Y25.000600
G1X97.679100Y25.589600
G1X97.654100Y25.715200
G1X97.652300Y25.719500
G1X97.652300Y25.844400
G1X97.695200Y25.801400
G1X97.695200Y24.594700
G1X97.637700Y24.594700

G0Z0.500
G0X50.202500Y22.537600
G1Z-0.100 f25
G1X51.254500Y22.537600 f200
G1X51.998500Y21.793600
G1X51.998500Y20.583500
G1X52.023500Y20.457900
G1X52.072500Y20.339700
G1X52.143600Y20.233200
G1X52.234100Y20.142700
G1X52.340600Y20.071600
G1X52.458800Y20.022600
G1X52.584400Y19.997600
G1X52.712500Y19.997600
G1X53.794500Y19.997600
G1X54.538500Y19.253600
G1X54.538500Y18.201500
G1X53.794600Y17.457600
G1X52.742500Y17.457600
G1X52.412800Y17.787300
G1X52.412700Y17.787400
G1X52.306300Y17.858500
G1X52.223600Y17.892600
G1X52.188100Y17.907400
G1X52.062500Y17.932400
G1X51.934400Y17.932400
G1X51.934300Y17.932400
G1X51.815900Y17.908800
G1X51.808800Y17.907400
G1X51.805400Y17.906000
G1X51.690500Y17.858400
G1X51.586200Y17.788700
G1X51.584100Y17.787300
G1X51.493600Y17.696800
G1X51.493600Y17.696700
G1X51.254500Y17.457600
G1X50.202500Y17.457600
G1X49.458500Y18.201600
G1X49.458500Y19.253600
G1X49.697600Y19.492700
G1X49.697700Y19.492700
G1X49.779300Y19.574400
G1X49.788200Y19.583200
G1X49.859300Y19.689600
G1X49.908300Y19.807900
G1X49.933300Y19.933400
G1X49.933300Y20.061500
G1X49.933300Y20.061600
G1X49.908300Y20.187200
G1X49.894300Y20.220700
G1X49.859400Y20.305400
G1X49.788300Y20.411800
G1X49.697700Y20.502400
G1X49.458500Y20.741600
G1X49.458500Y21.793600
G1X50.202500Y22.537600

G0Z0.500
G0X51.982500Y20.748300
G1Z-0.100 f25
G1X51.982500Y21.787000 f200
G1X51.247900Y22.521600
G1X50.209200Y22.521600
G1X49.474600Y21.787000
G1X49.474600Y20.748300
G1X50.209200Y20.013700
G1X51.247900Y20.013700
G1X51.982500Y20.748300

G0Z0.500
G0X54.522500Y18.208300
G1Z-0.100 f25
G1X54.522500Y19.247000 f200
G1X53.787900Y19.981600
G1X52.749200Y19.981600
G1X52.014600Y19.247000
G1X52.014600Y18.208300
G1X52.749200Y17.473700
G1X53.787900Y17.473700
G1X54.522500Y18.208300

G0Z0.500
G0X51.982500Y18.208300
G1Z-0.100 f25
G1X51.982500Y19.247000 f200
G1X51.247900Y19.981600
G1X50.209200Y19.981600
G1X49.474600Y19.247000
G1X49.474600Y18.208300
G1X50.209200Y17.473700
G1X51.247900Y17.473700
G1X51.982500Y18.208300

G0Z0.500
G0X13.378500Y5.100800
G1Z-0.100 f25
G1X14.121200Y5.846100 f200
G1X15.173200Y5.847900
G1X15.918500Y5.105200
G1X15.920300Y4.053200
G1X15.177600Y3.307900
G1X14.125700Y3.306100
G1X13.380300Y4.048800
G1X13.378500Y5.100800

G0Z0.500
G0X14.132300Y3.322200
G1Z-0.100 f25
G1X15.170900Y3.324100 f200
G1X15.904300Y4.059900
G1X15.902400Y5.098500
G1X15.166600Y5.831900
G1X14.128000Y5.830000
G1X13.394600Y5.094200
G1X13.396500Y4.055600
G1X14.132300Y3.322200

G0Z0.500
G0X51.628800Y3.744000
G1Z-0.100 f25
G1X51.413900Y4.260200 f200
G1X51.413000Y4.819100
G1X51.626000Y5.336000
G1X52.020400Y5.731800
G1X52.536700Y5.946700
G1X59.095400Y5.958100
G1X59.612300Y5.745100
G1X60.008100Y5.350700
G1X60.223000Y4.834500
G1X60.223900Y4.275700
G1X60.010900Y3.758800
G1X59.616500Y3.363000
G1X59.100200Y3.148000
G1X52.541400Y3.136600
G1X52.024600Y3.349600
G1X51.628800Y3.744000

G0Z0.500
G0X52.711600Y3.153000
G1Z-0.100 f25
G1X58.930200Y3.163900 f200
G1X59.146100Y3.198500
G1X59.353900Y3.266400
G1X59.548500Y3.366000
G1X59.725200Y3.494800
G1X59.879500Y3.649600
G1X60.007700Y3.826700
G1X60.106600Y4.021700
G1X60.173800Y4.229700
G1X60.207600Y4.445700
G1X60.207200Y4.664400
G1X60.172600Y4.880300
G1X60.104700Y5.088100
G1X60.005100Y5.282700
G1X59.876300Y5.459400
G1X59.721500Y5.613700
G1X59.544400Y5.741900
G1X59.349400Y5.840800
G1X59.141400Y5.908000
G1X58.925400Y5.941800
G1X52.706800Y5.930900
G1X52.490900Y5.896300
G1X52.283100Y5.828400
G1X52.088500Y5.728800
G1X51.911800Y5.600000
G1X51.757500Y5.445200
G1X51.629300Y5.268100
G1X51.530400Y5.073100
G1X51.463200Y4.865100
G1X51.429400Y4.649100
G1X51.429800Y4.430400
G1X51.464400Y4.214500
G1X51.532300Y4.006700
G1X51.631900Y3.812100
G1X51.760700Y3.635400
G1X51.915500Y3.481100
G1X52.092600Y3.352900
G1X52.287600Y3.254000
G1X52.495600Y3.186800
G1X52.711600Y3.153000

G0Z0.500
G0X94.073800Y26.298600
G1Z-0.100 f25
G1X94.314800Y26.539500 f200
G1X94.385900Y26.646000
G1X94.434900Y26.764200
G1X94.459900Y26.889800
G1X94.459900Y27.017900
G1X94.459900Y27.525900
G1X95.263900Y28.329800
G1X95.281700Y28.347600
G1X96.178100Y28.347600
G1X96.347600Y28.178100
G1X96.347600Y28.155500
G1X96.249300Y28.253900
G1X95.210600Y28.253900
G1X94.476000Y27.519300
G1X94.476000Y26.678100
G1X94.073800Y26.275800
G1X94.073800Y26.298600

G0Z0.500
G0X90.849900Y20.647800
G1Z-0.100 f25
G1X95.948100Y25.746000 f200
G1X96.249300Y25.746000
G1X96.347600Y25.844400
G1X96.347600Y25.821600
G1X96.255900Y25.729900
G1X96.159800Y25.729900
G1X96.034200Y25.704900
G1X95.916000Y25.655900
G1X95.809500Y25.584800
G1X95.719000Y25.494300
G1X95.719000Y25.494200
G1X91.584900Y21.360200
G1X91.576400Y21.354200
G1X91.539600Y21.314900
G1X91.501800Y21.277200
G1X91.496200Y21.268700
G1X91.488800Y21.260900
G1X91.459400Y21.213600
G1X91.430700Y21.170700
G1X91.426900Y21.161400
G1X91.421100Y21.152200
G1X91.401400Y21.099900
G1X91.381700Y21.052500
G1X91.379800Y21.042600
G1X91.375900Y21.032500
G1X91.367000Y20.978300
G1X91.356700Y20.926900
G1X91.356700Y20.916400
G1X91.355000Y20.906200
G1X91.356700Y20.853100
G1X91.356700Y20.798800
G1X91.358800Y20.788400
G1X91.359100Y20.778100
G1X91.371300Y20.725600
G1X91.381700Y20.673200
G1X91.385600Y20.663900
G1X91.388000Y20.653400
G1X91.410600Y20.603600
G1X91.430700Y20.555000
G1X91.436500Y20.546400
G1X91.440800Y20.536800
G1X91.471800Y20.493600
G1X91.501800Y20.448500
G1X91.509300Y20.441100
G1X91.515300Y20.432600
G1X91.554600Y20.395800
G1X91.592300Y20.358000
G1X91.600800Y20.352400
G1X91.608600Y20.345000
G1X91.655900Y20.315600
G1X91.698800Y20.286900
G1X91.708100Y20.283100
G1X91.717300Y20.277300
G1X91.769200Y20.257800
G1X91.817000Y20.237900
G1X91.827000Y20.236000
G1X92.699100Y19.906900
G1X92.739900Y19.888800
G1X92.756900Y19.885100
G1X92.774100Y19.878500
G1X92.820100Y19.870900
G1X92.822800Y19.870300
G1X92.919900Y19.827400
G1X92.935300Y19.817700
G1X92.977900Y19.801700
G1X93.020000Y19.783000
G1X93.038100Y19.779000
G1X93.136900Y19.741700
G1X93.140000Y19.739800
G1X93.177500Y19.713400
G1X93.193800Y19.706200
G1X93.209000Y19.696700
G1X93.252500Y19.680200
G1X93.822400Y19.428300
G1X93.828900Y19.423900
G1X93.881900Y19.401900
G1X93.932400Y19.379600
G1X93.939800Y19.378000
G1X93.947100Y19.374900
G1X94.003000Y19.363800
G1X94.057300Y19.351600
G1X94.065100Y19.351400
G1X94.072700Y19.349900
G1X94.129800Y19.349900
G1X94.185400Y19.348600
G1X94.192800Y19.349900
G1X94.771000Y19.349900
G1X94.896600Y19.374900
G1X95.014800Y19.423900
G1X95.121300Y19.495000
G1X95.211800Y19.585500
G1X95.282900Y19.692000
G1X95.331900Y19.810200
G1X95.356900Y19.935800
G1X95.356900Y20.063900
G1X95.356900Y20.306700
G1X95.356900Y20.627900
G1X95.454700Y20.864200
G1X96.733300Y22.142700
G1X96.804400Y22.249200
G1X96.853400Y22.367400
G1X96.878400Y22.493000
G1X96.878400Y22.621100
G1X96.878400Y23.688100
G1X96.894500Y23.704300
G1X96.894500Y22.821400
G1X97.164700Y22.551200
G1X95.513000Y20.899600
G1X95.444300Y20.796900
G1X95.397100Y20.682900
G1X95.373000Y20.561700
G1X95.373000Y20.438200
G1X95.373000Y19.210100
G1X95.249300Y19.333900
G1X94.210600Y19.333900
G1X94.144800Y19.268100
G1X93.048800Y19.752900
G1X93.028400Y19.765600
G1X92.971600Y19.787000
G1X92.917200Y19.811100
G1X92.894100Y19.816200
G1X90.849900Y20.587600
G1X90.849900Y20.647800

G0Z0.500
G0X-0.102200Y30.514600
G1Z-0.100 f25
G1X99.832800Y30.516600 f200
G1X99.833300Y30.516700
G1X100.103400Y30.516700
G1X100.293000Y30.438200
G1X100.438200Y30.293000
G1X100.516700Y30.103400
G1X100.516700Y29.833200
G1X100.516600Y29.832800
G1X100.516600Y29.704700
G1X100.516500Y-0.102300
G1X100.437900Y-0.292000
G1X100.292700Y-0.437200
G1X100.103100Y-0.515700
G1X99.704400Y-0.515700
G1X0.167800Y-0.515800
G1X0.167300Y-0.515900
G1X-0.102600Y-0.515900
G1X-0.292200Y-0.437400
G1X-0.462100Y-0.267500
G1X-0.495100Y-0.218000
G1X-0.585600Y-0.127500
G1X-0.692100Y-0.056300
G1X-0.776800Y-0.021300
G1X-0.810300Y-0.007400
G1X-0.928800Y0.016100
G1X-0.935900Y0.017500
G1X-1.064000Y0.017500
G1X-1.189600Y-0.007400
G1X-1.307900Y-0.056400
G1X-1.414300Y-0.127500
G1X-1.504800Y-0.218000
G1X-1.533600Y-0.261100
G1X-1.533600Y30.259300
G1X-1.529300Y30.253000
G1X-1.504800Y30.216200
G1X-1.414300Y30.125700
G1X-1.414200Y30.125600
G1X-1.307800Y30.054500
G1X-1.189500Y30.005500
G1X-1.090300Y29.985900
G1X-1.064000Y29.980600
G1X-0.935900Y29.980600
G1X-0.935800Y29.980600
G1X-0.810200Y30.005600
G1X-0.692000Y30.054600
G1X-0.622400Y30.101200
G1X-0.585600Y30.125700
G1X-0.495100Y30.216200
G1X-0.495000Y30.216300
G1X-0.461400Y30.266600
G1X-0.292200Y30.436000
G1X-0.102200Y30.514600

G0Z0.500
G0X98.210200Y11.315500
G1Z-0.100 f25
G1X98.210400Y11.315300 f200
G1X98.300900Y11.224800
G1X98.329800Y11.196000
G1X98.329800Y11.195900
G1X98.420300Y11.105400
G1X98.526800Y11.034300
G1X98.645000Y10.985300
G1X98.770600Y10.960300
G1X98.898700Y10.960300
G1X99.024300Y10.985300
G1X99.142500Y11.034300
G1X99.249000Y11.105400
G1X99.339500Y11.195900
G1X99.410600Y11.302400
G1X99.459600Y11.420600
G1X99.484600Y11.546200
G1X99.484600Y11.913600
G1X99.484600Y11.913900
G1X99.472300Y11.975200
G1X99.459600Y12.039200
G1X99.437800Y12.091500
G1X99.410500Y12.157700
G1X99.368200Y12.220800
G1X99.339500Y12.263900
G1X99.249000Y12.354400
G1X99.248800Y12.354600
G1X99.142300Y12.425700
G1X99.045300Y12.465700
G1X99.024300Y12.474500
G1X99.024100Y12.474500
G1X99.024000Y12.474600
G1X98.974800Y12.484300
G1X98.898700Y12.499500
G1X98.770600Y12.499500
G1X98.770300Y12.499500
G1X98.709000Y12.487200
G1X98.645000Y12.474500
G1X98.592700Y12.452700
G1X98.526500Y12.425400
G1X98.463400Y12.383100
G1X98.420300Y12.354400
G1X98.329800Y12.263900
G1X98.329800Y12.263700
G1X98.210000Y12.144000
G1X98.138900Y12.037500
G1X98.098000Y11.938500
G1X98.090100Y11.919500
G1X98.090100Y11.919300
G1X98.090000Y11.919200
G1X98.079700Y11.867100
G1X98.065100Y11.793900
G1X98.065100Y11.793600
G1X98.065100Y11.665500
G1X98.077900Y11.601900
G1X98.090100Y11.540200
G1X98.109000Y11.494700
G1X98.139200Y11.421700
G1X98.182600Y11.356900
G1X98.210200Y11.315500

G0Z0.500
G0X1.580000Y9.813800
G1Z-0.100 f25
G1X1.473500Y9.884900 f200
G1X1.377500Y9.924500
G1X1.355500Y9.933700
G1X1.355300Y9.933700
G1X1.355200Y9.933800
G1X1.307400Y9.943200
G1X1.229900Y9.958700
G1X1.101800Y9.958700
G1X1.101500Y9.958700
G1X1.041400Y9.946600
G1X0.976200Y9.933700
G1X0.920400Y9.910500
G1X0.857700Y9.884600
G1X0.795500Y9.842900
G1X0.751500Y9.813600
G1X0.661000Y9.723100
G1X0.660800Y9.722900
G1X0.589700Y9.616400
G1X0.550100Y9.520400
G1X0.540900Y9.498400
G1X0.540900Y9.498200
G1X0.540800Y9.498100
G1X0.531400Y9.450300
G1X0.515900Y9.372800
G1X0.515900Y9.007000
G1X0.540900Y8.881400
G1X0.589900Y8.763200
G1X0.661000Y8.656700
G1X0.751500Y8.566200
G1X0.858000Y8.495100
G1X0.976200Y8.446100
G1X1.101800Y8.421100
G1X1.229900Y8.421100
G1X1.355500Y8.446100
G1X1.473700Y8.495100
G1X1.580200Y8.566200
G1X1.670700Y8.656700
G1X1.789600Y8.775600
G1X1.789800Y8.775800
G1X1.860900Y8.882300
G1X1.900900Y8.979300
G1X1.909700Y9.000300
G1X1.909700Y9.000500
G1X1.909800Y9.000600
G1X1.919500Y9.049800
G1X1.934700Y9.125900
G1X1.934700Y9.254000
G1X1.934700Y9.254300
G1X1.922400Y9.315600
G1X1.909700Y9.379600
G1X1.888000Y9.431900
G1X1.860600Y9.498100
G1X1.818300Y9.561200
G1X1.789600Y9.604300
G1X1.699100Y9.694800
G1X1.698900Y9.694900
G1X1.586500Y9.807200
G1X1.580200Y9.813600
G1X1.580000Y9.813800

G0Z0.500
G0X1.711800Y11.237800
G1Z-0.100 f25
G1X1.782900Y11.344300 f200
G1X1.831900Y11.462500
G1X1.856900Y11.588100
G1X1.856900Y11.716200
G1X1.856900Y11.871700
G1X1.831900Y11.997300
G1X1.782900Y12.115500
G1X1.711800Y12.222000
G1X1.670700Y12.263100
G1X1.580200Y12.353600
G1X1.473700Y12.424700
G1X1.355500Y12.473700
G1X1.229900Y12.498700
G1X1.101800Y12.498700
G1X0.976200Y12.473700
G1X0.858000Y12.424700
G1X0.751500Y12.353600
G1X0.661000Y12.263100
G1X0.589900Y12.156600
G1X0.540900Y12.038400
G1X0.515900Y11.912800
G1X0.515900Y11.547000
G1X0.540900Y11.421400
G1X0.589900Y11.303200
G1X0.661000Y11.196700
G1X0.751500Y11.106200
G1X0.858000Y11.035100
G1X0.976200Y10.986100
G1X1.101800Y10.961100
G1X1.229900Y10.961100
G1X1.355500Y10.986100
G1X1.473700Y11.035100
G1X1.580200Y11.106200
G1X1.670700Y11.196700
G1X1.711800Y11.237800

G0Z0.500
G0X96.562900Y6.831000
G1Z-0.100 f25
G1X96.536200Y6.857600 f200
G1X96.512200Y6.886000
G1X96.491300Y6.902500
G1X96.414300Y6.979600
G1X96.307800Y7.050700
G1X96.189600Y7.099700
G1X96.064000Y7.124700
G1X95.935900Y7.124700
G1X95.810300Y7.099700
G1X95.692100Y7.050700
G1X95.585600Y6.979600
G1X95.526700Y6.920600
G1X95.498300Y6.896600
G1X95.481800Y6.875700
G1X95.462800Y6.856800
G1X95.442100Y6.825700
G1X95.418700Y6.796300
G1X95.406400Y6.772200
G1X95.391700Y6.750300
G1X95.377600Y6.716200
G1X95.360200Y6.682400
G1X95.352800Y6.656500
G1X95.342700Y6.632100
G1X95.335400Y6.595400
G1X95.325100Y6.559300
G1X95.322900Y6.532600
G1X95.317700Y6.506500
G1X95.317700Y6.469300
G1X95.314600Y6.431600
G1X95.317700Y6.404800
G1X95.317700Y6.378400
G1X95.325000Y6.341900
G1X95.329300Y6.304400
G1X95.337500Y6.279000
G1X95.342700Y6.252800
G1X95.357100Y6.218200
G1X95.368500Y6.182600
G1X95.381500Y6.159300
G1X95.391700Y6.134600
G1X95.412500Y6.103500
G1X95.430700Y6.070700
G1X95.447900Y6.050500
G1X95.462800Y6.028100
G1X95.489500Y6.001500
G1X95.513500Y5.973100
G1X95.534400Y5.956600
G1X95.553300Y5.937600
G1X95.584400Y5.916900
G1X95.613800Y5.893500
G1X95.637900Y5.881200
G1X95.659800Y5.866500
G1X95.693900Y5.852400
G1X95.727700Y5.835000
G1X95.753700Y5.827600
G1X95.778000Y5.817500
G1X95.814600Y5.810200
G1X95.844000Y5.801900
G1X95.868400Y5.791700
G1X95.905200Y5.784400
G1X95.941200Y5.774100
G1X95.967900Y5.771900
G1X95.994000Y5.766700
G1X96.031200Y5.766700
G1X96.068900Y5.763600
G1X96.095700Y5.766700
G1X96.122100Y5.766700
G1X96.158600Y5.774000
G1X96.196100Y5.778300
G1X96.221500Y5.786500
G1X96.247700Y5.791700
G1X96.282200Y5.806100
G1X96.317900Y5.817500
G1X96.341200Y5.830500
G1X96.365900Y5.840700
G1X96.397000Y5.861500
G1X96.429800Y5.879700
G1X96.450000Y5.896900
G1X96.472400Y5.911800
G1X96.499000Y5.938500
G1X96.527400Y5.962500
G1X96.543900Y5.983400
G1X96.562900Y6.002300
G1X96.583600Y6.033400
G1X96.607000Y6.062800
G1X96.619300Y6.086900
G1X96.634000Y6.108800
G1X96.648100Y6.142900
G1X96.665500Y6.176700
G1X96.672900Y6.202700
G1X96.683000Y6.227000
G1X96.690300Y6.263700
G1X96.700600Y6.299800
G1X96.702800Y6.326500
G1X96.708000Y6.352600
G1X96.708000Y6.389800
G1X96.711100Y6.427500
G1X96.708000Y6.454300
G1X96.708000Y6.480700
G1X96.700700Y6.517200
G1X96.696400Y6.554700
G1X96.688200Y6.580100
G1X96.683000Y6.606300
G1X96.668600Y6.640800
G1X96.657200Y6.676500
G1X96.644200Y6.699800
G1X96.634000Y6.724500
G1X96.613200Y6.755600
G1X96.595000Y6.788400
G1X96.577800Y6.808600
G1X96.562900Y6.831000

G0Z0.500
G0X1.447700Y29.482700
G1Z-0.100 f25
G1X1.447200Y29.482700 f200
G1X1.446700Y29.482800
G1X1.381900Y29.482700
G1X1.230000Y29.482700
G1X1.101900Y29.482700
G1X0.976300Y29.457700
G1X0.858100Y29.408700
G1X0.751600Y29.337600
G1X0.661100Y29.247100
G1X0.590000Y29.140600
G1X0.541000Y29.022400
G1X0.516000Y28.896800
G1X0.516000Y28.677900
G1X0.515900Y28.677400
G1X0.516000Y28.614000
G1X0.516000Y28.550300
G1X0.516100Y28.549800
G1X0.516100Y28.549200
G1X0.529600Y28.482000
G1X0.541000Y28.424700
G1X0.541200Y28.424300
G1X0.541300Y28.423700
G1X0.569200Y28.356700
G1X0.590000Y28.306500
G1X0.590300Y28.306200
G1X0.590500Y28.305500
G1X0.626100Y28.252500
G1X0.661100Y28.200000
G1X0.661600Y28.199500
G1X0.661800Y28.199200
G1X0.706400Y28.154700
G1X0.751600Y28.109500
G1X0.751900Y28.109300
G1X0.752400Y28.108800
G1X0.818200Y28.065100
G1X0.858100Y28.038400
G1X0.858500Y28.038300
G1X0.859000Y28.037900
G1X0.920600Y28.012500
G1X0.976300Y27.989400
G1X0.976900Y27.989300
G1X0.977300Y27.989100
G1X1.040000Y27.976700
G1X1.101900Y27.964400
G1X1.102400Y27.964400
G1X1.102900Y27.964300
G1X1.166300Y27.964400
G1X1.230000Y27.964400
G1X1.230500Y27.964500
G1X1.231100Y27.964500
G1X1.298300Y27.978000
G1X1.355600Y27.989400
G1X1.356000Y27.989600
G1X1.356600Y27.989700
G1X1.423600Y28.017600
G1X1.473800Y28.038400
G1X1.474100Y28.038700
G1X1.474800Y28.038900
G1X1.527800Y28.074500
G1X1.580300Y28.109500
G1X1.580800Y28.110000
G1X1.581100Y28.110200
G1X1.614800Y28.144000
G1X1.670800Y28.200000
G1X1.671100Y28.200500
G1X1.855500Y28.385400
G1X1.888500Y28.418400
G1X1.888700Y28.418700
G1X1.889200Y28.419200
G1X1.933600Y28.486100
G1X1.959600Y28.524900
G1X1.959700Y28.525300
G1X1.960100Y28.525800
G1X1.986000Y28.588600
G1X2.008600Y28.643100
G1X2.008700Y28.643700
G1X2.008900Y28.644100
G1X2.021500Y28.708300
G1X2.033600Y28.768700
G1X2.033600Y28.769200
G1X2.033700Y28.769700
G1X2.033600Y28.834500
G1X2.033600Y28.896800
G1X2.033500Y28.897200
G1X2.033500Y28.897900
G1X2.019700Y28.966400
G1X2.008600Y29.022400
G1X2.008400Y29.022800
G1X2.008300Y29.023400
G1X1.979800Y29.091800
G1X1.959600Y29.140600
G1X1.959400Y29.140900
G1X1.959100Y29.141600
G1X1.923000Y29.195400
G1X1.888500Y29.247100
G1X1.888000Y29.247600
G1X1.887800Y29.247900
G1X1.841800Y29.293800
G1X1.798000Y29.337600
G1X1.797700Y29.337800
G1X1.797200Y29.338300
G1X1.730300Y29.382700
G1X1.691500Y29.408700
G1X1.691100Y29.408800
G1X1.690600Y29.409200
G1X1.627800Y29.435100
G1X1.573300Y29.457700
G1X1.572700Y29.457800
G1X1.572300Y29.458000
G1X1.508100Y29.470600
G1X1.447700Y29.482700

G0Z0.500
G0X98.523900Y7.400600
G1Z-0.100 f25
G1X98.523900Y8.439300 f200
G1X97.789300Y9.173900
G1X96.750600Y9.173900
G1X96.016000Y8.439300
G1X96.016000Y7.400600
G1X96.750600Y6.666000
G1X97.789300Y6.666000
G1X98.523900Y7.400600

G0Z0.500
G0X95.983900Y7.400600
G1Z-0.100 f25
G1X95.983900Y8.439300 f200
G1X95.249300Y9.173900
G1X94.210600Y9.173900
G1X93.476000Y8.439300
G1X93.476000Y7.400600
G1X94.210600Y6.666000
G1X95.249300Y6.666000
G1X95.983900Y7.400600

G0Z0.500
G0X3.983900Y7.400600
G1Z-0.100 f25
G1X3.983900Y8.439300 f200
G1X3.249300Y9.173900
G1X2.210600Y9.173900
G1X1.476000Y8.439300
G1X1.476000Y7.400600
G1X2.210600Y6.666000
G1X3.249300Y6.666000
G1X3.983900Y7.400600

G0Z0.500
G0X3.983900Y12.480600
G1Z-0.100 f25
G1X3.983900Y13.519300 f200
G1X3.249300Y14.253900
G1X3.126900Y14.253900
G1X3.126900Y14.286000
G1X3.249300Y14.286000
G1X3.983900Y15.020600
G1X3.983900Y16.059300
G1X3.626900Y16.416200
G1X3.626900Y17.203700
G1X3.983900Y17.560600
G1X3.983900Y18.599300
G1X3.249300Y19.333900
G1X2.210600Y19.333900
G1X1.476000Y18.599300
G1X1.476000Y17.560600
G1X2.210600Y16.826000
G1X2.373000Y16.826000
G1X2.373000Y16.793900
G1X2.210600Y16.793900
G1X1.476000Y16.059300
G1X1.476000Y15.020600
G1X1.873000Y14.623700
G1X1.873000Y13.916200
G1X1.476000Y13.519300
G1X1.476000Y12.480600
G1X1.873000Y12.083600
G1X1.873000Y11.376300
G1X1.476000Y10.979300
G1X1.476000Y9.940600
G1X2.210600Y9.206000
G1X3.249300Y9.206000
G1X3.983900Y9.940600
G1X3.983900Y10.979300
G1X3.249300Y11.713900
G1X3.126900Y11.713900
G1X3.126900Y11.746000
G1X3.249300Y11.746000
G1X3.983900Y12.480600

G0Z0.500
G0X73.562500Y26.454100
G1Z-0.100 f25
G1X73.562500Y27.492800 f200
G1X72.827900Y28.227400
G1X71.789200Y28.227400
G1X71.054600Y27.492800
G1X71.054600Y26.454100
G1X71.789200Y25.719500
G1X72.827900Y25.719500
G1X73.562500Y26.454100

G0Z0.500
G0X81.176400Y26.463500
G1Z-0.100 f25
G1X81.176400Y27.502200 f200
G1X80.441800Y28.236800
G1X79.403100Y28.236800
G1X78.668500Y27.502200
G1X78.668500Y26.463500
G1X79.403100Y25.728900
G1X80.441800Y25.728900
G1X81.176400Y26.463500

G0Z0.500
G0X92.849900Y12.083700
G1Z-0.100 f25
G1X92.817200Y12.247900 f200
G1X92.753200Y12.402600
G1X92.660200Y12.541800
G1X92.541800Y12.660200
G1X92.402600Y12.753200
G1X92.247900Y12.817200
G1X92.083700Y12.849900
G1X91.916200Y12.849900
G1X90.849900Y12.849900
G1X90.849900Y18.770800
G1X92.327600Y18.213200
G1X93.476000Y17.705200
G1X93.476000Y17.560600
G1X94.210600Y16.826000
G1X95.249300Y16.826000
G1X95.373000Y16.949800
G1X95.373000Y16.670100
G1X95.249300Y16.793900
G1X94.851300Y16.793900
G1X94.771000Y16.809900
G1X94.642900Y16.809900
G1X94.203900Y16.809900
G1X93.298900Y17.714900
G1X93.259800Y17.755900
G1X93.253500Y17.760300
G1X93.248000Y17.765900
G1X93.201800Y17.796700
G1X93.155100Y17.829600
G1X93.147700Y17.832800
G1X93.141600Y17.837000
G1X93.092200Y17.857400
G1X92.378700Y18.173000
G1X92.363600Y18.182400
G1X92.321400Y18.198300
G1X92.278500Y18.217300
G1X92.260400Y18.221300
G1X91.754400Y18.412300
G1X91.705500Y18.432600
G1X91.695300Y18.434600
G1X91.685500Y18.438300
G1X91.632100Y18.447200
G1X91.579900Y18.457600
G1X91.569500Y18.457600
G1X91.559200Y18.459300
G1X91.505200Y18.457600
G1X91.451800Y18.457600
G1X91.441600Y18.455500
G1X91.431100Y18.455200
G1X91.377700Y18.442800
G1X91.326200Y18.432600
G1X91.317000Y18.428700
G1X91.306400Y18.426300
G1X91.255800Y18.403400
G1X91.208000Y18.383600
G1X91.199500Y18.377900
G1X91.189800Y18.373500
G1X91.145600Y18.341900
G1X91.101500Y18.312500
G1X91.094300Y18.305200
G1X91.085700Y18.299100
G1X91.048900Y18.259800
G1X91.011000Y18.222000
G1X91.005200Y18.213300
G1X90.998100Y18.205700
G1X90.969200Y18.159300
G1X90.939900Y18.115500
G1X90.936100Y18.106200
G1X90.930400Y18.097100
G1X90.911200Y18.046000
G1X90.890900Y17.997300
G1X90.888900Y17.987100
G1X90.885200Y17.977300
G1X90.876300Y17.923900
G1X90.865900Y17.871700
G1X90.865900Y17.861300
G1X90.864200Y17.851000
G1X90.865900Y17.797000
G1X90.865900Y13.451800
G1X90.890900Y13.326200
G1X90.939900Y13.208000
G1X91.011000Y13.101500
G1X91.101500Y13.011000
G1X91.208000Y12.939900
G1X91.326200Y12.890900
G1X91.451800Y12.865900
G1X91.579900Y12.865900
G1X91.762400Y12.865900
G1X92.172200Y12.865900
G1X92.620300Y12.680200
G1X92.745800Y12.655200
G1X92.873900Y12.655200
G1X92.874000Y12.655200
G1X92.999600Y12.680200
G1X93.033100Y12.694200
G1X93.117800Y12.729100
G1X93.224200Y12.800200
G1X93.314800Y12.890800
G1X93.385900Y12.997200
G1X93.434900Y13.115500
G1X93.459900Y13.241000
G1X93.459900Y13.369100
G1X93.459900Y13.525900
G1X94.203900Y14.269900
G1X94.771000Y14.269900
G1X94.851800Y14.286000
G1X95.249300Y14.286000
G1X95.373000Y14.409800
G1X95.373000Y14.130100
G1X95.249300Y14.253900
G1X94.210600Y14.253900
G1X93.476000Y13.519300
G1X93.476000Y12.480600
G1X94.210600Y11.746000
G1X95.249300Y11.746000
G1X95.355700Y11.852400
G1X95.356900Y11.606300
G1X95.249300Y11.713900
G1X94.210600Y11.713900
G1X93.476000Y10.979300
G1X93.476000Y9.940600
G1X94.210600Y9.206000
G1X95.249300Y9.206000
G1X95.856000Y9.812800
G1X95.883900Y9.807600
G1X95.953700Y9.794000
G1X95.955900Y9.794100
G1X95.957500Y9.793700
G1X96.012300Y9.794300
G1X96.082300Y9.794600
G1X96.084400Y9.795100
G1X96.160800Y9.795900
G1X96.750600Y9.206000
G1X97.789300Y9.206000
G1X98.523900Y9.940600
G1X98.523900Y10.979300
G1X97.789300Y11.713900
G1X96.750600Y11.713900
G1X96.661400Y11.624600
G1X96.660400Y11.836300
G1X96.750600Y11.746000
G1X97.789300Y11.746000
G1X98.523900Y12.480600
G1X98.523900Y13.519300
G1X97.789300Y14.253900
G1X96.750600Y14.253900
G1X96.626900Y14.130100
G1X96.626900Y14.409800
G1X96.750600Y14.286000
G1X97.789300Y14.286000
G1X98.523900Y15.020600
G1X98.523900Y16.059300
G1X97.789300Y16.793900
G1X96.750600Y16.793900
G1X96.626900Y16.670100
G1X96.626900Y16.949800
G1X96.750600Y16.826000
G1X97.789300Y16.826000
G1X98.523900Y17.560600
G1X98.523900Y18.599300
G1X97.789300Y19.333900
G1X96.750600Y19.333900
G1X96.626900Y19.210100
G1X96.626900Y20.240300
G1X98.399600Y22.013000
G1X98.473300Y22.086800
G1X98.667800Y22.086800
G1X99.402400Y22.821400
G1X99.402400Y23.860100
G1X99.304700Y23.957800
G1X99.304700Y26.261400
G1X99.523900Y26.480600
G1X99.523900Y27.519300
G1X98.789300Y28.253900
G1X97.750600Y28.253900
G1X97.652300Y28.155500
G1X97.652300Y28.178200
G1X97.804000Y28.329900
G1X97.894500Y28.420400
G1X97.965600Y28.526900
G1X98.014600Y28.645100
G1X98.039600Y28.770700
G1X98.039600Y28.898800
G1X98.014600Y29.024400
G1X97.965600Y29.142600
G1X97.894500Y29.249100
G1X97.804000Y29.339600
G1X97.697500Y29.410700
G1X97.579300Y29.459700
G1X97.453700Y29.484700
G1X97.437800Y29.484700
G1X97.415800Y29.506700
G1X97.309000Y29.578100
G1X97.190300Y29.627200
G1X97.064200Y29.652300
G1X96.935700Y29.652300
G1X92.755600Y29.652300
G1X92.629500Y29.627200
G1X92.510800Y29.578100
G1X92.404000Y29.506700
G1X92.381900Y29.484500
G1X80.721900Y29.484300
G1X80.596300Y29.459300
G1X80.478000Y29.410300
G1X80.371600Y29.339200
G1X80.281100Y29.248700
G1X80.210000Y29.142200
G1X80.161000Y29.024000
G1X80.136000Y28.898400
G1X80.136000Y28.770300
G1X80.161000Y28.644700
G1X80.210000Y28.526400
G1X80.281100Y28.420000
G1X80.371600Y28.329500
G1X80.371700Y28.329500
G1X81.192400Y27.508800
G1X81.192400Y26.456800
G1X80.448400Y25.712800
G1X79.396400Y25.712800
G1X78.652400Y26.456800
G1X78.652400Y27.508800
G1X79.473100Y28.329500
G1X79.473200Y28.329500
G1X79.545700Y28.402100
G1X79.563700Y28.420000
G1X79.634800Y28.526400
G1X79.683800Y28.644700
G1X79.708800Y28.770300
G1X79.708800Y28.898400
G1X79.707400Y28.905500
G1X79.683800Y29.024000
G1X79.634800Y29.142300
G1X79.565100Y29.246500
G1X79.563700Y29.248700
G1X79.473200Y29.339200
G1X79.366800Y29.410300
G1X79.248500Y29.459300
G1X79.122900Y29.484300
G1X78.994800Y29.484300
G1X73.098700Y29.484200
G1X72.973100Y29.459200
G1X72.854800Y29.410200
G1X72.748400Y29.339100
G1X72.657900Y29.248600
G1X72.586800Y29.142100
G1X72.537800Y29.023900
G1X72.512800Y28.898300
G1X72.512800Y28.770200
G1X72.537800Y28.644600
G1X72.586800Y28.526300
G1X72.657900Y28.419900
G1X72.748400Y28.329400
G1X72.748500Y28.329400
G1X73.578500Y27.499400
G1X73.578500Y26.447400
G1X72.834500Y25.703400
G1X71.782500Y25.703400
G1X71.038500Y26.447400
G1X71.038500Y27.499400
G1X71.868400Y28.329300
G1X71.868500Y28.329300
G1X71.940900Y28.401800
G1X71.959000Y28.419800
G1X72.030100Y28.526200
G1X72.079100Y28.644500
G1X72.104100Y28.770100
G1X72.104100Y28.898200
G1X72.102700Y28.905300
G1X72.079100Y29.023800
G1X72.030100Y29.142100
G1X71.960400Y29.246300
G1X71.959000Y29.248500
G1X71.868500Y29.339000
G1X71.762100Y29.410100
G1X71.643800Y29.459100
G1X71.518200Y29.484100
G1X71.390100Y29.484100
G1X66.074100Y29.484000
G1X66.062700Y29.486300
G1X63.384000Y29.486300
G1X63.372400Y29.483900
G1X47.097500Y29.483600
G1X47.097100Y29.483700
G1X47.034700Y29.483600
G1X46.970400Y29.483600
G1X46.969900Y29.483500
G1X46.969000Y29.483500
G1X46.899400Y29.469400
G1X46.844800Y29.458600
G1X46.844200Y29.458300
G1X46.843500Y29.458200
G1X46.776300Y29.430200
G1X46.726500Y29.409600
G1X46.726100Y29.409300
G1X46.725300Y29.409000
G1X46.667200Y29.369900
G1X46.620100Y29.338500
G1X46.619700Y29.338000
G1X46.619000Y29.337600
G1X46.574200Y29.292600
G1X46.529600Y29.248000
G1X46.529200Y29.247400
G1X46.528700Y29.246900
G1X46.485100Y29.181200
G1X46.458500Y29.141500
G1X46.458400Y29.141100
G1X46.457800Y29.140300
G1X46.432200Y29.078000
G1X46.409500Y29.023300
G1X46.409400Y29.022400
G1X46.409100Y29.021900
G1X46.399200Y28.971500
G1X46.384500Y28.897700
G1X46.384500Y28.896800
G1X46.384400Y28.896300
G1X46.384500Y28.833000
G1X46.384500Y28.769600
G1X46.384600Y28.769100
G1X46.384600Y28.768200
G1X46.398700Y28.698600
G1X46.409500Y28.644000
G1X46.409800Y28.643400
G1X46.409900Y28.642700
G1X46.437900Y28.575500
G1X46.458500Y28.525700
G1X46.458800Y28.525300
G1X46.459100Y28.524500
G1X46.498200Y28.466400
G1X46.529600Y28.419300
G1X46.530100Y28.418900
G1X46.530500Y28.418200
G1X46.568700Y28.380300
G1X46.570500Y27.328400
G1X45.827800Y26.583100
G1X44.775900Y26.581300
G1X44.030500Y27.324000
G1X44.028800Y28.375900
G1X44.042300Y28.389500
G1X44.072200Y28.419300
G1X44.072400Y28.419600
G1X44.072900Y28.420100
G1X44.117300Y28.487000
G1X44.143300Y28.525800
G1X44.143400Y28.526200
G1X44.143800Y28.526700
G1X44.169700Y28.589500
G1X44.192300Y28.644000
G1X44.192400Y28.644600
G1X44.192600Y28.645000
G1X44.205200Y28.709200
G1X44.217300Y28.769600
G1X44.217300Y28.770100
G1X44.217400Y28.770600
G1X44.217300Y28.835400
G1X44.217300Y28.897700
G1X44.217200Y28.898100
G1X44.217200Y28.898700
G1X44.204600Y28.961600
G1X44.192300Y29.023300
G1X44.192100Y29.023700
G1X44.192000Y29.024300
G1X44.168500Y29.080800
G1X44.143300Y29.141600
G1X44.143000Y29.142100
G1X44.142800Y29.142500
G1X44.098900Y29.207900
G1X44.072200Y29.248000
G1X44.072000Y29.248200
G1X44.071600Y29.248800
G1X44.010600Y29.309500
G1X43.981700Y29.338500
G1X43.981400Y29.338700
G1X43.980900Y29.339200
G1X43.914000Y29.383600
G1X43.875200Y29.409600
G1X43.874800Y29.409700
G1X43.874300Y29.410100
G1X43.811500Y29.436000
G1X43.757000Y29.458600
G1X43.756400Y29.458700
G1X43.756000Y29.458900
G1X43.691800Y29.471500
G1X43.631400Y29.483600
G1X43.630900Y29.483600
G1X43.630400Y29.483700
G1X43.564600Y29.483600
G1X39.464800Y29.483500
G1X39.464400Y29.483600
G1X39.402000Y29.483500
G1X39.337400Y29.483500
G1X39.336900Y29.483400
G1X39.336200Y29.483400
G1X39.257600Y29.467600
G1X39.211800Y29.458500
G1X39.211500Y29.458300
G1X39.210700Y29.458200
G1X39.135100Y29.426700
G1X39.093500Y29.409500
G1X39.093200Y29.409300
G1X39.092500Y29.409000
G1X39.026000Y29.364400
G1X38.987100Y29.338400
G1X38.986800Y29.338100
G1X38.986200Y29.337700
G1X38.941400Y29.292700
G1X38.896600Y29.247900
G1X38.896200Y29.247300
G1X38.895900Y29.247000
G1X38.854300Y29.184400
G1X38.825500Y29.141400
G1X38.825400Y29.141100
G1X38.824900Y29.140400
G1X38.787700Y29.050100
G1X38.776500Y29.023200
G1X38.776500Y29.022900
G1X38.776100Y29.022100
G1X38.761300Y28.946700
G1X38.751500Y28.897600
G1X38.751500Y28.897000
G1X38.751400Y28.896500
G1X38.751500Y28.833100
G1X38.751500Y28.769500
G1X38.751600Y28.769000
G1X38.751600Y28.768300
G1X38.767400Y28.689700
G1X38.776500Y28.643900
G1X38.776700Y28.643600
G1X38.776800Y28.642800
G1X38.808300Y28.567200
G1X38.825500Y28.525600
G1X38.825700Y28.525300
G1X38.826000Y28.524600
G1X38.870600Y28.458100
G1X38.896600Y28.419200
G1X38.896900Y28.418900
G1X38.897300Y28.418300
G1X38.948800Y28.367100
G1X38.950600Y27.315100
G1X38.207900Y26.569800
G1X37.443600Y26.568600
G1X37.384400Y26.568600
G1X37.384000Y26.568500
G1X37.383300Y26.568500
G1X37.314800Y26.554700
G1X37.258800Y26.543600
G1X37.258400Y26.543400
G1X37.257800Y26.543300
G1X37.189400Y26.514800
G1X37.140600Y26.494600
G1X37.140300Y26.494400
G1X37.139600Y26.494100
G1X37.085800Y26.458000
G1X37.034100Y26.423500
G1X37.033600Y26.423000
G1X37.033300Y26.422800
G1X36.987400Y26.376800
G1X36.943600Y26.333000
G1X36.943400Y26.332700
G1X36.942900Y26.332200
G1X36.898500Y26.265300
G1X36.872500Y26.226500
G1X36.872400Y26.226100
G1X36.872000Y26.225600
G1X36.849900Y26.172000
G1X36.823500Y26.108300
G1X36.823400Y26.107500
G1X36.823200Y26.107200
G1X36.813000Y26.055500
G1X36.798500Y25.982700
G1X36.798500Y25.982100
G1X36.798400Y25.981600
G1X36.798500Y25.916800
G1X36.798500Y25.854600
G1X36.798600Y25.854200
G1X36.798600Y25.853500
G1X36.812400Y25.785000
G1X36.823500Y25.729000
G1X36.823700Y25.728600
G1X36.823800Y25.728000
G1X36.852300Y25.659600
G1X36.872500Y25.610800
G1X36.872700Y25.610500
G1X36.873000Y25.609800
G1X36.909100Y25.556000
G1X36.943600Y25.504300
G1X36.944100Y25.503800
G1X36.944300Y25.503500
G1X36.990300Y25.457600
G1X37.077100Y25.370800
G1X37.077500Y25.370200
G1X37.122500Y25.325400
G1X37.167300Y25.280600
G1X37.167900Y25.280200
G1X37.168200Y25.279900
G1X37.230800Y25.238300
G1X37.273800Y25.209500
G1X37.274100Y25.209400
G1X37.274800Y25.208900
G1X37.365100Y25.171700
G1X37.392000Y25.160500
G1X37.392300Y25.160500
G1X37.393100Y25.160100
G1X37.468500Y25.145300
G1X37.517600Y25.135500
G1X37.518200Y25.135500
G1X37.518700Y25.135400
G1X37.576200Y25.135500
G1X37.645700Y25.135500
G1X37.646300Y25.135600
G1X38.871200Y25.137700
G1X39.616500Y24.395100
G1X39.618300Y23.343100
G1X38.875600Y22.597800
G1X37.823600Y22.596000
G1X37.645900Y22.773100
G1X37.588300Y22.830800
G1X37.587700Y22.831200
G1X37.587400Y22.831500
G1X37.480900Y22.902500
G1X37.410300Y22.931500
G1X37.363600Y22.950900
G1X37.362800Y22.951000
G1X37.362500Y22.951200
G1X37.310800Y22.961400
G1X37.238000Y22.975900
G1X37.237400Y22.975900
G1X37.236900Y22.976000
G1X37.172100Y22.975900
G1X36.796000Y22.975900
G1X36.419900Y23.131600
G1X33.259100Y26.292600
G1X33.258700Y26.293200
G1X33.213400Y26.338300
G1X33.169000Y26.382700
G1X33.168400Y26.383100
G1X33.168000Y26.383500
G1X33.126300Y26.411200
G1X33.062600Y26.453800
G1X33.061800Y26.454100
G1X33.061400Y26.454400
G1X33.011500Y26.474900
G1X32.944300Y26.502800
G1X32.943600Y26.502900
G1X32.943000Y26.503200
G1X32.884300Y26.514700
G1X32.818700Y26.527800
G1X32.817900Y26.527800
G1X32.817400Y26.527900
G1X32.773000Y26.527800
G1X32.027700Y27.270400
G1X32.025900Y28.322300
G1X32.090400Y28.387000
G1X32.122500Y28.419000
G1X32.122700Y28.419300
G1X32.123200Y28.419800
G1X32.167600Y28.486700
G1X32.193600Y28.525500
G1X32.193700Y28.525900
G1X32.194100Y28.526400
G1X32.216200Y28.580100
G1X32.242600Y28.643700
G1X32.242700Y28.644500
G1X32.242900Y28.644800
G1X32.253100Y28.696500
G1X32.267600Y28.769300
G1X32.267600Y28.769900
G1X32.267700Y28.770400
G1X32.267600Y28.835200
G1X32.267600Y28.897400
G1X32.267500Y28.897800
G1X32.267500Y28.898500
G1X32.253700Y28.967000
G1X32.242600Y29.023000
G1X32.242400Y29.023400
G1X32.242300Y29.024000
G1X32.213800Y29.092400
G1X32.193600Y29.141200
G1X32.193300Y29.141500
G1X32.193100Y29.142200
G1X32.156900Y29.196000
G1X32.122500Y29.247700
G1X32.122000Y29.248200
G1X32.121800Y29.248500
G1X32.075800Y29.294400
G1X32.032000Y29.338200
G1X32.031700Y29.338400
G1X32.031200Y29.338900
G1X31.964300Y29.383300
G1X31.925500Y29.409300
G1X31.925100Y29.409400
G1X31.924600Y29.409800
G1X31.870900Y29.431900
G1X31.807300Y29.458300
G1X31.806500Y29.458400
G1X31.806200Y29.458600
G1X31.754500Y29.468800
G1X31.681700Y29.483300
G1X31.681100Y29.483300
G1X31.680600Y29.483400
G1X31.615800Y29.483300
G1X29.952800Y29.483300
G1X29.952300Y29.483400
G1X29.889000Y29.483300
G1X29.825400Y29.483300
G1X29.824900Y29.483200
G1X29.824200Y29.483200
G1X29.745600Y29.467400
G1X29.699800Y29.458300
G1X29.699500Y29.458100
G1X29.698700Y29.458000
G1X29.607300Y29.419900
G1X29.581600Y29.409300
G1X29.581500Y29.409100
G1X29.580500Y29.408800
G1X29.506300Y29.358900
G1X29.475100Y29.338200
G1X29.474800Y29.337900
G1X29.474200Y29.337500
G1X29.414400Y29.277500
G1X29.384600Y29.247700
G1X29.384400Y29.247400
G1X29.383800Y29.246800
G1X29.331300Y29.167700
G1X29.313500Y29.141200
G1X29.313400Y29.140900
G1X29.312900Y29.140200
G1X29.281200Y29.063000
G1X29.264500Y29.023000
G1X29.264400Y29.022500
G1X29.264100Y29.021800
G1X29.251000Y28.954800
G1X29.239500Y28.897400
G1X29.239500Y28.896700
G1X29.239400Y28.896200
G1X29.239500Y28.832900
G1X29.239500Y28.769300
G1X29.239600Y28.768800
G1X29.239600Y28.768100
G1X29.255400Y28.689500
G1X29.264500Y28.643700
G1X29.264700Y28.643400
G1X29.264800Y28.642600
G1X29.302900Y28.551200
G1X29.313500Y28.525500
G1X29.313700Y28.525400
G1X29.314000Y28.524400
G1X29.363900Y28.450200
G1X29.384600Y28.419000
G1X29.384900Y28.418700
G1X29.385300Y28.418100
G1X29.441000Y28.362700
G1X29.475100Y28.328500
G1X29.475500Y28.328300
G1X29.486000Y28.317800
G1X29.487800Y27.265900
G1X28.745100Y26.520600
G1X28.649200Y26.520500
G1X28.589600Y26.520500
G1X28.589200Y26.520400
G1X28.588600Y26.520400
G1X28.525700Y26.507700
G1X28.464100Y26.495500
G1X28.463700Y26.495300
G1X28.463100Y26.495200
G1X28.406600Y26.471600
G1X28.345800Y26.446500
G1X28.345400Y26.446100
G1X28.344900Y26.446000
G1X28.304000Y26.418500
G1X28.239400Y26.375400
G1X28.239000Y26.374900
G1X28.238600Y26.374700
G1X28.206800Y26.342700
G1X27.467300Y25.603200
G1X27.396100Y25.496700
G1X27.361200Y25.412000
G1X27.347200Y25.378500
G1X27.323700Y25.260000
G1X27.322200Y25.252900
G1X27.322200Y25.124700
G1X27.322200Y24.174200
G1X27.319600Y24.155800
G1X27.322200Y24.109600
G1X27.322200Y24.064400
G1X27.325800Y24.046600
G1X27.326800Y24.027900
G1X27.338500Y23.983000
G1X27.347200Y23.938800
G1X27.354200Y23.922100
G1X27.358800Y23.904000
G1X27.379100Y23.862000
G1X27.396200Y23.820600
G1X27.406200Y23.805700
G1X27.414400Y23.788600
G1X27.442200Y23.751800
G1X27.467300Y23.714100
G1X27.480400Y23.701000
G1X27.491400Y23.686400
G1X27.525100Y23.656400
G1X27.557800Y23.623600
G1X27.573300Y23.613300
G1X27.586900Y23.601100
G1X27.626600Y23.577700
G1X27.664300Y23.552500
G1X27.681000Y23.545700
G1X27.697200Y23.536000
G1X27.741100Y23.520700
G1X27.782500Y23.503500
G1X27.800500Y23.500000
G1X27.818000Y23.493800
G1X27.863500Y23.487400
G1X27.908100Y23.478500
G1X27.926400Y23.478500
G1X27.944800Y23.475900
G1X27.991000Y23.478500
G1X28.036200Y23.478500
G1X28.054000Y23.482100
G1X28.072700Y23.483100
G1X28.117600Y23.494800
G1X28.161800Y23.503500
G1X28.178500Y23.510500
G1X28.196600Y23.515100
G1X28.238500Y23.535400
G1X28.280000Y23.552500
G1X28.295000Y23.562600
G1X28.558700Y23.689600
G1X29.114700Y23.689600
G1X29.615500Y23.448400
G1X29.764900Y23.261100
G1X29.190400Y23.261100
G1X29.149000Y23.278300
G1X28.955800Y23.316700
G1X28.758700Y23.316700
G1X28.565500Y23.278300
G1X28.383600Y23.202900
G1X28.219800Y23.093500
G1X28.080500Y22.954200
G1X27.971100Y22.790400
G1X27.895700Y22.608500
G1X27.857300Y22.415300
G1X27.857300Y22.359700
G1X27.857300Y22.162600
G1X27.895700Y21.969400
G1X27.971100Y21.787500
G1X28.080500Y21.623700
G1X28.219800Y21.484400
G1X28.383600Y21.375000
G1X28.565500Y21.299600
G1X28.758700Y21.261200
G1X29.130500Y21.261200
G1X29.114700Y21.253600
G1X28.558700Y21.253600
G1X28.295000Y21.380700
G1X28.280000Y21.390700
G1X28.238600Y21.407800
G1X28.196600Y21.428100
G1X28.178500Y21.432800
G1X28.161800Y21.439700
G1X28.117700Y21.448500
G1X28.072700Y21.460100
G1X28.054000Y21.461100
G1X28.036200Y21.464700
G1X27.991000Y21.464700
G1X27.944800Y21.467300
G1X27.926400Y21.464700
G1X27.908100Y21.464700
G1X27.863600Y21.455800
G1X27.818000Y21.449400
G1X27.800500Y21.443300
G1X27.782500Y21.439700
G1X27.741100Y21.422500
G1X27.697200Y21.407200
G1X27.680900Y21.397600
G1X27.664300Y21.390700
G1X27.626600Y21.365500
G1X27.586900Y21.342100
G1X27.573300Y21.329900
G1X27.557800Y21.319600
G1X27.525100Y21.286900
G1X27.491400Y21.256800
G1X27.480400Y21.242200
G1X27.467300Y21.229100
G1X27.442200Y21.191400
G1X27.414400Y21.154600
G1X27.406200Y21.137500
G1X27.396200Y21.122600
G1X27.379100Y21.081200
G1X27.358800Y21.039200
G1X27.354100Y21.021100
G1X27.347200Y21.004400
G1X27.338400Y20.960300
G1X27.326800Y20.915300
G1X27.325800Y20.896600
G1X27.322200Y20.878800
G1X27.322200Y20.833600
G1X27.319600Y20.787400
G1X27.322200Y20.769000
G1X27.322200Y18.877700
G1X27.322000Y18.876700
G1X27.322200Y18.813000
G1X27.322200Y18.750300
G1X27.322400Y18.749300
G1X27.322400Y18.748600
G1X27.333300Y18.694800
G1X27.347200Y18.624700
G1X27.347600Y18.623900
G1X27.347700Y18.623100
G1X27.374400Y18.559300
G1X27.396200Y18.506500
G1X27.396600Y18.506000
G1X27.397000Y18.504900
G1X27.435100Y18.448300
G1X27.467300Y18.400000
G1X27.468000Y18.399300
G1X27.468400Y18.398700
G1X27.513400Y18.353900
G1X27.557800Y18.309500
G1X27.558400Y18.309100
G1X27.559100Y18.308400
G1X27.615900Y18.270700
G1X27.664300Y18.238400
G1X27.665100Y18.238100
G1X27.665800Y18.237600
G1X27.720600Y18.215100
G1X27.782500Y18.189400
G1X27.783500Y18.189200
G1X27.784200Y18.188900
G1X27.851400Y18.175700
G1X27.908100Y18.164400
G1X27.908800Y18.164400
G1X27.909800Y18.164200
G1X27.973500Y18.164400
G1X28.036200Y18.164400
G1X28.037200Y18.164600
G1X28.037900Y18.164600
G1X28.091700Y18.175500
G1X28.161800Y18.189400
G1X28.162600Y18.189800
G1X28.163400Y18.189900
G1X28.227200Y18.216600
G1X28.280000Y18.238400
G1X28.280500Y18.238800
G1X28.281600Y18.239200
G1X28.283800Y18.240700
G1X29.370000Y18.242600
G1X30.115300Y17.499900
G1X30.117100Y16.448100
G1X30.115400Y16.446300
G1X30.070700Y16.401600
G1X30.067600Y16.396900
G1X30.064100Y16.393300
G1X30.033400Y16.345500
G1X29.999800Y16.295000
G1X29.997800Y16.290000
G1X29.994900Y16.285600
G1X29.973400Y16.231000
G1X29.951000Y16.176700
G1X29.950000Y16.171500
G1X29.948000Y16.166500
G1X29.937800Y16.109500
G1X29.926200Y16.051100
G1X29.926200Y16.045500
G1X29.925300Y16.040500
G1X29.926300Y15.984100
G1X29.926400Y15.923000
G1X29.927500Y15.917600
G1X30.018000Y10.838100
G1X30.018100Y10.782400
G1X30.019100Y10.777500
G1X30.019200Y10.771500
G1X30.023900Y10.750000
G1X30.023900Y10.574500
G1X30.022900Y10.569000
G1X30.023900Y10.512300
G1X30.023900Y10.452500
G1X30.025100Y10.446700
G1X30.027600Y10.304900
G1X29.973400Y10.174000
G1X29.970100Y10.169000
G1X29.948300Y10.113500
G1X29.926500Y10.061000
G1X29.925400Y10.055400
G1X29.874600Y9.926400
G1X29.772100Y9.823900
G1X29.767500Y9.820700
G1X29.728900Y9.780700
G1X29.685900Y9.737700
G1X29.682600Y9.732600
G1X29.563000Y9.608700
G1X29.544900Y9.596700
G1X29.540800Y9.592500
G1X29.535800Y9.589100
G1X29.495400Y9.547100
G1X27.176900Y7.228700
G1X27.176300Y7.228300
G1X27.116500Y7.168300
G1X27.086700Y7.138500
G1X27.086500Y7.138200
G1X27.085900Y7.137600
G1X27.033400Y7.058500
G1X27.015600Y7.032000
G1X27.015500Y7.031700
G1X27.015000Y7.031000
G1X26.983300Y6.953800
G1X26.966600Y6.913800
G1X26.966500Y6.913300
G1X26.966200Y6.912600
G1X26.953100Y6.845600
G1X26.950800Y6.834100
G1X26.198800Y6.079400
G1X25.146800Y6.077600
G1X24.401500Y6.820300
G1X24.399700Y7.872300
G1X25.142400Y8.617600
G1X25.406600Y8.618000
G1X25.464600Y8.618000
G1X25.465000Y8.618100
G1X25.465700Y8.618100
G1X25.534200Y8.631900
G1X25.590200Y8.643000
G1X25.590600Y8.643200
G1X25.591200Y8.643300
G1X25.659600Y8.671800
G1X25.708400Y8.692000
G1X25.708700Y8.692300
G1X25.709400Y8.692500
G1X25.763200Y8.728700
G1X25.814900Y8.763100
G1X25.815300Y8.763600
G1X25.815700Y8.763800
G1X25.846300Y8.794600
G1X27.732200Y10.680500
G1X27.736800Y10.683600
G1X27.775600Y10.723900
G1X27.818400Y10.766600
G1X27.821700Y10.771600
G1X27.825700Y10.775700
G1X27.857000Y10.824500
G1X27.889500Y10.873100
G1X27.891700Y10.878500
G1X27.894900Y10.883400
G1X27.916300Y10.937800
G1X27.938500Y10.991300
G1X27.939600Y10.997100
G1X27.941800Y11.002500
G1X27.952000Y11.059200
G1X27.963500Y11.116900
G1X27.963500Y11.123000
G1X27.964500Y11.128500
G1X27.963500Y11.184700
G1X27.963500Y11.245000
G1X27.962300Y11.250900
G1X27.892000Y15.195500
G1X27.892000Y15.251800
G1X27.891000Y15.256700
G1X27.890900Y15.262200
G1X27.878500Y15.318900
G1X27.866800Y15.377300
G1X27.864600Y15.382400
G1X27.863600Y15.387300
G1X27.840500Y15.440300
G1X27.817600Y15.495500
G1X27.814700Y15.499700
G1X27.812600Y15.504700
G1X27.779700Y15.551900
G1X27.746300Y15.601800
G1X27.742200Y15.605800
G1X27.739500Y15.609800
G1X27.700500Y15.647300
G1X27.655600Y15.692200
G1X27.650800Y15.695300
G1X27.647400Y15.698700
G1X27.601000Y15.728500
G1X27.549000Y15.763100
G1X27.543900Y15.765200
G1X27.539700Y15.767900
G1X27.487000Y15.788600
G1X27.430600Y15.811900
G1X27.425300Y15.812900
G1X27.420600Y15.814800
G1X27.363900Y15.825000
G1X27.305000Y15.836600
G1X27.299600Y15.836500
G1X27.294600Y15.837500
G1X27.235800Y15.836400
G1X27.176900Y15.836400
G1X27.171900Y15.835300
G1X27.166500Y15.835300
G1X27.109800Y15.822900
G1X27.051400Y15.811200
G1X27.046300Y15.809000
G1X27.041400Y15.808000
G1X26.988400Y15.784900
G1X26.933200Y15.762000
G1X26.929000Y15.759100
G1X26.924000Y15.757000
G1X26.876800Y15.724100
G1X26.838000Y15.698100
G1X25.782400Y15.696300
G1X25.037100Y16.439000
G1X25.035300Y17.490900
G1X25.093000Y17.548900
G1X25.145100Y17.600900
G1X25.145500Y17.601500
G1X25.145800Y17.601800
G1X25.188600Y17.666100
G1X25.216200Y17.707400
G1X25.216300Y17.707700
G1X25.216800Y17.708400
G1X25.254500Y17.799900
G1X25.265200Y17.825600
G1X25.265200Y17.825900
G1X25.265600Y17.826700
G1X25.280600Y17.903000
G1X25.290200Y17.951200
G1X25.290200Y17.951800
G1X25.290300Y17.952300
G1X25.290200Y18.017100
G1X25.290200Y25.611600
G1X25.290200Y26.081300
G1X25.444800Y26.454500
G1X26.711100Y27.720800
G1X26.711400Y27.721000
G1X26.741000Y27.750800
G1X26.801100Y27.810800
G1X26.801500Y27.811400
G1X26.801800Y27.811700
G1X26.871200Y27.915900
G1X26.872200Y27.917300
G1X26.872800Y27.918200
G1X26.901500Y27.988000
G1X26.921200Y28.035500
G1X26.921300Y28.036300
G1X26.921500Y28.036600
G1X26.931400Y28.086800
G1X26.946200Y28.161100
G1X26.946200Y28.161700
G1X26.946300Y28.162200
G1X26.946200Y28.222100
G1X26.946200Y28.289200
G1X26.946100Y28.289700
G1X26.946000Y28.313300
G1X27.021500Y28.389100
G1X27.051400Y28.418900
G1X27.051600Y28.419200
G1X27.052100Y28.419700
G1X27.096500Y28.486600
G1X27.122500Y28.525400
G1X27.122600Y28.525800
G1X27.123000Y28.526300
G1X27.148900Y28.589100
G1X27.171500Y28.643600
G1X27.171600Y28.644200
G1X27.171800Y28.644600
G1X27.184400Y28.708800
G1X27.196500Y28.769200
G1X27.196500Y28.769700
G1X27.196600Y28.770200
G1X27.196500Y28.835000
G1X27.196500Y28.897300
G1X27.196400Y28.897700
G1X27.196400Y28.898300
G1X27.183800Y28.961200
G1X27.171500Y29.022900
G1X27.171300Y29.023300
G1X27.171200Y29.023900
G1X27.142700Y29.092300
G1X27.122500Y29.141100
G1X27.122300Y29.141400
G1X27.122000Y29.142100
G1X27.070500Y29.219000
G1X27.051400Y29.247600
G1X27.051200Y29.247800
G1X27.050800Y29.248400
G1X26.989800Y29.309100
G1X26.960900Y29.338100
G1X26.960600Y29.338300
G1X26.960100Y29.338800
G1X26.893200Y29.383200
G1X26.854400Y29.409200
G1X26.854000Y29.409300
G1X26.853500Y29.409700
G1X26.790700Y29.435600
G1X26.736200Y29.458200
G1X26.735600Y29.458300
G1X26.735200Y29.458500
G1X26.671000Y29.471100
G1X26.610600Y29.483200
G1X26.610100Y29.483200
G1X26.609600Y29.483300
G1X26.544800Y29.483200
G1X24.323700Y29.483200
G1X24.323200Y29.483300
G1X24.259900Y29.483200
G1X24.196200Y29.483200
G1X24.195700Y29.483100
G1X24.195100Y29.483100
G1X24.127900Y29.469600
G1X24.070600Y29.458200
G1X24.070200Y29.458000
G1X24.069600Y29.457900
G1X24.002600Y29.430000
G1X23.952400Y29.409200
G1X23.952100Y29.409000
G1X23.951400Y29.408700
G1X23.885100Y29.364200
G1X23.845900Y29.338100
G1X23.845600Y29.337800
G1X23.845000Y29.337400
G1X23.800200Y29.292400
G1X23.755400Y29.247600
G1X23.755000Y29.247000
G1X23.754700Y29.246700
G1X23.685300Y29.142500
G1X23.684300Y29.141100
G1X23.683700Y29.140200
G1X23.644800Y29.045700
G1X23.635300Y29.022900
G1X23.635300Y29.022600
G1X23.634900Y29.021800
G1X23.620100Y28.946400
G1X23.610300Y28.897300
G1X23.610300Y28.896700
G1X23.610200Y28.896200
G1X23.610300Y28.832900
G1X23.610300Y28.769200
G1X23.610400Y28.768700
G1X23.610400Y28.768100
G1X23.623900Y28.700900
G1X23.635300Y28.643600
G1X23.635500Y28.643200
G1X23.635600Y28.642600
G1X23.663500Y28.575600
G1X23.684300Y28.525400
G1X23.684500Y28.525100
G1X23.684800Y28.524400
G1X23.729300Y28.458100
G1X23.755400Y28.418900
G1X23.755700Y28.418600
G1X23.756100Y28.418000
G1X23.756200Y28.418000
G1X23.758000Y27.366000
G1X23.015300Y26.620700
G1X21.963300Y26.618900
G1X21.218000Y27.361600
G1X21.216200Y28.413400
G1X21.221700Y28.418800
G1X21.221900Y28.419100
G1X21.222400Y28.419600
G1X21.266800Y28.486500
G1X21.292800Y28.525300
G1X21.292900Y28.525700
G1X21.293300Y28.526200
G1X21.319200Y28.589200
G1X21.341800Y28.643600
G1X21.341900Y28.644200
G1X21.342100Y28.644600
G1X21.353600Y28.702900
G1X21.366800Y28.769100
G1X21.366800Y28.769700
G1X21.366900Y28.770200
G1X21.366800Y28.835000
G1X21.366800Y28.897200
G1X21.366700Y28.897600
G1X21.366700Y28.898300
G1X21.352900Y28.966800
G1X21.341800Y29.022800
G1X21.341600Y29.023200
G1X21.341500Y29.023800
G1X21.318000Y29.080300
G1X21.292800Y29.141100
G1X21.292400Y29.141600
G1X21.292300Y29.142000
G1X21.264800Y29.182900
G1X21.221700Y29.247500
G1X21.221200Y29.248000
G1X21.221000Y29.248300
G1X21.175000Y29.294200
G1X21.131200Y29.338000
G1X21.130900Y29.338200
G1X21.130400Y29.338700
G1X21.063500Y29.383100
G1X21.024700Y29.409100
G1X21.024300Y29.409200
G1X21.023800Y29.409600
G1X20.960800Y29.435500
G1X20.906400Y29.458100
G1X20.905800Y29.458200
G1X20.905400Y29.458400
G1X20.847100Y29.469900
G1X20.780900Y29.483100
G1X20.780300Y29.483100
G1X20.779800Y29.483200
G1X20.713800Y29.483100
G1X17.563900Y29.483000
G1X17.563500Y29.483100
G1X17.501400Y29.483000
G1X17.436600Y29.483000
G1X17.436100Y29.482900
G1X17.435400Y29.482900
G1X17.349000Y29.465500
G1X17.311000Y29.458000
G1X17.310800Y29.457900
G1X17.309800Y29.457700
G1X17.249400Y29.432500
G1X17.192700Y29.409000
G1X17.192000Y29.408500
G1X17.191700Y29.408400
G1X17.165100Y29.390500
G1X17.086300Y29.337900
G1X17.085700Y29.337300
G1X17.085400Y29.337100
G1X17.055800Y29.307300
G1X16.995800Y29.247400
G1X16.995400Y29.246800
G1X16.995000Y29.246400
G1X16.960200Y29.194000
G1X16.924700Y29.140900
G1X16.924500Y29.140300
G1X16.924100Y29.139800
G1X16.889200Y29.055100
G1X16.875700Y29.022600
G1X16.875700Y29.022300
G1X16.875300Y29.021500
G1X16.861500Y28.950900
G1X16.850700Y28.897100
G1X16.850700Y28.896400
G1X16.850600Y28.895900
G1X16.850700Y28.832600
G1X16.850700Y28.769000
G1X16.850800Y28.768500
G1X16.850800Y28.767800
G1X16.868200Y28.681400
G1X16.875700Y28.643400
G1X16.875800Y28.643200
G1X16.876000Y28.642200
G1X16.901200Y28.581800
G1X16.924700Y28.525100
G1X16.925200Y28.524400
G1X16.925300Y28.524100
G1X16.943200Y28.497500
G1X16.995800Y28.418700
G1X16.996400Y28.418100
G1X16.996600Y28.417800
G1X17.023300Y28.391300
G1X17.086300Y28.328200
G1X17.087000Y28.327800
G1X17.247200Y28.168200
G1X17.249200Y26.958200
G1X17.274400Y26.832700
G1X17.323600Y26.714500
G1X17.394900Y26.608200
G1X17.485600Y26.517800
G1X17.592100Y26.446800
G1X17.710500Y26.398100
G1X17.836100Y26.373300
G1X17.964200Y26.373500
G1X19.046300Y26.375400
G1X19.791600Y25.632700
G1X19.793400Y24.580700
G1X19.735700Y24.522800
G1X19.683600Y24.470800
G1X19.683200Y24.470200
G1X19.682900Y24.469900
G1X19.640200Y24.405600
G1X19.612500Y24.364300
G1X19.612400Y24.364000
G1X19.611900Y24.363300
G1X19.574200Y24.271800
G1X19.563500Y24.246100
G1X19.563500Y24.245800
G1X19.563100Y24.245000
G1X19.548100Y24.168700
G1X19.538500Y24.120500
G1X19.538500Y24.119900
G1X19.538400Y24.119400
G1X19.538500Y24.054600
G1X19.538500Y23.946000
G1X19.384000Y23.572800
G1X18.961400Y23.150300
G1X14.862300Y19.051200
G1X14.862000Y19.051000
G1X14.832400Y19.021200
G1X14.772300Y18.961200
G1X14.771900Y18.960600
G1X14.771600Y18.960300
G1X14.702200Y18.856100
G1X14.701200Y18.854700
G1X14.700600Y18.853800
G1X14.671900Y18.784000
G1X14.652200Y18.736500
G1X14.652100Y18.735700
G1X14.651900Y18.735400
G1X14.642000Y18.685200
G1X14.627200Y18.610900
G1X14.627200Y18.610300
G1X14.627100Y18.609800
G1X14.627200Y18.549900
G1X14.627200Y18.482800
G1X14.627300Y18.482300
G1X14.627400Y18.458500
G1X13.884700Y17.713200
G1X12.832700Y17.711400
G1X12.593400Y17.949900
G1X12.593300Y17.950200
G1X12.502600Y18.040600
G1X12.439400Y18.082500
G1X12.396100Y18.111500
G1X12.345800Y18.132100
G1X12.277600Y18.160300
G1X12.178200Y18.179800
G1X12.152100Y18.185000
G1X12.024000Y18.184800
G1X12.023900Y18.184800
G1X11.898400Y18.159600
G1X11.780200Y18.110400
G1X11.673900Y18.039100
G1X11.344800Y17.708700
G1X10.292800Y17.706900
G1X9.547500Y18.449600
G1X9.545700Y19.501600
G1X10.288400Y20.246900
G1X11.340300Y20.248700
G1X11.579600Y20.010200
G1X11.579800Y20.009900
G1X11.670500Y19.919500
G1X11.733600Y19.877500
G1X11.777000Y19.848600
G1X11.827200Y19.828000
G1X11.895500Y19.799800
G1X11.994900Y19.780300
G1X12.021000Y19.775100
G1X12.149100Y19.775300
G1X12.149200Y19.775300
G1X12.274700Y19.800500
G1X12.392900Y19.849700
G1X12.499200Y19.921000
G1X12.828300Y20.251400
G1X12.924200Y20.251500
G1X12.983700Y20.251500
G1X12.984100Y20.251600
G1X12.984800Y20.251600
G1X13.053300Y20.265400
G1X13.109300Y20.276500
G1X13.109700Y20.276700
G1X13.110300Y20.276800
G1X13.166800Y20.300300
G1X13.227600Y20.325500
G1X13.228100Y20.325800
G1X13.228500Y20.326000
G1X13.269400Y20.353500
G1X13.334000Y20.396600
G1X13.334500Y20.397100
G1X13.334800Y20.397300
G1X13.365600Y20.428300
G1X17.018300Y24.081000
G1X17.018600Y24.081200
G1X17.047800Y24.110500
G1X17.108300Y24.171000
G1X17.108700Y24.171600
G1X17.109000Y24.171900
G1X17.143700Y24.224000
G1X17.179400Y24.277500
G1X17.179500Y24.277900
G1X17.179900Y24.278400
G1X17.201600Y24.331000
G1X17.228400Y24.395700
G1X17.228500Y24.396500
G1X17.228700Y24.396800
G1X17.238600Y24.447000
G1X17.253400Y24.521300
G1X17.253400Y24.521900
G1X17.253500Y24.522400
G1X17.253400Y24.582000
G1X17.253400Y24.649400
G1X17.253300Y24.649900
G1X17.251400Y25.786300
G1X17.226200Y25.911800
G1X17.177000Y26.030000
G1X17.105700Y26.136300
G1X17.015000Y26.226700
G1X17.013600Y26.227600
G1X16.908500Y26.297700
G1X16.791500Y26.345800
G1X16.790100Y26.346400
