(This GCode generated with outlines_gcode_excel_mirrored.ulp program)
(running under Eagle CAD.)
(Use with mechanical etching/engraving bits, such as the)
(Think&Tinker Mechanical Etching Bit with 60-degree tip angle)
(X/Y/Z home should be at lower left corner of the board, with the tip just touching)
(C:/Users/Owner/Documents/eagle/nixieclock_power/untitledpattern_top_0p3mm.nc layer 1)

(mm, Absolute mode, lift cutter above work, rapid to X/Y home, turn spindle on.)
G90
G0Z0.500
G0X0Y0
M03

(Begin)
G0Z0.500
G0X13.003200Y5.255400
G1Z-0.100 f25
G1X13.965200Y6.220800 f200
G1X15.327800Y6.223200
G1X16.293200Y5.261200
G1X16.295600Y3.898600
G1X15.333600Y2.933200
G1X13.971000Y2.930800
G1X13.005600Y3.892800
G1X13.003200Y5.255400

G0Z0.500
G0X14.287000Y3.697500
G1Z-0.100 f25
G1X15.015000Y3.698800 f200
G1X15.529000Y4.214600
G1X15.527700Y4.942600
G1X15.011900Y5.456600
G1X14.283900Y5.455300
G1X13.769900Y4.939500
G1X13.771200Y4.211500
G1X14.287000Y3.697500

G0Z0.500
G0X49.452200Y19.777500
G1Z-0.100 f25
G1X49.495200Y19.820500 f200
G1X49.503400Y19.828700
G1X49.539600Y19.891400
G1X49.558300Y19.961300
G1X49.558300Y20.033800
G1X49.539600Y20.103700
G1X49.503400Y20.166400
G1X49.452200Y20.217600
G1X49.083500Y20.586300
G1X49.083500Y21.948900
G1X50.047200Y22.912600
G1X51.409800Y22.912600
G1X52.373500Y21.948900
G1X52.373500Y20.611300
G1X52.392200Y20.541400
G1X52.428400Y20.478700
G1X52.479600Y20.427500
G1X52.542300Y20.391300
G1X52.612200Y20.372600
G1X52.684700Y20.372600
G1X53.949800Y20.372600
G1X54.913500Y19.408900
G1X54.913500Y18.046200
G1X53.949900Y17.082600
G1X52.587200Y17.082600
G1X52.167300Y17.502500
G1X52.104600Y17.538700
G1X52.034700Y17.557400
G1X51.962200Y17.557400
G1X51.892300Y17.538700
G1X51.829600Y17.502500
G1X51.778400Y17.451300
G1X51.778400Y17.451200
G1X51.409800Y17.082600
G1X50.047200Y17.082600
G1X49.083500Y18.046300
G1X49.083500Y19.408900
G1X49.452100Y19.777500
G1X49.452200Y19.777500

G0Z0.500
G0X51.607500Y18.363600
G1Z-0.100 f25
G1X51.607500Y19.091700 f200
G1X51.092600Y19.606600
G1X50.364500Y19.606600
G1X49.849600Y19.091700
G1X49.849600Y18.363600
G1X50.364500Y17.848700
G1X51.092600Y17.848700
G1X51.607500Y18.363600

G0Z0.500
G0X54.147500Y18.363600
G1Z-0.100 f25
G1X54.147500Y19.091700 f200
G1X53.632600Y19.606600
G1X52.904500Y19.606600
G1X52.389600Y19.091700
G1X52.389600Y18.363600
G1X52.904500Y17.848700
G1X53.632600Y17.848700
G1X54.147500Y18.363600

G0Z0.500
G0X51.607500Y20.903600
G1Z-0.100 f25
G1X51.607500Y21.631700 f200
G1X51.092600Y22.146600
G1X50.364500Y22.146600
G1X49.849600Y21.631700
G1X49.849600Y20.903600
G1X50.364500Y20.388700
G1X51.092600Y20.388700
G1X51.607500Y20.903600

G0Z0.500
G0X47.802700Y3.821400
G1Z-0.100 f25
G1X47.805100Y2.458800 f200
G1X46.843100Y1.493400
G1X45.480500Y1.491000
G1X44.574500Y2.393900
G1X44.574500Y2.394000
G1X44.526900Y2.441400
G1X44.523200Y2.445100
G1X44.521300Y2.446100
G1X44.460400Y2.481200
G1X44.391500Y2.499500
G1X44.390500Y2.499800
G1X44.318000Y2.499600
G1X44.248100Y2.480800
G1X44.185500Y2.444500
G1X44.179000Y2.437900
G1X43.230700Y1.486100
G1X41.868100Y1.483700
G1X41.496500Y1.854000
G1X41.496500Y1.854100
G1X41.450200Y1.900100
G1X41.445200Y1.905200
G1X41.382500Y1.941300
G1X41.312500Y1.959900
G1X41.240000Y1.959700
G1X41.170100Y1.940900
G1X41.107500Y1.904600
G1X41.100900Y1.897900
G1X40.696800Y1.492300
G1X39.334200Y1.489900
G1X38.975900Y1.847000
G1X38.975900Y1.847100
G1X38.928400Y1.894400
G1X38.924600Y1.898200
G1X38.923800Y1.898600
G1X38.861900Y1.934300
G1X38.792600Y1.952600
G1X38.791900Y1.952900
G1X38.719400Y1.952700
G1X38.716500Y1.951900
G1X38.649500Y1.933900
G1X38.588300Y1.898400
G1X38.586900Y1.897600
G1X38.582200Y1.892800
G1X38.162400Y1.471500
G1X36.799800Y1.469100
G1X35.834400Y2.431100
G1X35.832000Y3.793700
G1X36.200000Y4.162900
G1X36.200100Y4.162900
G1X36.247900Y4.211000
G1X36.251200Y4.214200
G1X36.252200Y4.216100
G1X36.287300Y4.277000
G1X36.305600Y4.345900
G1X36.305900Y4.346900
G1X36.305700Y4.419400
G1X36.304900Y4.422300
G1X36.286900Y4.489300
G1X36.251400Y4.550500
G1X36.250600Y4.551900
G1X36.245300Y4.557100
G1X35.829900Y4.971000
G1X35.827500Y6.333600
G1X36.789500Y7.299000
G1X36.898000Y7.299200
G1X36.898400Y7.299100
G1X36.970900Y7.299300
G1X37.040800Y7.318100
G1X37.103400Y7.354400
G1X37.154500Y7.405700
G1X37.190600Y7.468500
G1X37.209200Y7.538400
G1X37.209000Y7.610900
G1X37.190200Y7.680800
G1X37.153900Y7.743400
G1X36.682900Y8.212600
G1X36.680600Y9.575200
G1X37.048600Y9.944500
G1X37.048700Y9.944500
G1X37.096600Y9.992600
G1X37.099800Y9.995800
G1X37.100900Y9.997700
G1X37.135900Y10.058600
G1X37.154200Y10.127500
G1X37.154500Y10.128500
G1X37.154300Y10.201000
G1X37.153500Y10.203900
G1X37.135500Y10.270900
G1X37.100000Y10.332100
G1X37.099200Y10.333500
G1X37.093900Y10.338700
G1X36.678500Y10.752600
G1X36.676100Y12.115200
G1X37.044200Y12.484500
G1X37.044300Y12.484500
G1X37.092200Y12.532600
G1X37.095400Y12.535800
G1X37.096500Y12.537700
G1X37.131500Y12.598600
G1X37.149800Y12.667500
G1X37.150100Y12.668500
G1X37.149900Y12.741000
G1X37.149100Y12.743900
G1X37.131100Y12.810900
G1X37.095600Y12.872100
G1X37.094800Y12.873500
G1X37.079900Y12.888300
G1X36.674000Y13.292600
G1X36.671600Y14.655200
G1X37.039700Y15.024500
G1X37.039800Y15.024500
G1X37.087700Y15.072600
G1X37.090900Y15.075800
G1X37.092000Y15.077700
G1X37.127000Y15.138600
G1X37.145300Y15.207500
G1X37.145600Y15.208500
G1X37.145400Y15.281000
G1X37.144600Y15.283900
G1X37.126600Y15.350900
G1X37.091100Y15.412100
G1X37.090300Y15.413500
G1X37.085000Y15.418700
G1X36.669600Y15.832600
G1X36.667200Y17.195200
G1X37.629200Y18.160600
G1X38.883500Y18.162700
G1X38.883700Y18.162600
G1X38.955300Y18.162800
G1X38.956100Y18.162800
G1X38.956200Y18.162800
G1X39.026100Y18.181600
G1X39.087300Y18.217100
G1X39.088700Y18.217900
G1X39.139800Y18.269200
G1X39.140800Y18.271100
G1X39.175900Y18.332000
G1X39.194200Y18.400900
G1X39.194500Y18.401900
G1X39.194300Y18.474300
G1X39.194300Y18.474400
G1X39.175500Y18.544300
G1X39.140000Y18.605500
G1X39.139200Y18.606900
G1X39.133900Y18.612100
G1X38.440800Y19.302700
G1X38.438400Y20.665300
G1X39.400400Y21.630700
G1X40.763000Y21.633100
G1X41.728400Y20.671100
G1X41.730800Y19.308500
G1X40.768800Y18.343100
G1X39.514500Y18.341000
G1X39.514300Y18.341100
G1X39.442700Y18.340900
G1X39.441900Y18.340900
G1X39.441800Y18.340900
G1X39.371900Y18.322100
G1X39.310700Y18.286600
G1X39.309300Y18.285800
G1X39.258200Y18.234500
G1X39.257200Y18.232600
G1X39.222100Y18.171700
G1X39.203800Y18.102800
G1X39.203500Y18.101800
G1X39.203700Y18.029400
G1X39.203700Y18.029300
G1X39.222500Y17.959400
G1X39.258000Y17.898200
G1X39.258800Y17.896800
G1X39.264100Y17.891600
G1X39.957200Y17.201000
G1X39.959600Y15.838400
G1X39.591500Y15.469100
G1X39.591400Y15.469100
G1X39.543500Y15.421000
G1X39.540300Y15.417800
G1X39.539300Y15.415900
G1X39.504200Y15.355000
G1X39.485900Y15.286100
G1X39.485600Y15.285100
G1X39.485800Y15.212600
G1X39.486600Y15.209700
G1X39.504600Y15.142700
G1X39.540100Y15.081500
G1X39.540900Y15.080100
G1X39.546200Y15.074900
G1X39.961600Y14.661000
G1X39.961800Y14.540800
G1X39.960100Y14.532600
G1X39.960900Y14.520000
G1X39.959600Y14.509200
G1X39.961900Y14.493600
G1X39.961900Y14.476200
G1X39.964000Y14.468400
G1X39.964500Y14.460200
G1X39.968400Y14.448500
G1X39.970000Y14.437500
G1X39.976200Y14.423200
G1X39.980700Y14.406300
G1X39.984900Y14.399200
G1X39.987400Y14.391500
G1X39.994300Y14.381100
G1X39.998600Y14.371000
G1X40.008300Y14.358900
G1X40.017000Y14.343700
G1X40.022600Y14.338200
G1X40.027200Y14.331100
G1X40.037100Y14.322500
G1X40.043500Y14.314200
G1X40.055600Y14.305300
G1X40.068200Y14.292600
G1X40.075300Y14.288600
G1X40.081400Y14.283100
G1X40.093200Y14.277200
G1X40.101500Y14.271000
G1X40.115400Y14.265500
G1X40.131000Y14.256500
G1X40.138600Y14.254500
G1X40.146100Y14.250700
G1X40.159300Y14.248100
G1X40.168800Y14.244200
G1X40.183400Y14.242500
G1X40.200900Y14.237800
G1X40.209100Y14.237900
G1X40.217000Y14.236200
G1X40.230300Y14.237000
G1X40.240700Y14.235800
G1X40.255500Y14.238000
G1X40.273400Y14.238000
G1X40.281200Y14.240100
G1X40.289400Y14.240600
G1X40.301400Y14.244600
G1X40.312400Y14.246200
G1X40.326500Y14.252300
G1X40.343300Y14.256800
G1X40.350400Y14.261000
G1X40.358100Y14.263500
G1X40.368300Y14.270300
G1X40.378900Y14.274800
G1X40.391400Y14.284800
G1X40.405900Y14.293100
G1X40.411400Y14.298700
G1X40.418500Y14.303300
G1X40.426700Y14.312700
G1X40.435700Y14.319700
G1X40.445200Y14.332600
G1X40.457000Y14.344300
G1X40.461000Y14.351400
G1X40.466500Y14.357500
G1X40.471900Y14.368400
G1X40.478900Y14.377700
G1X40.484900Y14.393000
G1X40.493100Y14.407100
G1X40.495100Y14.414700
G1X40.499000Y14.422400
G1X40.501400Y14.434300
G1X40.505700Y14.445000
G1X40.507600Y14.461400
G1X40.511800Y14.477000
G1X40.511700Y14.485000
G1X40.513500Y14.493300
G1X40.513100Y14.499500
G1X40.556000Y14.576000
G1X40.566000Y14.589000
G1X40.573600Y14.607500
G1X40.583400Y14.624900
G1X40.587400Y14.640900
G1X40.674700Y14.852000
G1X40.704300Y14.881500
G1X40.705900Y14.882400
G1X40.729800Y14.907000
G1X40.754000Y14.931100
G1X40.754900Y14.932700
G1X40.756400Y14.934200
G1X40.775200Y14.967900
G1X40.790200Y14.993800
G1X40.790600Y14.995500
G1X43.226000Y19.350000
G1X43.504100Y19.629000
G1X43.503700Y19.846500
G1X44.241000Y21.164900
G1X44.259700Y21.197200
G1X44.260100Y21.199100
G1X44.260900Y21.200300
G1X44.268700Y21.231400
G1X44.278300Y21.267200
G1X44.278200Y21.268900
G1X44.278700Y21.270500
G1X44.278100Y21.307600
G1X44.278100Y21.339700
G1X44.277700Y21.341000
G1X44.277700Y21.342900
G1X44.268100Y21.376600
G1X44.259300Y21.409600
G1X44.258400Y21.411100
G1X44.258000Y21.412600
G1X44.242100Y21.439100
G1X44.223000Y21.472200
G1X44.221600Y21.473500
G1X44.220900Y21.474800
G1X44.197200Y21.497800
G1X44.050900Y21.643600
G1X44.048500Y23.006200
G1X45.010500Y23.971600
G1X46.373000Y23.974000
G1X47.338500Y23.012000
G1X47.340800Y21.649400
G1X47.162300Y21.470300
G1X47.145100Y21.453100
G1X47.145000Y21.452800
G1X47.144500Y21.452400
G1X47.122200Y21.413500
G1X47.108800Y21.390500
G1X47.108700Y21.390100
G1X47.108400Y21.389600
G1X47.093600Y21.334000
G1X47.090000Y21.320600
G1X47.090000Y21.320400
G1X47.089800Y21.319700
G1X47.089900Y21.277300
G1X47.089800Y21.185700
G1X47.089200Y21.183600
G1X47.089700Y21.149800
G1X47.089600Y21.115300
G1X47.090200Y21.113200
G1X47.090200Y21.111100
G1X47.099900Y21.076900
G1X47.108300Y21.045400
G1X47.109300Y21.043800
G1X47.112300Y21.033100
G1X47.093600Y20.874600
G1X47.089300Y20.858700
G1X47.089300Y20.838000
G1X47.087000Y20.818500
G1X47.089300Y20.802900
G1X47.089200Y20.642900
G1X47.085100Y20.633100
G1X47.083700Y20.631300
G1X47.071100Y20.599500
G1X47.058100Y20.568300
G1X47.057800Y20.565900
G1X47.057000Y20.564000
G1X47.053400Y20.532900
G1X47.048500Y20.496600
G1X47.048800Y20.494100
G1X47.047600Y20.483500
G1X46.969400Y20.343800
G1X46.959700Y20.331300
G1X46.952200Y20.313200
G1X46.942100Y20.295200
G1X46.938000Y20.279000
G1X46.876900Y20.131900
G1X46.869300Y20.124300
G1X46.867400Y20.123200
G1X46.843500Y20.098600
G1X46.819600Y20.074900
G1X46.818600Y20.073100
G1X46.816900Y20.071400
G1X46.798800Y20.038900
G1X46.783300Y20.012300
G1X46.782800Y20.010400
G1X44.135800Y15.277500
G1X44.118200Y15.246900
G1X44.117800Y15.245200
G1X44.117000Y15.243900
G1X44.108900Y15.211700
G1X44.099600Y15.177000
G1X44.099600Y15.175300
G1X44.099200Y15.173700
G1X44.099700Y15.136600
G1X44.099800Y15.104500
G1X44.100200Y15.103200
G1X44.100200Y15.101300
G1X44.109800Y15.067600
G1X44.118600Y15.034600
G1X44.119500Y15.033100
G1X44.119900Y15.031600
G1X44.135800Y15.005100
G1X44.154900Y14.972000
G1X44.156300Y14.970700
G1X44.157000Y14.969400
G1X44.181100Y14.946000
G1X44.206200Y14.920900
G1X44.207600Y14.920200
G1X44.208800Y14.918900
G1X44.239900Y14.901600
G1X44.269000Y14.884800
G1X44.270700Y14.884400
G1X44.272000Y14.883600
G1X44.304200Y14.875500
G1X44.338900Y14.866200
G1X44.340600Y14.866200
G1X44.342200Y14.865800
G1X44.379300Y14.866300
G1X44.411400Y14.866400
G1X44.412700Y14.866800
G1X44.414600Y14.866800
G1X44.448300Y14.876400
G1X44.481300Y14.885200
G1X44.482800Y14.886100
G1X44.484300Y14.886500
G1X44.510800Y14.902400
G1X44.543900Y14.921500
G1X44.545200Y14.922900
G1X44.546500Y14.923600
G1X44.569600Y14.947400
G1X45.253600Y15.633900
G1X46.616200Y15.636300
G1X47.581600Y14.674300
G1X47.584000Y13.311700
G1X47.215900Y12.942400
G1X47.215800Y12.942400
G1X47.167900Y12.894300
G1X47.164700Y12.891100
G1X47.163700Y12.889200
G1X47.128600Y12.828300
G1X47.110300Y12.759400
G1X47.110000Y12.758400
G1X47.110200Y12.685900
G1X47.111000Y12.683000
G1X47.129000Y12.616000
G1X47.164500Y12.554800
G1X47.165300Y12.553400
G1X47.180200Y12.538600
G1X47.586100Y12.134300
G1X47.588500Y10.771700
G1X47.220400Y10.402400
G1X47.220300Y10.402400
G1X47.172400Y10.354300
G1X47.169200Y10.351100
G1X47.168200Y10.349200
G1X47.133100Y10.288300
G1X47.114800Y10.219400
G1X47.114500Y10.218400
G1X47.114700Y10.145900
G1X47.115500Y10.143000
G1X47.133500Y10.076000
G1X47.169000Y10.014800
G1X47.169800Y10.013400
G1X47.175100Y10.008200
G1X47.590500Y9.594300
G1X47.592900Y8.231700
G1X46.630900Y7.266300
G1X45.268300Y7.263900
G1X44.302900Y8.225900
G1X44.300500Y9.588500
G1X44.668600Y9.957800
G1X44.668700Y9.957800
G1X44.716500Y10.005900
G1X44.719800Y10.009100
G1X44.720800Y10.011000
G1X44.755900Y10.071900
G1X44.774200Y10.140800
G1X44.774500Y10.141800
G1X44.774300Y10.214300
G1X44.773500Y10.217200
G1X44.755500Y10.284200
G1X44.720000Y10.345400
G1X44.719200Y10.346800
G1X44.713900Y10.352000
G1X44.298500Y10.765900
G1X44.296100Y12.128500
G1X44.664200Y12.497800
G1X44.664300Y12.497800
G1X44.712100Y12.545900
G1X44.715400Y12.549100
G1X44.716400Y12.551000
G1X44.751500Y12.611900
G1X44.769800Y12.680800
G1X44.770100Y12.681800
G1X44.769900Y12.754300
G1X44.769100Y12.757200
G1X44.751100Y12.824200
G1X44.715600Y12.885400
G1X44.714800Y12.886800
G1X44.699800Y12.901600
G1X44.294000Y13.305900
G1X44.292000Y14.467600
G1X44.292500Y14.469400
G1X44.291900Y14.509000
G1X44.291900Y14.538600
G1X44.291500Y14.539900
G1X44.291500Y14.541800
G1X44.281700Y14.576400
G1X44.273100Y14.608400
G1X44.272200Y14.609800
G1X44.271800Y14.611500
G1X44.253300Y14.642500
G1X44.236800Y14.671100
G1X44.235600Y14.672200
G1X44.234800Y14.673700
G1X44.208500Y14.699200
G1X44.185500Y14.722200
G1X44.184100Y14.722900
G1X44.182900Y14.724200
G1X44.150500Y14.742200
G1X44.122800Y14.758200
G1X44.121300Y14.758600
G1X44.119700Y14.759500
G1X44.085000Y14.768200
G1X44.052800Y14.776900
G1X44.051000Y14.776800
G1X44.049500Y14.777300
G1X44.012600Y14.776700
G1X43.980300Y14.776700
G1X43.979000Y14.776300
G1X43.977100Y14.776300
G1X43.942500Y14.766500
G1X43.910500Y14.757900
G1X43.909100Y14.757000
G1X43.907400Y14.756600
G1X43.876400Y14.738100
G1X43.847800Y14.721600
G1X43.846700Y14.720400
G1X43.845200Y14.719600
G1X43.819700Y14.693300
G1X43.796700Y14.670300
G1X43.796000Y14.668900
G1X43.794700Y14.667700
G1X43.775800Y14.633700
G1X43.760700Y14.607600
G1X43.760400Y14.606200
G1X43.165900Y13.543200
G1X43.155800Y13.530200
G1X43.148100Y13.511400
G1X43.138400Y13.494200
G1X43.134500Y13.478500
G1X43.047100Y13.267200
G1X43.017700Y13.237800
G1X43.015700Y13.236700
G1X42.989900Y13.210000
G1X42.967800Y13.188100
G1X42.966900Y13.186400
G1X42.965300Y13.184800
G1X42.946600Y13.151200
G1X42.939300Y13.138700
G1X42.868900Y13.083100
G1X42.854700Y13.074900
G1X42.840600Y13.060800
G1X42.824900Y13.048400
G1X42.815200Y13.035300
G1X42.653400Y12.873500
G1X42.615300Y12.857700
G1X42.613100Y12.857400
G1X42.580600Y12.843300
G1X42.550000Y12.830700
G1X42.548400Y12.829500
G1X42.546600Y12.828700
G1X42.520100Y12.807700
G1X42.504900Y12.796100
G1X42.418300Y12.771600
G1X42.402300Y12.769500
G1X42.384200Y12.762000
G1X42.364400Y12.756400
G1X42.350100Y12.747800
G1X42.139400Y12.660600
G1X42.097600Y12.660600
G1X42.095700Y12.661100
G1X42.059600Y12.660600
G1X42.027100Y12.660600
G1X42.025400Y12.660100
G1X42.023300Y12.660100
G1X41.989600Y12.650500
G1X41.972200Y12.645900
G1X41.883400Y12.656300
G1X41.867500Y12.660600
G1X41.847000Y12.660600
G1X41.827400Y12.662900
G1X41.811600Y12.660600
G1X41.582600Y12.660600
G1X41.544300Y12.676400
G1X41.542800Y12.677600
G1X41.511200Y12.690100
G1X41.479300Y12.703400
G1X41.477300Y12.703600
G1X41.475500Y12.704400
G1X41.442900Y12.708200
G1X41.422700Y12.710900
G1X41.344500Y12.754700
G1X41.331500Y12.764700
G1X41.313000Y12.772300
G1X41.295600Y12.782100
G1X41.279600Y12.786100
G1X41.068500Y12.873500
G1X41.039100Y12.902900
G1X41.038000Y12.904800
G1X41.013200Y12.928800
G1X40.989400Y12.952700
G1X40.987600Y12.953700
G1X40.986100Y12.955200
G1X40.954900Y12.972600
G1X40.939900Y12.981200
G1X40.884300Y13.051600
G1X40.876200Y13.065800
G1X40.862000Y13.079900
G1X40.849700Y13.095600
G1X40.836600Y13.105300
G1X40.674800Y13.267100
G1X40.659000Y13.305200
G1X40.658700Y13.307400
G1X40.644600Y13.339900
G1X40.632000Y13.370500
G1X40.630700Y13.372100
G1X40.630000Y13.373900
G1X40.609000Y13.400400
G1X40.597400Y13.415600
G1X40.572900Y13.502200
G1X40.570800Y13.518300
G1X40.563200Y13.536600
G1X40.557700Y13.556100
G1X40.549200Y13.570300
G1X40.499100Y13.691100
G1X40.494300Y13.709300
G1X40.485000Y13.725200
G1X40.478400Y13.741300
G1X40.467400Y13.755600
G1X40.458000Y13.771900
G1X40.445300Y13.784500
G1X40.434400Y13.798800
G1X40.419700Y13.810000
G1X40.406700Y13.823000
G1X40.390900Y13.832000
G1X40.376900Y13.842800
G1X40.360200Y13.849700
G1X40.343900Y13.859100
G1X40.326300Y13.863700
G1X40.310100Y13.870500
G1X40.292100Y13.872800
G1X40.274000Y13.877700
G1X40.256000Y13.877600
G1X40.238300Y13.880000
G1X40.219700Y13.877500
G1X40.201500Y13.877500
G1X40.184300Y13.872800
G1X40.166400Y13.870500
G1X40.149700Y13.863500
G1X40.131600Y13.858700
G1X40.115700Y13.849400
G1X40.099600Y13.842800
G1X40.085300Y13.831800
G1X40.069000Y13.822400
G1X40.056400Y13.809700
G1X40.042100Y13.798800
G1X40.030900Y13.784100
G1X40.017900Y13.771100
G1X40.008900Y13.755300
G1X39.998100Y13.741300
G1X39.991200Y13.724600
G1X39.981800Y13.708300
G1X39.977200Y13.690700
G1X39.970400Y13.674500
G1X39.968100Y13.656500
G1X39.963200Y13.638400
G1X39.963300Y13.620300
G1X39.960900Y13.602700
G1X39.963300Y13.584400
G1X39.963900Y13.298400
G1X39.595900Y12.929100
G1X39.595800Y12.929100
G1X39.548000Y12.881000
G1X39.544700Y12.877800
G1X39.543700Y12.875900
G1X39.508600Y12.815000
G1X39.490300Y12.746100
G1X39.490000Y12.745100
G1X39.490200Y12.672600
G1X39.491000Y12.669700
G1X39.509000Y12.602700
G1X39.544500Y12.541500
G1X39.545300Y12.540100
G1X39.560200Y12.525300
G1X39.966100Y12.121000
G1X39.968500Y10.758400
G1X39.600400Y10.389100
G1X39.600300Y10.389100
G1X39.552500Y10.341000
G1X39.549200Y10.337800
G1X39.548200Y10.335900
G1X39.513100Y10.275000
G1X39.494800Y10.206100
G1X39.494500Y10.205100
G1X39.494700Y10.132600
G1X39.495500Y10.129700
G1X39.513500Y10.062700
G1X39.549000Y10.001500
G1X39.549800Y10.000100
G1X39.555100Y9.994900
G1X39.970500Y9.581000
G1X39.972900Y8.218400
G1X39.571000Y7.815200
G1X39.570900Y7.815200
G1X39.522900Y7.766900
G1X39.519800Y7.763900
G1X39.483800Y7.701200
G1X39.465100Y7.631200
G1X39.465300Y7.558700
G1X39.484100Y7.488900
G1X39.520400Y7.426200
G1X39.571700Y7.375100
G1X39.634400Y7.339100
G1X39.704400Y7.320400
G1X39.705600Y7.320400
G1X40.686500Y7.322200
G1X41.058100Y6.951900
G1X41.058100Y6.951800
G1X41.104400Y6.905800
G1X41.109400Y6.900700
G1X41.172100Y6.864600
G1X41.242100Y6.846000
G1X41.314600Y6.846200
G1X41.384500Y6.865000
G1X41.447100Y6.901300
G1X41.453600Y6.908000
G1X41.857800Y7.313600
G1X43.220400Y7.316000
G1X44.185800Y6.354000
G1X44.188100Y4.991400
G1X43.820200Y4.622200
G1X43.820100Y4.622200
G1X43.772200Y4.574100
G1X43.769000Y4.570900
G1X43.733000Y4.508200
G1X43.714300Y4.438200
G1X43.714500Y4.365700
G1X43.733300Y4.295900
G1X43.769600Y4.233200
G1X43.772700Y4.230200
G1X44.130900Y3.873200
G1X44.130900Y3.873100
G1X44.179200Y3.825100
G1X44.182200Y3.822000
G1X44.184100Y3.821000
G1X44.245000Y3.785900
G1X44.313900Y3.767600
G1X44.314900Y3.767300
G1X44.387300Y3.767500
G1X44.387400Y3.767500
G1X44.457300Y3.786300
G1X44.518500Y3.821800
G1X44.519900Y3.822600
G1X44.526400Y3.829200
G1X45.474700Y4.781000
G1X46.837300Y4.783400
G1X47.802700Y3.821400

G0Z0.500
G0X45.062800Y11.812600
G1Z-0.100 f25
G1X45.064100Y11.084600 f200
G1X45.579900Y10.570600
G1X46.307900Y10.571900
G1X46.821900Y11.087700
G1X46.820600Y11.815700
G1X46.304800Y12.329700
G1X45.576800Y12.328400
G1X45.062800Y11.812600

G0Z0.500
G0X45.067200Y9.272600
G1Z-0.100 f25
G1X45.068500Y8.544600 f200
G1X45.584300Y8.030600
G1X46.312300Y8.031900
G1X46.826300Y8.547700
G1X46.825000Y9.275700
G1X46.309200Y9.789700
G1X45.581200Y9.788400
G1X45.067200Y9.272600

G0Z0.500
G0X45.058300Y14.352600
G1Z-0.100 f25
G1X45.059600Y13.624600 f200
G1X45.575400Y13.110600
G1X46.303400Y13.111900
G1X46.817400Y13.627700
G1X46.816100Y14.355700
G1X46.300300Y14.869700
G1X45.572300Y14.868400
G1X45.058300Y14.352600

G0Z0.500
G0X37.433900Y16.879300
G1Z-0.100 f25
G1X37.435200Y16.151300 f200
G1X37.951000Y15.637300
G1X38.679000Y15.638600
G1X39.193000Y16.154400
G1X39.191700Y16.882400
G1X38.675900Y17.396400
G1X37.947900Y17.395100
G1X37.433900Y16.879300

G0Z0.500
G0X37.438300Y14.339300
G1Z-0.100 f25
G1X37.439600Y13.611300 f200
G1X37.955400Y13.097300
G1X38.683400Y13.098600
G1X39.197400Y13.614400
G1X39.196100Y14.342400
G1X38.680300Y14.856400
G1X37.952300Y14.855100
G1X37.438300Y14.339300

G0Z0.500
G0X37.442800Y11.799300
G1Z-0.100 f25
G1X37.444100Y11.071300 f200
G1X37.959900Y10.557300
G1X38.687900Y10.558600
G1X39.201900Y11.074400
G1X39.200600Y11.802400
G1X38.684800Y12.316400
G1X37.956800Y12.315100
G1X37.442800Y11.799300

G0Z0.500
G0X37.447200Y9.259300
G1Z-0.100 f25
G1X37.448500Y8.531300 f200
G1X37.964300Y8.017300
G1X38.692300Y8.018600
G1X39.206300Y8.534400
G1X39.205000Y9.262400
G1X38.689200Y9.776400
G1X37.961200Y9.775100
G1X37.447200Y9.259300

G0Z0.500
G0X39.205100Y20.349400
G1Z-0.100 f25
G1X39.206400Y19.621400 f200
G1X39.722200Y19.107400
G1X40.450200Y19.108700
G1X40.964200Y19.624500
G1X40.962900Y20.352500
G1X40.447100Y20.866500
G1X39.719100Y20.865200
G1X39.205100Y20.349400

G0Z0.500
G0X46.231200Y20.593400
G1Z-0.100 f25
G1X46.252100Y20.624500 f200
G1X46.262000Y20.648400
G1X46.274000Y20.669800
G1X46.285000Y20.704000
G1X46.299300Y20.738200
G1X46.304200Y20.763100
G1X46.312000Y20.786900
G1X46.316200Y20.823300
G1X46.323400Y20.858900
G1X46.323400Y20.883900
G1X46.326400Y20.909100
G1X46.323500Y20.945800
G1X46.324300Y21.714600
G1X46.574300Y21.965400
G1X46.573000Y22.693400
G1X46.057200Y23.207400
G1X45.329200Y23.206100
G1X44.815200Y22.690300
G1X44.816500Y21.962300
G1X45.074500Y21.705300
G1X45.073800Y21.084300
G1X41.372400Y14.466200
G1X41.369300Y14.463200
G1X41.300000Y14.359500
G1X41.252300Y14.244300
G1X41.228000Y14.122000
G1X41.228000Y13.997300
G1X41.252300Y13.875000
G1X41.300000Y13.759800
G1X41.369300Y13.656100
G1X41.457400Y13.568000
G1X41.561100Y13.498700
G1X41.676300Y13.451000
G1X41.798600Y13.426700
G1X41.923300Y13.426700
G1X42.045600Y13.451000
G1X42.160800Y13.498700
G1X42.264500Y13.568000
G1X42.352600Y13.656100
G1X42.421900Y13.759800
G1X42.457800Y13.846700
G1X46.231200Y20.593400

G0Z0.500
G0X42.179600Y4.790300
G1Z-0.100 f25
G1X42.907600Y4.791600 f200
G1X43.421600Y5.307400
G1X43.420300Y6.035400
G1X42.904500Y6.549400
G1X42.176500Y6.548100
G1X41.662500Y6.032300
G1X41.663800Y5.304300
G1X42.179600Y4.790300

G0Z0.500
G0X42.184100Y2.250400
G1Z-0.100 f25
G1X42.912100Y2.251700 f200
G1X43.426100Y2.767500
G1X43.424800Y3.495500
G1X42.909000Y4.009500
G1X42.181000Y4.008200
G1X41.667000Y3.492400
G1X41.668300Y2.764400
G1X42.184100Y2.250400

G0Z0.500
G0X40.375100Y4.015700
G1Z-0.100 f25
G1X39.647100Y4.014400 f200
G1X39.133100Y3.498600
G1X39.134400Y2.770600
G1X39.650200Y2.256600
G1X40.378200Y2.257900
G1X40.892200Y2.773700
G1X40.890900Y3.501700
G1X40.375100Y4.015700

G0Z0.500
G0X40.370600Y6.555600
G1Z-0.100 f25
G1X39.642600Y6.554300 f200
G1X39.128600Y6.038500
G1X39.129900Y5.310500
G1X39.645700Y4.796500
G1X40.373700Y4.797800
G1X40.887700Y5.313600
G1X40.886400Y6.041600
G1X40.370600Y6.555600

G0Z0.500
G0X37.840700Y3.994900
G1Z-0.100 f25
G1X37.112700Y3.993600 f200
G1X36.598700Y3.477800
G1X36.600000Y2.749800
G1X37.115800Y2.235800
G1X37.843800Y2.237100
G1X38.357800Y2.752900
G1X38.356500Y3.480900
G1X37.840700Y3.994900

G0Z0.500
G0X37.836200Y6.534800
G1Z-0.100 f25
G1X37.108200Y6.533500 f200
G1X36.594200Y6.017700
G1X36.595500Y5.289700
G1X37.111300Y4.775700
G1X37.839300Y4.777000
G1X38.353300Y5.292800
G1X38.352000Y6.020800
G1X37.836200Y6.534800

G0Z0.500
G0X45.796500Y2.257700
G1Z-0.100 f25
G1X46.524500Y2.259000 f200
G1X47.038500Y2.774800
G1X47.037200Y3.502800
G1X46.521400Y4.016800
G1X45.793400Y4.015500
G1X45.279400Y3.499700
G1X45.280700Y2.771700
G1X45.796500Y2.257700

G0Z0.500
G0X72.651300Y1.943600
G1Z-0.100 f25
G1X71.687600Y2.907300 f200
G1X71.687600Y4.269900
G1X72.651300Y5.233600
G1X74.013900Y5.233600
G1X74.977600Y4.269900
G1X74.977600Y2.907300
G1X74.013900Y1.943600
G1X72.651300Y1.943600

G0Z0.500
G0X74.211600Y3.224600
G1Z-0.100 f25
G1X74.211600Y3.952700 f200
G1X73.696700Y4.467600
G1X72.968600Y4.467600
G1X72.453700Y3.952700
G1X72.453700Y3.224600
G1X72.968600Y2.709700
G1X73.696700Y2.709700
G1X74.211600Y3.224600

G0Z0.500
G0X51.272800Y25.531100
G1Z-0.100 f25
G1X51.000700Y26.184900 f200
G1X50.999400Y26.892900
G1X51.269400Y27.547800
G1X51.769100Y28.049400
G1X52.422900Y28.321500
G1X59.130800Y28.333300
G1X59.785800Y28.063300
G1X60.287300Y27.563600
G1X60.559400Y26.909800
G1X60.560700Y26.201800
G1X60.290700Y25.546800
G1X59.791000Y25.045300
G1X59.137200Y24.773200
G1X52.429300Y24.761400
G1X51.774400Y25.031400
G1X51.272800Y25.531100

G0Z0.500
G0X52.682000Y25.528000
G1Z-0.100 f25
G1X58.881700Y25.538900 f200
G1X59.077500Y25.578200
G1X59.261900Y25.654900
G1X59.427800Y25.766200
G1X59.568800Y25.907700
G1X59.679400Y26.073900
G1X59.755600Y26.258600
G1X59.794200Y26.454500
G1X59.793800Y26.654300
G1X59.754500Y26.850100
G1X59.677800Y27.034500
G1X59.566500Y27.200400
G1X59.425000Y27.341400
G1X59.258800Y27.452000
G1X59.074100Y27.528200
G1X58.878200Y27.566800
G1X52.678500Y27.555900
G1X52.482700Y27.516600
G1X52.298300Y27.439900
G1X52.132400Y27.328600
G1X51.991400Y27.187100
G1X51.880800Y27.020900
G1X51.804600Y26.836200
G1X51.766000Y26.640300
G1X51.766400Y26.440500
G1X51.805700Y26.244700
G1X51.882400Y26.060300
G1X51.993700Y25.894400
G1X52.135200Y25.753400
G1X52.301400Y25.642800
G1X52.486100Y25.566600
G1X52.682000Y25.528000

G0Z0.500
G0X32.612100Y5.715600
G1Z-0.100 f25
G1X31.646700Y6.677600 f200
G1X31.644300Y8.040200
G1X32.606300Y9.005600
G1X33.968900Y9.008000
G1X34.934300Y8.046000
G1X34.936700Y6.683400
G1X33.974700Y5.718000
G1X32.612100Y5.715600

G0Z0.500
G0X34.170100Y6.999400
G1Z-0.100 f25
G1X34.168800Y7.727400 f200
G1X33.653000Y8.241400
G1X32.925000Y8.240100
G1X32.411000Y7.724300
G1X32.412300Y6.996300
G1X32.928100Y6.482300
G1X33.656100Y6.483600
G1X34.170100Y6.999400

G0Z0.500
G0X81.528600Y15.464900
G1Z-0.100 f25
G1X80.564900Y16.428600 f200
G1X80.564900Y17.791200
G1X81.528600Y18.754900
G1X82.891200Y18.754900
G1X83.854900Y17.791200
G1X83.854900Y16.428500
G1X82.891200Y15.464900
G1X81.528600Y15.464900

G0Z0.500
G0X83.088900Y16.745900
G1Z-0.100 f25
G1X83.088900Y17.474000 f200
G1X82.574000Y17.988900
G1X81.845900Y17.988900
G1X81.331000Y17.474000
G1X81.331000Y16.745900
G1X81.845900Y16.231000
G1X82.574000Y16.231000
G1X83.088900Y16.745900

G0Z0.500
G0X51.311200Y3.531100
G1Z-0.100 f25
G1X51.039100Y4.184900 f200
G1X51.037800Y4.892900
G1X51.307700Y5.547900
G1X51.807500Y6.049400
G1X52.461300Y6.321500
G1X59.169200Y6.333300
G1X59.824200Y6.063400
G1X60.325700Y5.563600
G1X60.597800Y4.909800
G1X60.599100Y4.201900
G1X60.329100Y3.546900
G1X59.829300Y3.045300
G1X59.175600Y2.773200
G1X52.467600Y2.761400
G1X51.812700Y3.031300
G1X51.311200Y3.531100

G0Z0.500
G0X52.720400Y3.528000
G1Z-0.100 f25
G1X58.920100Y3.538900 f200
G1X59.115900Y3.578200
G1X59.300300Y3.654900
G1X59.466200Y3.766200
G1X59.607200Y3.907700
G1X59.717800Y4.073900
G1X59.794000Y4.258600
G1X59.832600Y4.454500
G1X59.832200Y4.654300
G1X59.792900Y4.850100
G1X59.716200Y5.034500
G1X59.604900Y5.200400
G1X59.463400Y5.341400
G1X59.297200Y5.452000
G1X59.112500Y5.528200
G1X58.916600Y5.566800
G1X52.716900Y5.555900
G1X52.521100Y5.516600
G1X52.336700Y5.439900
G1X52.170800Y5.328600
G1X52.029800Y5.187100
G1X51.919200Y5.020900
G1X51.843000Y4.836200
G1X51.804400Y4.640300
G1X51.804800Y4.440500
G1X51.844100Y4.244700
G1X51.920800Y4.060300
G1X52.032100Y3.894400
G1X52.173600Y3.753400
G1X52.339800Y3.642800
G1X52.524500Y3.566600
G1X52.720400Y3.528000

G0Z0.500
G0X98.495000Y9.021000
G1Z-0.100 f25
G1X98.495100Y9.020900 f200
G1X98.495900Y9.020100
G1X98.614500Y8.901500
G1X98.665700Y8.850300
G1X98.728400Y8.814100
G1X98.798300Y8.795400
G1X98.870800Y8.795400
G1X98.940700Y8.814100
G1X99.003400Y8.850300
G1X99.054600Y8.901500
G1X99.090800Y8.964200
G1X99.109500Y9.034100
G1X99.109500Y9.345700
G1X99.109500Y9.345800
G1X99.104600Y9.363700
G1X99.090800Y9.415600
G1X99.054600Y9.478300
G1X99.003400Y9.529500
G1X98.940700Y9.565700
G1X98.870800Y9.584400
G1X98.798300Y9.584400
G1X98.798200Y9.584400
G1X98.780300Y9.579500
G1X98.728400Y9.565700
G1X98.665700Y9.529500
G1X98.614500Y9.478300
G1X98.614500Y9.478100
G1X98.546300Y9.409900
G1X98.546200Y9.409900
G1X98.495000Y9.358700
G1X98.458800Y9.296000
G1X98.440100Y9.226100
G1X98.440100Y9.226000
G1X98.440100Y9.153500
G1X98.445400Y9.134000
G1X98.458800Y9.083700
G1X98.495000Y9.021000

G0Z0.500
G0X98.495000Y11.561000
G1Z-0.100 f25
G1X98.495100Y11.560900 f200
G1X98.495900Y11.560100
G1X98.614600Y11.441400
G1X98.665800Y11.390200
G1X98.728500Y11.354000
G1X98.798400Y11.335300
G1X98.870900Y11.335300
G1X98.940800Y11.354000
G1X99.003500Y11.390200
G1X99.054700Y11.441400
G1X99.090900Y11.504100
G1X99.109600Y11.574000
G1X99.109600Y11.885800
G1X99.109600Y11.885900
G1X99.104700Y11.903800
G1X99.090900Y11.955700
G1X99.054700Y12.018400
G1X99.003500Y12.069600
G1X98.940800Y12.105800
G1X98.870900Y12.124500
G1X98.798400Y12.124500
G1X98.798300Y12.124500
G1X98.780400Y12.119600
G1X98.728500Y12.105800
G1X98.665800Y12.069600
G1X98.614600Y12.018400
G1X98.614600Y12.018200
G1X98.546300Y11.949900
G1X98.546200Y11.949900
G1X98.495000Y11.898700
G1X98.458800Y11.836000
G1X98.440100Y11.766100
G1X98.440100Y11.766000
G1X98.440100Y11.693500
G1X98.445400Y11.674100
G1X98.458800Y11.623700
G1X98.495000Y11.561000

G0Z0.500
G0X98.495000Y14.101000
G1Z-0.100 f25
G1X98.495100Y14.100900 f200
G1X98.495900Y14.100100
G1X98.614600Y13.981500
G1X98.614600Y13.981400
G1X98.665800Y13.930200
G1X98.728500Y13.894000
G1X98.798400Y13.875300
G1X98.870900Y13.875300
G1X98.940800Y13.894000
G1X99.003500Y13.930200
G1X99.054700Y13.981400
G1X99.090900Y14.044100
G1X99.109600Y14.114000
G1X99.109600Y14.425800
G1X99.109600Y14.425900
G1X99.104700Y14.443800
G1X99.090900Y14.495700
G1X99.054700Y14.558400
G1X99.003500Y14.609600
G1X98.940800Y14.645800
G1X98.870900Y14.664500
G1X98.798400Y14.664500
G1X98.798300Y14.664500
G1X98.780400Y14.659600
G1X98.728500Y14.645800
G1X98.665800Y14.609600
G1X98.614600Y14.558400
G1X98.614600Y14.558200
G1X98.546300Y14.489900
G1X98.546200Y14.489900
G1X98.495000Y14.438700
G1X98.458800Y14.376000
G1X98.440100Y14.306100
G1X98.440100Y14.306000
G1X98.440100Y14.233500
G1X98.445400Y14.214100
G1X98.458800Y14.163700
G1X98.495000Y14.101000

G0Z0.500
G0X34.758400Y28.664200
G1Z-0.100 f25
G1X34.784200Y28.638500 f200
G1X34.809300Y28.613400
G1X34.809600Y28.613300
G1X34.940600Y28.482800
G1X34.941100Y28.171400
G1X34.941100Y28.114800
G1X34.941200Y28.114500
G1X34.941200Y28.114400
G1X34.942700Y28.108700
G1X34.959800Y28.044900
G1X34.960000Y28.044600
G1X34.960000Y28.044500
G1X34.967400Y28.031700
G1X34.996000Y27.982200
G1X34.996300Y27.981900
G1X34.996800Y27.981500
G1X35.540400Y27.437900
G1X35.540500Y27.437700
G1X35.564600Y27.413700
G1X35.591400Y27.386900
G1X35.591700Y27.386800
G1X35.591800Y27.386600
G1X35.634300Y27.362100
G1X35.654100Y27.350700
G1X35.654200Y27.350700
G1X35.654500Y27.350500
G1X35.705300Y27.337000
G1X35.724000Y27.332000
G1X35.724200Y27.332000
G1X35.724500Y27.331900
G1X35.760400Y27.332000
G1X35.796500Y27.332000
G1X35.796800Y27.332100
G1X35.797000Y27.332100
G1X35.819800Y27.338200
G1X35.866400Y27.350700
G1X35.866600Y27.350800
G1X35.866900Y27.350900
G1X35.901600Y27.371000
G1X35.929100Y27.386900
G1X35.929200Y27.387100
G1X35.929500Y27.387200
G1X35.954600Y27.412500
G1X35.980300Y27.438100
G1X35.980400Y27.438400
G1X35.980600Y27.438500
G1X36.005100Y27.481000
G1X36.016500Y27.500800
G1X36.016500Y27.500900
G1X36.016700Y27.501200
G1X36.030200Y27.552000
G1X36.035200Y27.570700
G1X36.035200Y27.570900
G1X36.035300Y27.571200
G1X36.035200Y27.625500
G1X36.035200Y27.643200
G1X36.035200Y27.643300
G1X36.033600Y28.517300
G1X36.145200Y28.629200
G1X36.180600Y28.664600
G1X36.180700Y28.664900
G1X36.180800Y28.664900
G1X36.187200Y28.676100
G1X36.216800Y28.727300
G1X36.235500Y28.797200
G1X36.235500Y28.797300
G1X36.235600Y28.797600
G1X36.235500Y28.834200
G1X36.235500Y28.869700
G1X36.235400Y28.870000
G1X36.235400Y28.870100
G1X36.233900Y28.875800
G1X36.216800Y28.939600
G1X36.216600Y28.939900
G1X36.216600Y28.940000
G1X36.209200Y28.952800
G1X36.180600Y29.002300
G1X36.180300Y29.002600
G1X36.179500Y29.003400
G1X36.129400Y29.053500
G1X36.129100Y29.053600
G1X36.129100Y29.053700
G1X36.117900Y29.060100
G1X36.066700Y29.089700
G1X35.996800Y29.108400
G1X35.996700Y29.108400
G1X35.996400Y29.108500
G1X35.959800Y29.108400
G1X35.014200Y29.108400
G1X35.013900Y29.108500
G1X34.978000Y29.108400
G1X34.941900Y29.108400
G1X34.941600Y29.108300
G1X34.941400Y29.108300
G1X34.918600Y29.102100
G1X34.872000Y29.089700
G1X34.871800Y29.089600
G1X34.871500Y29.089500
G1X34.836800Y29.069400
G1X34.809300Y29.053500
G1X34.809200Y29.053300
G1X34.808900Y29.053200
G1X34.783800Y29.027900
G1X34.758100Y29.002300
G1X34.758000Y29.002000
G1X34.757800Y29.001900
G1X34.742300Y28.974900
G1X34.721900Y28.939600
G1X34.721800Y28.939300
G1X34.721700Y28.939100
G1X34.709600Y28.893600
G1X34.703200Y28.869700
G1X34.703200Y28.869500
G1X34.703100Y28.869200
G1X34.703200Y28.833300
G1X34.703200Y28.797200
G1X34.703300Y28.796900
G1X34.703300Y28.796700
G1X34.709500Y28.773900
G1X34.721900Y28.727300
G1X34.722000Y28.727100
G1X34.722100Y28.726800
G1X34.742200Y28.692100
G1X34.758100Y28.664600
G1X34.758300Y28.664500
G1X34.758400Y28.664200

G0Z0.500
G0X98.495000Y16.641000
G1Z-0.100 f25
G1X98.495100Y16.640900 f200
G1X98.495900Y16.640100
G1X98.614600Y16.521400
G1X98.665800Y16.470200
G1X98.728500Y16.434000
G1X98.798400Y16.415300
G1X98.870900Y16.415300
G1X98.940800Y16.434000
G1X99.003500Y16.470200
G1X99.054700Y16.521400
G1X99.090900Y16.584100
G1X99.109600Y16.654000
G1X99.109600Y16.965800
G1X99.109600Y16.965900
G1X99.104800Y16.983800
G1X99.090900Y17.035700
G1X99.054700Y17.098400
G1X99.003500Y17.149600
G1X98.940800Y17.185800
G1X98.870900Y17.204500
G1X98.798400Y17.204500
G1X98.798300Y17.204500
G1X98.780400Y17.199700
G1X98.728500Y17.185800
G1X98.665800Y17.149600
G1X98.614600Y17.098400
G1X98.614500Y17.098200
G1X98.546300Y17.029900
G1X98.546200Y17.029900
G1X98.495000Y16.978700
G1X98.458800Y16.916000
G1X98.440100Y16.846100
G1X98.440100Y16.846000
G1X98.440100Y16.773500
G1X98.445400Y16.754000
G1X98.458800Y16.703700
G1X98.495000Y16.641000

G0Z0.500
G0X1.427000Y11.483300
G1Z-0.100 f25
G1X1.463200Y11.546000 f200
G1X1.481900Y11.615900
G1X1.481900Y11.688400
G1X1.481900Y11.843900
G1X1.463200Y11.913800
G1X1.427000Y11.976500
G1X1.385900Y12.017600
G1X1.334700Y12.068800
G1X1.272000Y12.105000
G1X1.202100Y12.123700
G1X1.129600Y12.123700
G1X1.059700Y12.105000
G1X0.997000Y12.068800
G1X0.945800Y12.017600
G1X0.909600Y11.954900
G1X0.890900Y11.885000
G1X0.890900Y11.574800
G1X0.909600Y11.504900
G1X0.945800Y11.442200
G1X0.997000Y11.391000
G1X1.059700Y11.354800
G1X1.129600Y11.336100
G1X1.202100Y11.336100
G1X1.272000Y11.354800
G1X1.334700Y11.391000
G1X1.385900Y11.442200
G1X1.427000Y11.483300

G0Z0.500
G0X1.504800Y16.978800
G1Z-0.100 f25
G1X1.504700Y16.978900 f200
G1X1.503900Y16.979700
G1X1.386000Y17.097600
G1X1.334800Y17.148800
G1X1.272100Y17.185000
G1X1.202200Y17.203700
G1X1.129700Y17.203700
G1X1.059800Y17.185000
G1X0.997100Y17.148800
G1X0.945900Y17.097600
G1X0.909700Y17.034900
G1X0.891000Y16.965000
G1X0.891000Y16.654800
G1X0.891000Y16.654700
G1X0.895900Y16.636800
G1X0.909700Y16.584900
G1X0.945900Y16.522200
G1X0.997100Y16.471000
G1X1.059800Y16.434800
G1X1.129700Y16.416100
G1X1.202200Y16.416100
G1X1.202300Y16.416100
G1X1.220200Y16.421000
G1X1.272100Y16.434800
G1X1.334800Y16.471000
G1X1.386000Y16.522200
G1X1.386000Y16.522400
G1X1.453500Y16.589900
G1X1.453600Y16.589900
G1X1.504800Y16.641100
G1X1.541000Y16.703800
G1X1.559700Y16.773700
G1X1.559700Y16.773800
G1X1.559700Y16.846300
G1X1.554400Y16.865800
G1X1.541000Y16.916100
G1X1.504800Y16.978800

G0Z0.500
G0X96.278100Y6.585500
G1Z-0.100 f25
G1X96.252500Y6.611100 f200
G1X96.230400Y6.633900
G1X96.228600Y6.634900
G1X96.220000Y6.643600
G1X96.168800Y6.694800
G1X96.106100Y6.731000
G1X96.036200Y6.749700
G1X95.963700Y6.749700
G1X95.893800Y6.731000
G1X95.831100Y6.694800
G1X95.773100Y6.636800
G1X95.750400Y6.614800
G1X95.749400Y6.613000
G1X95.747600Y6.611300
G1X95.728900Y6.578800
G1X95.713200Y6.552700
G1X95.712700Y6.550700
G1X95.711400Y6.548600
G1X95.702300Y6.514400
G1X95.693300Y6.483100
G1X95.693300Y6.480800
G1X95.692700Y6.478700
G1X95.692700Y6.446800
G1X95.692100Y6.410700
G1X95.692700Y6.408400
G1X95.692700Y6.406200
G1X95.701200Y6.374800
G1X95.709700Y6.340500
G1X95.710800Y6.338500
G1X95.711400Y6.336300
G1X95.728700Y6.306400
G1X95.744900Y6.277200
G1X95.746500Y6.275700
G1X95.747600Y6.273600
G1X95.773300Y6.247900
G1X95.795300Y6.225200
G1X95.797100Y6.224200
G1X95.798800Y6.222400
G1X95.831300Y6.203700
G1X95.857400Y6.188000
G1X95.859400Y6.187500
G1X95.861500Y6.186200
G1X95.896400Y6.176900
G1X95.949900Y6.161600
G1X95.951900Y6.160400
G1X95.985500Y6.151500
G1X96.017400Y6.142300
G1X96.019800Y6.142300
G1X96.021800Y6.141700
G1X96.053500Y6.141700
G1X96.089800Y6.141100
G1X96.092200Y6.141700
G1X96.094300Y6.141700
G1X96.125600Y6.150100
G1X96.160000Y6.158700
G1X96.162000Y6.159800
G1X96.164200Y6.160400
G1X96.194000Y6.177600
G1X96.223300Y6.193900
G1X96.224900Y6.195500
G1X96.226900Y6.196600
G1X96.252500Y6.222200
G1X96.275300Y6.244300
G1X96.276300Y6.246100
G1X96.278100Y6.247800
G1X96.296800Y6.280200
G1X96.312500Y6.306400
G1X96.313000Y6.308400
G1X96.314300Y6.310500
G1X96.323400Y6.344600
G1X96.332400Y6.376000
G1X96.332400Y6.378400
G1X96.333000Y6.380400
G1X96.333000Y6.412100
G1X96.333600Y6.448400
G1X96.333000Y6.450800
G1X96.333000Y6.452900
G1X96.324600Y6.484200
G1X96.316000Y6.518600
G1X96.314900Y6.520600
G1X96.314300Y6.522800
G1X96.297100Y6.552600
G1X96.280800Y6.581900
G1X96.279200Y6.583500
G1X96.278100Y6.585500

G0Z0.500
G0X9.040700Y27.408600
G1Z-0.100 f25
G1X9.042000Y26.680600 f200
G1X9.557800Y26.166600
G1X10.285800Y26.167900
G1X10.799800Y26.683700
G1X10.798500Y27.411700
G1X10.282700Y27.925700
G1X9.554700Y27.924400
G1X9.040700Y27.408600

G0Z0.500
G0X1.420800Y27.395300
G1Z-0.100 f25
G1X1.422100Y26.667300 f200
G1X1.937900Y26.153300
G1X2.665900Y26.154600
G1X3.179900Y26.670400
G1X3.178600Y27.398400
G1X2.662800Y27.912400
G1X1.934800Y27.911100
G1X1.420800Y27.395300

G0Z0.500
G0X44.420100Y28.214700
G1Z-0.100 f25
G1X44.421400Y27.486700 f200
G1X44.937200Y26.972700
G1X45.665200Y26.974000
G1X46.179200Y27.489800
G1X46.177900Y28.217800
G1X45.662100Y28.731800
G1X44.934100Y28.730500
G1X44.420100Y28.214700

G0Z0.500
G0X36.800200Y28.201400
G1Z-0.100 f25
G1X36.801500Y27.473400 f200
G1X37.317300Y26.959400
G1X38.045300Y26.960700
G1X38.559300Y27.476500
G1X38.558000Y28.204500
G1X38.042200Y28.718500
G1X37.314200Y28.717200
G1X36.800200Y28.201400

G0Z0.500
G0X29.096500Y27.427300
G1Z-0.100 f25
G1X29.095200Y28.155300 f200
G1X28.579400Y28.669300
G1X27.851400Y28.668000
G1X27.337400Y28.152200
G1X27.338100Y27.794700
G1X25.820800Y26.277500
G1X25.752400Y26.175100
G1X25.705300Y26.061400
G1X25.681300Y25.940600
G1X25.681300Y25.817500
G1X25.681300Y17.585100
G1X25.426700Y17.329700
G1X25.428000Y16.601700
G1X25.943800Y16.087700
G1X26.671800Y16.089000
G1X27.185800Y16.604800
G1X27.184500Y17.332800
G1X26.931200Y17.585200
G1X26.931200Y25.620100
G1X28.221900Y26.910900
G1X28.582500Y26.911500
G1X29.096500Y27.427300

G0Z0.500
G0X29.725800Y16.609300
G1Z-0.100 f25
G1X29.724500Y17.337300 f200
G1X29.208700Y17.851300
G1X28.480700Y17.850000
G1X27.966700Y17.334200
G1X27.968000Y16.606200
G1X28.263300Y16.312000
G1X28.362300Y10.757500
G1X25.832600Y8.227700
G1X25.305100Y8.226800
G1X24.791100Y7.711000
G1X24.792400Y6.983000
G1X25.308200Y6.469000
G1X26.036200Y6.470300
G1X26.550200Y6.986100
G1X26.549900Y7.154700
G1X29.407800Y10.012700
G1X29.412100Y10.015600
G1X29.448400Y10.053300
G1X29.491600Y10.096400
G1X29.494900Y10.101500
G1X29.498700Y10.105300
G1X29.527400Y10.150100
G1X29.560900Y10.200100
G1X29.563200Y10.205800
G1X29.566100Y10.210200
G1X29.586000Y10.261000
G1X29.608600Y10.315300
G1X29.609700Y10.320900
G1X29.611800Y10.326200
G1X29.621800Y10.382000
G1X29.632900Y10.437600
G1X29.632900Y10.443400
G1X29.633900Y10.448900
G1X29.632900Y10.505100
G1X29.632900Y10.562300
G1X29.631700Y10.567900
G1X29.527600Y16.410500
G1X29.725800Y16.609300

G0Z0.500
G0X39.227000Y23.504500
G1Z-0.100 f25
G1X39.225700Y24.232500 f200
G1X38.709900Y24.746500
G1X37.981900Y24.745200
G1X37.862100Y24.624900
G1X37.270200Y24.624900
G1X34.175900Y27.719200
G1X34.175100Y28.164200
G1X33.659300Y28.678200
G1X32.931300Y28.676900
G1X32.417300Y28.161100
G1X32.418600Y27.433100
G1X32.934400Y26.919100
G1X33.185200Y26.919600
G1X36.596400Y23.508300
G1X36.700100Y23.439000
G1X36.815300Y23.391300
G1X36.937600Y23.367000
G1X37.062300Y23.367000
G1X37.102500Y23.375000
G1X37.596100Y23.375000
G1X37.985000Y22.987400
G1X38.713000Y22.988700
G1X39.227000Y23.504500

G0Z0.500
G0X11.696200Y18.615400
G1Z-0.100 f25
G1X11.694900Y19.343400 f200
G1X11.179100Y19.857400
G1X10.451100Y19.856100
G1X9.937100Y19.340300
G1X9.938400Y18.612300
G1X10.454200Y18.098300
G1X11.182200Y18.099600
G1X11.696200Y18.615400

G0Z0.500
G0X23.366700Y27.527400
G1Z-0.100 f25
G1X23.365400Y28.255400 f200
G1X22.849600Y28.769400
G1X22.121600Y28.768100
G1X21.607600Y28.252300
G1X21.608900Y27.524300
G1X22.124700Y27.010300
G1X22.852700Y27.011600
G1X23.366700Y27.527400

G0Z0.500
G0X15.098600Y28.002500
G1Z-0.100 f25
G1X15.099900Y27.274500 f200
G1X15.615700Y26.760500
G1X16.343700Y26.761800
G1X16.857700Y27.277600
G1X16.856400Y28.005600
G1X16.340600Y28.519600
G1X15.612600Y28.518300
G1X15.098600Y28.002500

G0Z0.500
G0X17.643000Y25.467000
G1Z-0.100 f25
G1X17.644300Y24.739000 f200
G1X17.897600Y24.486600
G1X17.897600Y24.407300
G1X13.351600Y19.861200
G1X12.991000Y19.860600
G1X12.477000Y19.344800
G1X12.478300Y18.616800
G1X12.994100Y18.102800
G1X13.722100Y18.104100
G1X14.236100Y18.619900
G1X14.235400Y18.977400
G1X18.920900Y23.662900
G1X18.921000Y23.662900
G1X19.008000Y23.749900
G1X19.076400Y23.852300
G1X19.123500Y23.966000
G1X19.147500Y24.086800
G1X19.147500Y24.486600
G1X19.402100Y24.742100
G1X19.400800Y25.470100
G1X18.885000Y25.984100
G1X18.157000Y25.982800
G1X17.643000Y25.467000

G0Z0.500
G0X12.563100Y25.458100
G1Z-0.100 f25
G1X12.564400Y24.730100 f200
G1X13.080200Y24.216100
G1X13.808200Y24.217400
G1X14.322200Y24.733200
G1X14.320900Y25.461200
G1X13.805100Y25.975200
G1X13.077100Y25.973900
G1X12.563100Y25.458100

G0Z0.500
G0X68.145600Y3.177900
G1Z-0.100 f25
G1X68.145600Y3.906000 f200
G1X67.630700Y4.420900
G1X67.250700Y4.420900
G1X66.974900Y4.696700
G1X66.974900Y6.803200
G1X67.291600Y7.119900
G1X67.380000Y7.208300
G1X67.381900Y7.211700
G1X67.523600Y7.211700
G1X68.038500Y7.726600
G1X68.038500Y8.454700
G1X67.523600Y8.969600
G1X66.795500Y8.969600
G1X66.547100Y8.721100
G1X63.277300Y10.418700
G1X63.277300Y15.721700
G1X67.166600Y15.709100
G1X67.200200Y15.708200
G1X67.203100Y15.708900
G1X67.206100Y15.708900
G1X67.240500Y15.718000
G1X67.271200Y15.725400
G1X67.273500Y15.726700
G1X67.276700Y15.727500
G1X67.306000Y15.744400
G1X67.335300Y15.760300
G1X67.337600Y15.762600
G1X67.340000Y15.763900
G1X67.362200Y15.786000
G1X67.388200Y15.810700
G1X67.389800Y15.813300
G1X67.391800Y15.815300
G1X67.409100Y15.845100
G1X67.426200Y15.873000
G1X67.426900Y15.875600
G1X67.428600Y15.878400
G1X67.438000Y15.913200
G1X67.446800Y15.943000
G1X67.446800Y15.945900
G1X67.447700Y15.948900
G1X67.447800Y15.983900
G1X67.490300Y17.725600
G1X67.598400Y17.725600
G1X68.113300Y18.240500
G1X68.113300Y18.968600
G1X67.598400Y19.483500
G1X66.870300Y19.483500
G1X66.355400Y18.968600
G1X66.355400Y18.240500
G1X66.870300Y17.725600
G1X66.935500Y17.725600
G1X66.899800Y16.264600
G1X63.037000Y16.277100
G1X63.036500Y16.277300
G1X62.994800Y16.277300
G1X62.964300Y16.277400
G1X62.964000Y16.277300
G1X62.963400Y16.277300
G1X62.933600Y16.269300
G1X62.893700Y16.258800
G1X62.893100Y16.258400
G1X62.892900Y16.258400
G1X62.854100Y16.236000
G1X62.830400Y16.222400
G1X62.830300Y16.222300
G1X62.829600Y16.221900
G1X62.791400Y16.183600
G1X62.778600Y16.171000
G1X62.778500Y16.170700
G1X62.778000Y16.170300
G1X62.761100Y16.140900
G1X62.741800Y16.107900
G1X62.741600Y16.107100
G1X62.741500Y16.107000
G1X62.736100Y16.086800
G1X62.722700Y16.037400
G1X62.722700Y16.036800
G1X62.722600Y16.036500
G1X62.722600Y16.000400
G1X62.722500Y15.964300
G1X62.722600Y15.964000
G1X62.722600Y10.280700
G1X62.721200Y10.274400
G1X62.722600Y10.243400
G1X62.722600Y10.213700
G1X62.724200Y10.207700
G1X62.724500Y10.201300
G1X62.733900Y10.171700
G1X62.741500Y10.143200
G1X62.744500Y10.138000
G1X62.746500Y10.131700
G1X62.763200Y10.105600
G1X62.778000Y10.079900
G1X62.782500Y10.075500
G1X62.785800Y10.070200
G1X62.808100Y10.049900
G1X62.829600Y10.028300
G1X62.835100Y10.025200
G1X62.839700Y10.020900
G1X62.867200Y10.006700
G1X62.892900Y9.991800
G1X62.898800Y9.990200
G1X66.280600Y8.234500
G1X66.280600Y7.726600
G1X66.417800Y7.589500
G1X66.119900Y7.291600
G1X66.057400Y7.183300
G1X66.025000Y7.062500
G1X66.025000Y6.937400
G1X66.025000Y4.437400
G1X66.057400Y4.316600
G1X66.119900Y4.208300
G1X66.208300Y4.119900
G1X66.405000Y3.923200
G1X66.387700Y3.906000
G1X66.387700Y3.177900
G1X66.902600Y2.663000
G1X67.630700Y2.663000
G1X68.145600Y3.177900

G0Z0.500
G0X90.148900Y7.375900
G1Z-0.100 f25
G1X90.148900Y8.104000 f200
G1X89.634000Y8.618900
G1X88.905900Y8.618900
G1X88.391000Y8.104000
G1X88.391000Y7.375900
G1X88.905900Y6.861000
G1X89.634000Y6.861000
G1X90.148900Y7.375900

G0Z0.500
G0X91.158800Y26.149100
G1Z-0.100 f25
G1X91.158800Y26.877200 f200
G1X90.643900Y27.392100
G1X89.915800Y27.392100
G1X89.400900Y26.877200
G1X89.400900Y26.149100
G1X89.915800Y25.634200
G1X90.643900Y25.634200
G1X91.158800Y26.149100

G0Z0.500
G0X65.556400Y26.628600
G1Z-0.100 f25
G1X65.556400Y27.356700 f200
G1X65.041500Y27.871600
G1X64.313400Y27.871600
G1X63.798500Y27.356700
G1X63.798500Y26.628600
G1X64.313400Y26.113700
G1X65.041500Y26.113700
G1X65.556400Y26.628600

G0Z0.500
G0X80.801400Y26.618800
G1Z-0.100 f25
G1X80.801400Y27.346900 f200
G1X80.286500Y27.861800
G1X79.558400Y27.861800
G1X79.043500Y27.346900
G1X79.043500Y26.618800
G1X79.558400Y26.103900
G1X80.286500Y26.103900
G1X80.801400Y26.618800

G0Z0.500
G0X87.058500Y28.158100
G1Z-0.100 f25
G1X88.421100Y28.158100 f200
G1X88.841000Y27.738200
G1X88.903700Y27.702000
G1X88.973600Y27.683300
G1X89.046100Y27.683300
G1X89.116000Y27.702000
G1X89.178700Y27.738200
G1X89.229900Y27.789400
G1X89.229900Y27.789500
G1X89.598500Y28.158100
G1X90.961100Y28.158100
G1X91.924800Y27.194400
G1X91.924800Y25.831800
G1X90.961100Y24.868100
G1X89.598400Y24.868100
G1X89.475900Y24.990600
G1X89.475800Y24.990900
G1X89.424600Y25.042100
G1X89.361900Y25.078300
G1X89.311500Y25.091700
G1X89.292100Y25.097000
G1X89.219600Y25.097000
G1X89.219500Y25.097000
G1X89.152600Y25.079100
G1X89.149600Y25.078300
G1X89.148300Y25.077500
G1X89.086900Y25.042100
G1X89.035700Y24.990900
G1X88.999500Y24.928200
G1X88.986100Y24.877800
G1X88.980800Y24.858400
G1X88.980800Y24.785900
G1X88.980800Y23.851700
G1X88.999500Y23.781800
G1X89.035700Y23.719100
G1X89.086900Y23.667900
G1X89.087000Y23.667900
G1X89.831100Y22.923700
G1X89.893800Y22.887500
G1X89.963700Y22.868800
G1X90.036200Y22.868800
G1X90.106100Y22.887500
G1X90.168800Y22.923700
G1X90.220000Y22.974900
G1X90.220000Y22.975000
G1X92.879200Y25.634200
G1X93.183900Y25.634200
G1X93.698800Y26.149100
G1X93.698800Y26.453900
G1X94.030000Y26.785000
G1X94.066200Y26.847700
G1X94.084900Y26.917600
G1X94.084900Y26.990100
G1X94.084900Y27.681200
G1X95.018400Y28.614600
G1X95.052600Y28.648800
G1X95.069600Y28.665800
G1X95.102400Y28.722600
G1X96.357400Y28.722600
G1X96.390100Y28.665900
G1X96.441300Y28.614700
G1X96.441400Y28.614700
G1X96.722600Y28.333500
G1X96.722600Y25.666300
G1X96.411200Y25.354900
G1X96.187600Y25.354900
G1X96.117700Y25.336200
G1X96.055000Y25.300000
G1X96.003800Y25.248800
G1X96.003800Y25.248700
G1X91.821600Y21.066600
G1X91.804400Y21.052600
G1X91.796600Y21.041600
G1X91.786600Y21.031700
G1X91.775100Y21.011700
G1X91.762200Y20.993800
G1X91.757500Y20.981100
G1X91.750400Y20.969000
G1X91.744600Y20.947000
G1X91.736600Y20.926100
G1X91.735300Y20.912300
G1X91.731700Y20.899100
G1X91.731700Y20.876300
G1X91.729500Y20.854000
G1X91.731700Y20.840600
G1X91.731700Y20.826600
G1X91.737600Y20.804700
G1X91.741200Y20.782500
G1X91.746900Y20.770100
G1X91.750400Y20.756700
G1X91.761800Y20.737000
G1X91.771000Y20.716600
G1X91.779700Y20.706100
G1X91.786600Y20.694000
G1X91.802900Y20.677800
G1X91.816900Y20.660600
G1X91.827900Y20.652800
G1X91.837800Y20.642800
G1X91.857800Y20.631300
G1X91.875700Y20.618400
G1X91.888300Y20.613700
G1X91.900500Y20.606600
G1X91.922800Y20.600700
G1X92.822700Y20.261100
G1X92.831700Y20.255500
G1X92.856500Y20.248300
G1X92.880500Y20.239200
G1X92.891100Y20.238200
G1X92.901200Y20.235200
G1X92.926300Y20.234700
G1X93.087200Y20.163400
G1X93.093700Y20.158700
G1X93.120900Y20.148500
G1X93.146300Y20.137200
G1X93.154000Y20.136100
G1X93.318800Y20.073900
G1X93.337000Y20.056800
G1X93.346200Y20.051900
G1X93.354600Y20.045100
G1X93.378800Y20.034400
G1X93.400800Y20.022600
G1X93.410900Y20.020200
G1X94.011500Y19.754600
G1X94.030600Y19.743600
G1X94.045400Y19.739700
G1X94.058600Y19.733800
G1X94.079500Y19.730500
G1X94.100500Y19.724900
G1X94.115500Y19.724900
G1X94.130100Y19.722600
G1X94.151700Y19.724900
G1X94.743200Y19.724900
G1X94.813100Y19.743600
G1X94.875800Y19.779800
G1X94.927000Y19.831000
G1X94.963200Y19.893700
G1X94.981900Y19.963600
G1X94.981900Y20.036100
G1X94.981900Y20.278900
G1X94.981900Y20.702600
G1X95.136700Y21.076500
G1X96.448500Y22.388200
G1X96.484700Y22.450900
G1X96.503400Y22.520800
G1X96.503400Y22.593300
G1X96.503400Y23.843400
G1X97.221900Y24.561900
G1X97.258400Y24.625200
G1X97.277300Y24.695700
G1X97.277300Y24.768800
G1X97.277300Y24.816400
G1X97.285400Y24.830400
G1X97.304100Y24.900300
G1X97.304100Y24.972800
G1X97.304100Y25.561800
G1X97.285400Y25.631700
G1X97.277300Y25.645700
G1X97.277300Y28.333500
G1X97.558500Y28.614700
G1X97.609700Y28.665900
G1X97.645900Y28.728600
G1X97.664600Y28.798500
G1X97.664600Y28.871000
G1X97.645900Y28.940900
G1X97.609700Y29.003600
G1X97.558500Y29.054800
G1X97.495800Y29.091000
G1X97.425900Y29.109700
G1X97.256800Y29.109700
G1X97.221900Y29.170300
G1X97.170300Y29.221900
G1X97.107000Y29.258400
G1X97.036500Y29.277300
G1X96.963400Y29.277300
G1X92.783300Y29.277300
G1X92.712800Y29.258400
G1X92.649500Y29.221900
G1X92.597900Y29.170300
G1X92.562900Y29.109500
G1X80.749700Y29.109300
G1X80.679800Y29.090600
G1X80.617100Y29.054400
G1X80.565900Y29.003200
G1X80.529700Y28.940500
G1X80.511000Y28.870600
G1X80.511000Y28.798100
G1X80.529700Y28.728200
G1X80.565900Y28.665500
G1X80.617100Y28.614300
G1X81.567400Y27.664100
G1X81.567400Y26.301500
G1X80.603700Y25.337800
G1X79.241100Y25.337800
G1X78.277400Y26.301500
G1X78.277400Y27.664100
G1X79.227700Y28.614300
G1X79.261600Y28.648300
G1X79.278900Y28.665500
G1X79.315100Y28.728200
G1X79.333800Y28.798100
G1X79.333800Y28.870600
G1X79.315100Y28.940500
G1X79.278900Y29.003200
G1X79.227700Y29.054400
G1X79.165000Y29.090600
G1X79.095100Y29.109300
G1X79.022600Y29.109300
G1X73.126500Y29.109200
G1X73.056600Y29.090500
G1X72.993900Y29.054300
G1X72.942700Y29.003100
G1X72.906500Y28.940400
G1X72.887800Y28.870500
G1X72.887800Y28.798000
G1X72.906500Y28.728100
G1X72.942700Y28.665400
G1X72.993900Y28.614200
G1X73.953500Y27.654700
G1X73.953500Y26.292100
G1X72.989800Y25.328400
G1X71.627200Y25.328400
G1X70.663500Y26.292100
G1X70.663500Y27.654700
G1X71.623000Y28.614100
G1X71.656800Y28.647900
G1X71.674200Y28.665300
G1X71.710400Y28.728000
G1X71.729100Y28.797900
G1X71.729100Y28.870400
G1X71.710400Y28.940300
G1X71.674200Y29.003000
G1X71.623000Y29.054200
G1X71.560300Y29.090400
G1X71.490400Y29.109100
G1X71.417900Y29.109100
G1X66.051700Y29.109000
G1X66.043300Y29.111300
G1X63.403400Y29.111300
G1X63.394800Y29.108900
G1X47.070400Y29.108600
G1X47.070100Y29.108700
G1X47.034600Y29.108600
G1X46.998200Y29.108600
G1X46.997900Y29.108500
G1X46.997600Y29.108500
G1X46.976900Y29.102800
G1X46.928300Y29.089900
G1X46.927900Y29.089600
G1X46.927700Y29.089600
G1X46.909800Y29.079200
G1X46.865600Y29.053700
G1X46.865400Y29.053400
G1X46.865100Y29.053300
G1X46.848400Y29.036400
G1X46.814400Y29.002500
G1X46.814200Y29.002000
G1X46.814100Y29.002000
G1X46.811800Y28.998000
G1X46.778200Y28.939800
G1X46.778100Y28.939300
G1X46.778000Y28.939200
G1X46.770900Y28.912300
G1X46.759500Y28.869900
G1X46.759500Y28.869600
G1X46.759400Y28.869300
G1X46.759500Y28.833400
G1X46.759500Y28.797400
G1X46.759600Y28.797100
G1X46.759600Y28.796800
G1X46.765300Y28.776100
G1X46.778200Y28.727500
G1X46.778500Y28.727100
G1X46.778500Y28.726900
G1X46.788900Y28.709000
G1X46.814400Y28.664800
G1X46.814700Y28.664600
G1X46.814800Y28.664300
G1X46.835900Y28.643400
G1X46.865600Y28.613600
G1X46.866000Y28.613500
G1X46.943400Y28.536400
G1X46.945800Y27.173800
G1X45.983800Y26.208400
G1X44.621300Y26.206000
G1X43.655800Y27.168000
G1X43.653500Y28.530700
G1X43.736100Y28.613600
G1X43.736200Y28.613600
G1X43.787400Y28.664800
G1X43.823600Y28.727500
G1X43.842300Y28.797400
G1X43.842300Y28.797500
G1X43.842400Y28.797800
G1X43.842300Y28.834400
G1X43.842300Y28.869900
G1X43.842200Y28.870200
G1X43.842200Y28.870300
G1X43.840700Y28.876000
G1X43.823600Y28.939800
G1X43.823400Y28.940100
G1X43.823400Y28.940200
G1X43.816000Y28.953000
G1X43.787400Y29.002500
G1X43.787100Y29.002800
G1X43.786700Y29.003200
G1X43.736200Y29.053700
G1X43.673500Y29.089900
G1X43.603600Y29.108600
G1X43.603500Y29.108600
G1X43.603200Y29.108700
G1X43.566200Y29.108600
G1X39.437500Y29.108500
G1X39.437200Y29.108600
G1X39.401700Y29.108500
G1X39.365200Y29.108500
G1X39.364900Y29.108400
G1X39.364700Y29.108400
G1X39.341900Y29.102300
G1X39.295300Y29.089800
G1X39.295100Y29.089700
G1X39.294800Y29.089600
G1X39.260100Y29.069500
G1X39.232600Y29.053600
G1X39.232500Y29.053400
G1X39.232200Y29.053300
G1X39.207100Y29.028000
G1X39.181400Y29.002400
G1X39.181300Y29.002100
G1X39.181100Y29.002000
G1X39.156600Y28.959500
G1X39.145200Y28.939700
G1X39.145200Y28.939600
G1X39.145000Y28.939300
G1X39.131500Y28.888500
G1X39.126500Y28.869800
G1X39.126500Y28.869600
G1X39.126400Y28.869300
G1X39.126500Y28.833400
G1X39.126500Y28.797300
G1X39.126600Y28.797000
G1X39.126600Y28.796800
G1X39.132700Y28.774000
G1X39.145200Y28.727400
G1X39.145300Y28.727200
G1X39.145400Y28.726900
G1X39.165500Y28.692200
G1X39.181400Y28.664700
G1X39.181600Y28.664600
G1X39.181700Y28.664300
G1X39.208900Y28.637300
G1X39.232600Y28.613500
G1X39.232800Y28.613400
G1X39.323500Y28.523100
G1X39.325900Y27.160500
G1X38.363900Y26.195100
G1X37.469200Y26.193600
G1X37.412200Y26.193600
G1X37.411900Y26.193500
G1X37.411800Y26.193500
G1X37.406100Y26.191900
G1X37.342300Y26.174900
G1X37.342000Y26.174700
G1X37.341900Y26.174700
G1X37.321700Y26.163000
G1X37.279600Y26.138700
G1X37.279500Y26.138500
G1X37.279200Y26.138400
G1X37.253300Y26.112300
G1X37.228400Y26.087500
G1X37.228300Y26.087200
G1X37.228100Y26.087100
G1X37.215500Y26.065000
G1X37.192200Y26.024800
G1X37.173500Y25.954900
G1X37.173500Y25.954700
G1X37.173400Y25.954400
G1X37.173500Y25.917800
G1X37.173500Y25.882400
G1X37.173600Y25.882100
G1X37.173600Y25.882000
G1X37.175200Y25.876300
G1X37.192200Y25.812500
G1X37.192400Y25.812200
G1X37.192400Y25.812100
G1X37.204100Y25.791900
G1X37.228400Y25.749800
G1X37.228600Y25.749700
G1X37.228700Y25.749400
G1X37.254800Y25.723500
G1X37.361800Y25.616500
G1X37.361900Y25.616200
G1X37.387200Y25.591100
G1X37.412800Y25.565400
G1X37.413100Y25.565300
G1X37.413200Y25.565100
G1X37.434500Y25.552900
G1X37.475500Y25.529200
G1X37.545400Y25.510500
G1X37.545600Y25.510500
G1X37.545900Y25.510400
G1X37.601500Y25.510500
G1X37.617900Y25.510500
G1X37.618000Y25.510500
G1X39.025800Y25.513100
G1X39.991200Y24.551100
G1X39.993600Y23.188500
G1X39.031600Y22.223100
G1X37.669000Y22.220700
G1X37.370800Y22.518000
G1X37.342800Y22.546000
G1X37.342500Y22.546100
G1X37.342400Y22.546300
G1X37.320300Y22.558900
G1X37.280100Y22.582200
G1X37.210200Y22.600900
G1X37.210000Y22.600900
G1X37.209700Y22.601000
G1X37.173100Y22.600900
G1X36.721400Y22.600900
G1X36.207500Y22.813800
G1X32.923500Y26.097900
G1X32.923200Y26.098000
G1X32.923100Y26.098200
G1X32.896100Y26.113700
G1X32.860800Y26.134100
G1X32.860500Y26.134100
G1X32.860300Y26.134300
G1X32.824300Y26.143800
G1X32.790900Y26.152800
G1X32.790600Y26.152800
G1X32.790300Y26.152900
G1X32.744800Y26.152800
G1X32.718400Y26.152800
G1X32.718200Y26.152700
G1X32.618400Y26.152500
G1X31.653000Y27.114400
G1X31.650600Y28.477000
G1X31.809100Y28.636000
G1X31.837700Y28.664500
G1X31.837800Y28.664800
G1X31.838000Y28.664900
G1X31.850600Y28.687000
G1X31.873900Y28.727200
G1X31.892600Y28.797100
G1X31.892600Y28.797300
G1X31.892700Y28.797600
G1X31.892600Y28.834200
G1X31.892600Y28.869600
G1X31.892500Y28.869900
G1X31.892500Y28.870000
G1X31.890900Y28.875700
G1X31.873900Y28.939500
G1X31.873700Y28.939800
G1X31.873700Y28.939900
G1X31.862000Y28.960100
G1X31.837700Y29.002200
G1X31.837500Y29.002300
G1X31.837400Y29.002600
G1X31.811300Y29.028500
G1X31.786500Y29.053400
G1X31.786200Y29.053500
G1X31.786100Y29.053700
G1X31.764000Y29.066300
G1X31.723800Y29.089600
G1X31.653900Y29.108300
G1X31.653700Y29.108300
G1X31.653400Y29.108400
G1X31.616800Y29.108300
G1X29.925500Y29.108300
G1X29.925200Y29.108400
G1X29.889300Y29.108300
G1X29.853200Y29.108300
G1X29.852900Y29.108200
G1X29.852700Y29.108200
G1X29.829900Y29.102000
G1X29.783300Y29.089600
G1X29.783100Y29.089400
G1X29.782800Y29.089400
G1X29.748200Y29.069200
G1X29.720600Y29.053400
G1X29.720500Y29.053200
G1X29.720200Y29.053100
G1X29.695100Y29.027800
G1X29.669400Y29.002200
G1X29.669300Y29.001900
G1X29.669100Y29.001800
G1X29.653600Y28.974800
G1X29.633200Y28.939500
G1X29.633200Y28.939200
G1X29.633000Y28.939000
G1X29.620900Y28.893500
G1X29.614500Y28.869600
G1X29.614500Y28.869400
G1X29.614400Y28.869100
G1X29.614500Y28.833200
G1X29.614500Y28.797100
G1X29.614600Y28.796800
G1X29.614600Y28.796600
G1X29.620800Y28.773800
G1X29.633200Y28.727200
G1X29.633400Y28.727000
G1X29.633400Y28.726700
G1X29.653600Y28.692100
G1X29.669400Y28.664500
G1X29.669600Y28.664400
G1X29.669700Y28.664100
G1X29.696300Y28.637600
G1X29.720600Y28.613300
G1X29.720900Y28.613200
G1X29.860700Y28.473900
G1X29.863100Y27.111300
G1X28.901100Y26.145900
G1X28.670800Y26.145500
G1X28.617500Y26.145500
G1X28.617200Y26.145400
G1X28.617100Y26.145400
G1X28.611400Y26.143800
G1X28.547600Y26.126800
G1X28.547400Y26.126600
G1X28.547200Y26.126600
G1X28.527000Y26.114900
G1X28.484900Y26.090600
G1X28.484800Y26.090400
G1X28.484500Y26.090300
G1X28.457600Y26.063300
G1X27.752100Y25.357700
G1X27.715900Y25.295000
G1X27.697200Y25.225100
G1X27.697200Y25.152600
G1X27.697200Y24.138200
G1X27.695300Y24.112800
G1X27.697200Y24.102800
G1X27.697200Y24.092200
G1X27.704000Y24.067200
G1X27.708700Y24.041700
G1X27.713200Y24.032400
G1X27.715900Y24.022300
G1X27.729300Y23.999300
G1X27.740200Y23.976500
G1X27.746800Y23.969000
G1X27.752100Y23.959600
G1X27.770900Y23.940900
G1X27.787400Y23.921600
G1X27.795900Y23.915900
G1X27.803300Y23.908400
G1X27.826400Y23.895100
G1X27.847200Y23.880900
G1X27.856700Y23.877600
G1X27.866000Y23.872200
G1X27.891800Y23.865400
G1X27.915500Y23.857000
G1X27.925700Y23.856300
G1X27.935900Y23.853500
G1X27.962400Y23.853500
G1X27.987800Y23.851600
G1X27.997800Y23.853500
G1X28.008400Y23.853500
G1X28.033400Y23.860300
G1X28.058900Y23.865000
G1X28.068200Y23.869600
G1X28.078300Y23.872200
G1X28.100800Y23.885300
G1X28.472900Y24.064600
G1X29.200100Y24.064600
G1X29.855400Y23.749000
G1X30.308700Y23.180700
G1X30.376000Y22.886100
G1X29.115800Y22.886100
G1X29.039600Y22.917700
G1X28.918800Y22.941700
G1X28.795700Y22.941700
G1X28.674900Y22.917700
G1X28.561200Y22.870600
G1X28.458800Y22.802200
G1X28.371800Y22.715200
G1X28.303400Y22.612800
G1X28.256300Y22.499100
G1X28.232300Y22.378300
G1X28.232300Y22.322700
G1X28.232300Y22.199600
G1X28.256300Y22.078800
G1X28.303400Y21.965100
G1X28.371800Y21.862700
G1X28.458800Y21.775700
G1X28.561200Y21.707300
G1X28.674900Y21.660200
G1X28.795700Y21.636200
G1X30.208000Y21.636200
G1X29.855500Y21.194200
G1X29.200100Y20.878600
G1X28.472900Y20.878600
G1X28.100800Y21.058000
G1X28.078300Y21.071000
G1X28.068200Y21.073700
G1X28.058900Y21.078200
G1X28.033400Y21.083000
G1X28.008400Y21.089700
G1X27.997800Y21.089700
G1X27.987800Y21.091600
G1X27.962300Y21.089700
G1X27.935900Y21.089700
G1X27.925700Y21.086900
G1X27.915500Y21.086200
G1X27.891800Y21.077900
G1X27.866000Y21.071000
G1X27.856700Y21.065600
G1X27.847200Y21.062300
G1X27.826400Y21.048100
G1X27.803300Y21.034800
G1X27.795900Y21.027300
G1X27.787400Y21.021600
G1X27.770900Y21.002300
G1X27.752100Y20.983600
G1X27.746700Y20.974300
G1X27.740200Y20.966700
G1X27.729200Y20.943900
G1X27.715900Y20.920900
G1X27.713200Y20.910800
G1X27.708700Y20.901500
G1X27.703900Y20.876000
G1X27.697200Y20.851000
G1X27.697200Y20.840400
G1X27.695300Y20.830400
G1X27.697200Y20.804900
G1X27.697200Y18.850200
G1X27.697100Y18.849900
G1X27.697200Y18.814000
G1X27.697200Y18.778100
G1X27.697300Y18.777800
G1X27.697300Y18.777400
G1X27.705500Y18.747300
G1X27.715900Y18.708200
G1X27.716100Y18.707900
G1X27.716200Y18.707500
G1X27.730700Y18.682500
G1X27.752100Y18.645500
G1X27.752500Y18.645200
G1X27.752600Y18.644900
G1X27.769500Y18.628200
G1X27.803300Y18.594300
G1X27.803800Y18.594000
G1X27.803900Y18.593900
G1X27.816700Y18.586600
G1X27.866000Y18.558100
G1X27.866700Y18.557900
G1X27.874800Y18.555800
G1X27.935900Y18.539400
G1X27.936300Y18.539400
G1X27.936600Y18.539300
G1X27.972500Y18.539400
G1X28.008400Y18.539400
G1X28.008700Y18.539500
G1X28.009100Y18.539500
G1X28.039200Y18.547700
G1X28.078300Y18.558100
G1X28.078600Y18.558300
G1X28.079000Y18.558400
G1X28.104000Y18.572900
G1X28.141000Y18.594300
G1X28.141300Y18.594700
G1X28.141600Y18.594800
G1X28.159400Y18.612700
G1X28.162100Y18.615500
G1X29.524600Y18.617900
G1X30.490000Y17.655900
G1X30.492400Y16.293200
G1X30.405600Y16.206200
G1X30.403500Y16.205000
G1X30.377600Y16.178100
G1X30.356000Y16.156500
G1X30.355000Y16.154700
G1X30.353200Y16.152900
G1X30.335600Y16.121100
G1X30.319900Y16.093800
G1X30.319300Y16.091600
G1X30.318200Y16.089600
G1X30.310400Y16.058000
G1X30.301200Y16.023900
G1X30.301200Y16.021400
G1X30.300700Y16.019400
G1X30.301300Y15.985400
G1X30.301400Y15.951400
G1X30.302000Y15.949400
G1X30.392700Y10.862800
G1X30.390600Y10.846800
G1X30.393400Y10.826400
G1X30.393700Y10.806000
G1X30.398100Y10.790700
G1X30.398900Y10.784800
G1X30.398900Y10.550300
G1X30.398300Y10.547900
G1X30.398900Y10.514300
G1X30.398900Y10.480300
G1X30.399600Y10.477900
G1X30.403800Y10.240200
G1X30.403100Y10.234200
G1X30.401100Y10.226700
G1X30.310400Y10.007700
G1X30.308900Y10.005800
G1X30.296700Y9.974800
G1X30.283600Y9.943200
G1X30.283300Y9.940700
G1X30.197200Y9.722100
G1X30.194700Y9.717600
G1X30.190000Y9.711400
G1X30.020000Y9.541500
G1X30.018000Y9.540300
G1X29.996000Y9.517400
G1X29.970700Y9.492200
G1X29.969400Y9.489900
G1X29.809200Y9.323800
G1X29.803900Y9.319600
G1X29.790400Y9.311900
G1X29.775900Y9.297300
G1X29.759600Y9.284400
G1X29.750400Y9.271800
G1X27.422600Y6.944000
G1X27.422300Y6.943900
G1X27.397200Y6.918600
G1X27.371500Y6.893000
G1X27.371400Y6.892700
G1X27.371200Y6.892600
G1X27.355700Y6.865600
G1X27.335300Y6.830300
G1X27.335300Y6.830000
G1X27.335100Y6.829800
G1X27.323000Y6.784300
G1X27.316600Y6.760400
G1X27.316600Y6.760200
G1X27.316500Y6.759900
G1X27.316600Y6.712400
G1X27.316600Y6.687900
G1X27.316700Y6.687800
G1X27.316700Y6.670100
G1X26.354800Y5.704700
G1X24.992200Y5.702300
G1X24.026800Y6.664300
G1X24.024400Y8.026900
G1X24.986400Y8.992300
G1X25.383200Y8.993000
G1X25.436800Y8.993000
G1X25.437100Y8.993100
G1X25.437300Y8.993100
G1X25.456500Y8.998300
G1X25.506700Y9.011700
G1X25.506900Y9.011900
G1X25.507100Y9.011900
G1X25.527300Y9.023600
G1X25.569400Y9.047900
G1X25.569500Y9.048100
G1X25.569800Y9.048200
G1X25.595700Y9.074300
G1X27.484200Y10.962800
G1X27.486300Y10.964000
G1X27.507300Y10.985900
G1X27.533600Y11.012100
G1X27.535000Y11.014600
G1X27.536500Y11.016100
G1X27.550800Y11.041900
G1X27.569800Y11.074800
G1X27.570500Y11.077500
G1X27.571600Y11.079400
G1X27.579300Y11.110600
G1X27.588500Y11.144700
G1X27.588500Y11.147200
G1X27.589100Y11.149600
G1X27.588500Y11.183200
G1X27.588500Y11.217200
G1X27.587800Y11.219600
G1X27.517000Y15.188700
G1X27.517000Y15.223300
G1X27.516400Y15.225300
G1X27.516400Y15.227700
G1X27.507200Y15.259400
G1X27.498200Y15.293200
G1X27.496900Y15.295300
G1X27.496400Y15.297300
G1X27.480300Y15.323900
G1X27.461900Y15.355800
G1X27.460100Y15.357500
G1X27.459100Y15.359300
G1X27.437200Y15.380300
G1X27.410600Y15.406900
G1X27.408300Y15.408100
G1X27.407000Y15.409500
G1X27.380800Y15.424000
G1X27.347800Y15.443000
G1X27.345400Y15.443600
G1X27.343700Y15.444600
G1X27.313300Y15.452100
G1X27.277900Y15.461600
G1X27.275500Y15.461500
G1X27.273500Y15.462100
G1X27.239700Y15.461400
G1X27.205400Y15.461400
G1X27.203400Y15.460800
G1X27.201000Y15.460800
G1X27.169300Y15.451600
G1X27.135500Y15.442600
G1X27.133400Y15.441300
G1X27.131400Y15.440800
G1X27.104800Y15.424700
G1X27.072900Y15.406300
G1X27.071200Y15.404500
G1X27.069400Y15.403500
G1X27.048500Y15.381700
G1X26.990400Y15.323400
G1X25.627800Y15.321000
G1X24.662400Y16.283000
G1X24.660000Y17.645500
G1X24.833200Y17.819300
G1X24.860300Y17.846400
G1X24.860400Y17.846700
G1X24.860600Y17.846800
G1X24.886000Y17.890900
G1X24.896500Y17.909100
G1X24.896500Y17.909200
G1X24.896700Y17.909500
G1X24.910500Y17.961500
G1X24.915200Y17.979000
G1X24.915200Y17.979200
G1X24.915300Y17.979500
G1X24.915200Y18.016100
G1X24.915200Y25.583800
G1X24.915200Y26.155900
G1X25.126900Y26.666900
G1X26.465200Y28.005300
G1X26.465500Y28.005400
G1X26.490600Y28.030700
G1X26.516300Y28.056300
G1X26.516400Y28.056600
G1X26.516600Y28.056700
G1X26.528800Y28.078000
G1X26.552500Y28.119000
G1X26.571200Y28.188900
G1X26.571200Y28.189100
G1X26.571300Y28.189400
G1X26.571200Y28.242500
G1X26.571200Y28.261400
G1X26.571100Y28.261500
G1X26.570800Y28.468200
G1X26.715300Y28.613200
G1X26.715400Y28.613200
G1X26.766600Y28.664400
G1X26.802800Y28.727100
G1X26.821500Y28.797000
G1X26.821500Y28.797100
G1X26.821600Y28.797400
G1X26.821500Y28.834000
G1X26.821500Y28.869500
G1X26.821400Y28.869800
G1X26.821400Y28.869900
G1X26.819800Y28.875600
G1X26.802800Y28.939400
G1X26.802600Y28.939700
G1X26.802600Y28.939800
G1X26.795200Y28.952600
G1X26.766600Y29.002100
G1X26.766300Y29.002400
G1X26.765900Y29.002800
G1X26.715400Y29.053300
G1X26.652700Y29.089500
G1X26.582800Y29.108200
G1X26.582700Y29.108200
G1X26.582400Y29.108300
G1X26.545800Y29.108200
G1X24.296300Y29.108200
G1X24.296000Y29.108300
G1X24.260100Y29.108200
G1X24.224000Y29.108200
G1X24.223700Y29.108100
G1X24.223500Y29.108100
G1X24.205600Y29.103200
G1X24.154100Y29.089500
G1X24.153800Y29.089300
G1X24.153700Y29.089300
G1X24.135100Y29.078500
G1X24.091400Y29.053300
G1X24.091300Y29.053100
G1X24.091000Y29.053000
G1X24.065900Y29.027700
G1X24.040200Y29.002100
G1X24.040100Y29.001800
G1X24.039900Y29.001700
G1X24.027700Y28.980400
G1X24.004000Y28.939400
G1X23.985300Y28.869500
G1X23.985300Y28.869300
G1X23.985200Y28.869000
G1X23.985300Y28.833100
G1X23.985300Y28.797000
G1X23.985400Y28.796700
G1X23.985400Y28.796500
G1X23.990300Y28.778600
G1X24.004000Y28.727100
G1X24.004200Y28.726800
G1X24.004200Y28.726700
G1X24.015000Y28.708100
G1X24.040200Y28.664400
G1X24.040400Y28.664300
G1X24.040500Y28.664000
G1X24.068200Y28.636500
G1X24.091400Y28.613200
G1X24.091600Y28.613100
G1X24.130900Y28.574000
G1X24.133300Y27.211400
G1X23.171300Y26.246000
G1X21.808700Y26.243600
G1X20.843300Y27.205600
G1X20.840900Y28.568200
G1X20.908700Y28.636200
G1X20.936900Y28.664300
G1X20.937000Y28.664600
G1X20.937200Y28.664700
G1X20.949800Y28.686800
G1X20.973100Y28.727000
G1X20.991800Y28.796900
G1X20.991800Y28.797100
G1X20.991900Y28.797400
G1X20.991800Y28.834000
G1X20.991800Y28.869400
G1X20.991700Y28.869700
G1X20.991700Y28.869800
G1X20.990100Y28.875500
G1X20.973100Y28.939300
G1X20.972900Y28.939600
G1X20.972900Y28.939700
G1X20.961200Y28.959900
G1X20.936900Y29.002000
G1X20.936700Y29.002100
G1X20.936600Y29.002400
G1X20.910500Y29.028300
G1X20.885700Y29.053200
G1X20.885400Y29.053300
G1X20.885300Y29.053500
G1X20.863200Y29.066100
G1X20.823000Y29.089400
G1X20.753100Y29.108100
G1X20.752900Y29.108100
G1X20.752600Y29.108200
G1X20.715600Y29.108100
G1X17.536700Y29.108000
G1X17.536400Y29.108100
G1X17.501000Y29.108000
G1X17.464400Y29.108000
G1X17.464100Y29.107900
G1X17.463900Y29.107900
G1X17.441100Y29.101700
G1X17.394500Y29.089300
G1X17.394300Y29.089100
G1X17.394000Y29.089100
G1X17.359400Y29.069000
G1X17.331800Y29.053100
G1X17.331700Y29.052900
G1X17.331400Y29.052800
G1X17.306300Y29.027500
G1X17.280600Y29.001900
G1X17.280500Y29.001600
G1X17.280300Y29.001500
G1X17.264800Y28.974500
G1X17.244400Y28.939200
G1X17.244400Y28.938900
G1X17.244200Y28.938700
G1X17.232100Y28.893200
G1X17.225700Y28.869300
G1X17.225700Y28.869100
G1X17.225600Y28.868800
G1X17.225700Y28.832900
G1X17.225700Y28.796800
G1X17.225800Y28.796500
G1X17.225800Y28.796300
G1X17.232000Y28.773500
G1X17.244400Y28.726900
G1X17.244600Y28.726700
G1X17.244600Y28.726400
G1X17.264700Y28.691800
G1X17.280600Y28.664200
G1X17.280800Y28.664100
G1X17.280900Y28.663800
G1X17.306800Y28.638000
G1X17.331800Y28.613000
G1X17.332100Y28.612900
G1X17.621900Y28.324200
G1X17.624100Y27.059300
G1X17.624000Y27.059100
G1X17.624200Y26.987700
G1X17.624200Y26.986600
G1X17.643000Y26.916800
G1X17.679300Y26.854100
G1X17.730600Y26.803000
G1X17.793300Y26.767000
G1X17.863300Y26.748300
G1X17.864400Y26.748300
G1X19.200900Y26.750700
G1X20.166300Y25.788700
G1X20.168700Y24.426100
G1X19.995600Y24.252400
G1X19.968400Y24.225300
G1X19.968300Y24.225000
G1X19.968100Y24.224900
G1X19.942700Y24.180800
G1X19.932200Y24.162600
G1X19.932200Y24.162500
G1X19.932000Y24.162200
G1X19.918200Y24.110200
G1X19.913500Y24.092700
G1X19.913500Y24.092500
G1X19.913400Y24.092200
G1X19.913500Y24.055600
G1X19.913500Y23.871400
G1X19.701800Y23.360300
G1X19.246200Y22.904800
G1X15.108200Y18.766700
G1X15.107900Y18.766600
G1X15.082800Y18.741300
G1X15.057100Y18.715700
G1X15.057000Y18.715400
G1X15.056800Y18.715300
G1X15.044600Y18.694000
G1X15.020900Y18.653000
G1X15.002200Y18.583100
G1X15.002200Y18.582900
G1X15.002100Y18.582600
G1X15.002200Y18.529500
G1X15.002200Y18.510600
G1X15.002300Y18.510500
G1X15.002700Y18.303900
G1X14.040700Y17.338500
G1X12.678100Y17.336100
G1X12.308900Y17.704100
G1X12.308900Y17.704200
G1X12.260800Y17.752000
G1X12.257600Y17.755300
G1X12.255700Y17.756300
G1X12.194800Y17.791400
G1X12.125900Y17.809700
G1X12.124900Y17.810000
G1X12.052400Y17.809800
G1X12.049500Y17.809000
G1X11.982500Y17.791000
G1X11.921300Y17.755500
G1X11.919900Y17.754700
G1X11.914700Y17.749400
G1X11.500800Y17.334000
G1X10.138200Y17.331600
G1X9.172800Y18.293600
G1X9.170400Y19.656200
G1X10.132400Y20.621600
G1X11.494900Y20.624000
G1X11.864200Y20.256000
G1X11.864200Y20.255900
G1X11.912300Y20.208000
G1X11.915500Y20.204800
G1X11.917400Y20.203700
G1X11.978300Y20.168700
G1X12.047200Y20.150400
G1X12.048200Y20.150100
G1X12.120700Y20.150300
G1X12.123600Y20.151100
G1X12.190600Y20.169100
G1X12.251800Y20.204600
G1X12.253200Y20.205400
G1X12.258400Y20.210700
G1X12.672300Y20.626100
G1X12.902600Y20.626500
G1X12.955900Y20.626500
G1X12.956200Y20.626600
G1X12.956300Y20.626600
G1X12.962000Y20.628100
G1X13.025800Y20.645200
G1X13.026100Y20.645400
G1X13.026200Y20.645400
G1X13.046400Y20.657100
G1X13.088500Y20.681400
G1X13.088600Y20.681600
G1X13.088900Y20.681700
G1X13.115000Y20.708000
G1X16.772400Y24.365500
G1X16.772700Y24.365600
G1X16.797600Y24.390700
G1X16.823500Y24.416500
G1X16.823600Y24.416800
G1X16.823800Y24.416900
G1X16.836000Y24.438200
G1X16.859700Y24.479200
G1X16.878400Y24.549100
G1X16.878400Y24.549300
G1X16.878500Y24.549600
G1X16.878400Y24.606500
G1X16.878400Y24.621600
G1X16.878400Y24.621700
G1X16.876500Y25.685200
G1X16.876600Y25.685400
G1X16.876400Y25.756800
G1X16.876400Y25.757900
G1X16.857600Y25.827700
G1X16.821300Y25.890400
G1X16.770000Y25.941500
G1X16.707300Y25.977500
G1X16.637300Y25.996200
G1X16.636200Y25.996200
G1X15.397400Y25.994000
G1X15.397200Y25.994100
G1X15.325800Y25.993900
G1X15.324700Y25.993900
G1X15.254900Y25.975100
G1X15.192200Y25.938800
G1X15.141100Y25.887500
G1X15.105100Y25.824800
G1X15.086400Y25.754800
G1X15.086400Y25.753700
G1X15.088800Y24.417200
G1X14.126800Y23.451800
G1X12.764200Y23.449400
G1X11.798800Y24.411400
G1X11.796400Y25.774000
G1X12.758400Y26.739400
G1X14.023300Y26.741600
G1X14.023500Y26.741500
G1X14.094900Y26.741700
G1X14.096000Y26.741700
G1X14.165800Y26.760500
G1X14.228500Y26.796800
G1X14.279600Y26.848100
G1X14.315600Y26.910800
G1X14.334300Y26.980800
G1X14.334300Y26.981900
G1X14.331900Y28.318400
G1X14.649200Y28.636800
G1X14.676700Y28.664200
G1X14.676800Y28.664500
G1X14.677000Y28.664600
G1X14.702400Y28.708700
G1X14.712900Y28.726900
G1X14.712900Y28.727000
G1X14.713100Y28.727300
G1X14.726900Y28.779300
G1X14.731600Y28.796800
G1X14.731600Y28.797000
G1X14.731700Y28.797300
G1X14.731600Y28.833900
G1X14.731600Y28.869300
G1X14.731500Y28.869600
G1X14.731500Y28.869800
G1X14.724900Y28.894200
G1X14.712900Y28.939200
G1X14.712800Y28.939400
G1X14.712700Y28.939700
G1X14.692000Y28.975400
G1X14.676700Y29.001900
G1X14.676500Y29.002000
G1X14.676400Y29.002300
G1X14.650300Y29.028200
G1X14.625500Y29.053100
G1X14.625200Y29.053200
G1X14.625100Y29.053400
G1X14.581000Y29.078800
G1X14.562800Y29.089300
G1X14.562700Y29.089300
G1X14.562400Y29.089500
G1X14.510400Y29.103300
G1X14.492900Y29.108000
G1X14.492700Y29.108000
G1X14.492400Y29.108100
G1X14.455400Y29.108000
G1X10.882900Y29.107900
G1X10.882600Y29.108000
G1X10.847100Y29.107900
G1X10.810600Y29.107900
G1X10.810300Y29.107800
G1X10.810100Y29.107800
G1X10.787300Y29.101600
G1X10.740700Y29.089200
G1X10.740500Y29.089000
G1X10.740200Y29.089000
G1X10.705600Y29.068900
G1X10.678000Y29.053000
G1X10.677900Y29.052800
G1X10.677600Y29.052700
G1X10.652500Y29.027400
G1X10.626800Y29.001800
G1X10.626700Y29.001500
G1X10.626500Y29.001400
G1X10.611000Y28.974400
G1X10.590600Y28.939100
G1X10.590600Y28.938800
G1X10.590400Y28.938600
G1X10.578300Y28.893100
G1X10.571900Y28.869200
G1X10.571900Y28.869000
G1X10.571800Y28.868700
G1X10.571900Y28.832800
G1X10.571900Y28.796700
G1X10.572000Y28.796400
G1X10.572000Y28.796200
G1X10.578200Y28.773400
G1X10.590600Y28.726800
G1X10.590800Y28.726600
G1X10.590800Y28.726300
G1X10.610900Y28.691700
G1X10.626800Y28.664100
G1X10.627000Y28.664000
G1X10.627100Y28.663700
G1X10.654200Y28.636800
G1X10.678000Y28.612900
G1X10.678200Y28.612800
G1X11.564000Y27.730300
G1X11.566400Y26.367700
G1X10.604400Y25.402300
G1X9.241800Y25.399900
G1X8.276400Y26.361900
G1X8.274000Y27.724500
G1X9.182300Y28.635800
G1X9.210500Y28.664000
G1X9.210600Y28.664300
G1X9.210800Y28.664400
G1X9.223400Y28.686500
G1X9.246700Y28.726700
G1X9.265400Y28.796600
G1X9.265400Y28.796800
G1X9.265500Y28.797100
G1X9.265400Y28.833700
G1X9.265400Y28.869100
G1X9.265300Y28.869400
G1X9.265300Y28.869600
G1X9.260100Y28.888800
G1X9.246700Y28.939000
G1X9.246500Y28.939300
G1X9.246500Y28.939400
G1X9.234800Y28.959600
G1X9.210500Y29.001700
G1X9.210300Y29.001800
G1X9.210200Y29.002100
G1X9.184100Y29.028000
G1X9.159300Y29.052900
G1X9.159000Y29.053000
G1X9.158900Y29.053200
G1X9.136800Y29.065800
G1X9.096600Y29.089100
G1X9.026700Y29.107800
G1X9.026500Y29.107800
G1X9.026200Y29.107900
G1X8.989300Y29.107800
G1X3.249800Y29.107700
G1X3.249500Y29.107800
G1X3.213900Y29.107700
G1X3.177500Y29.107700
G1X3.177200Y29.107600
G1X3.177000Y29.107600
G1X3.154200Y29.101400
G1X3.107600Y29.089000
G1X3.107400Y29.088800
G1X3.107100Y29.088800
G1X3.072500Y29.068600
G1X3.044900Y29.052800
G1X3.044800Y29.052600
G1X3.044500Y29.052500
G1X3.019400Y29.027200
G1X2.993700Y29.001600
G1X2.993600Y29.001300
G1X2.993400Y29.001200
G1X2.977900Y28.974200
G1X2.957500Y28.938900
G1X2.957500Y28.938600
G1X2.957300Y28.938400
G1X2.945200Y28.892900
G1X2.938800Y28.869000
G1X2.938800Y28.868800
G1X2.938700Y28.868500
G1X2.938800Y28.832600
G1X2.938800Y28.796500
G1X2.938900Y28.796200
G1X2.938900Y28.796000
G1X2.945100Y28.773200
G1X2.957500Y28.726600
G1X2.957700Y28.726400
G1X2.957700Y28.726100
G1X2.977900Y28.691500
G1X2.993700Y28.663900
G1X2.993900Y28.663800
G1X2.994000Y28.663500
G1X3.020700Y28.637000
G1X3.044900Y28.612700
G1X3.045200Y28.612600
G1X3.944100Y27.717000
G1X3.946500Y26.354400
G1X2.984500Y25.389000
G1X1.621900Y25.386600
G1X1.362000Y25.645600
G1X1.334800Y25.672900
G1X1.334500Y25.673000
G1X1.334400Y25.673200
G1X1.290300Y25.698500
G1X1.272100Y25.709100
G1X1.272000Y25.709100
G1X1.271700Y25.709300
G1X1.219700Y25.723100
G1X1.202200Y25.727800
G1X1.202000Y25.727800
G1X1.201700Y25.727900
G1X1.165100Y25.727800
G1X1.129700Y25.727800
G1X1.129400Y25.727700
G1X1.129200Y25.727700
G1X1.104900Y25.721100
G1X1.059800Y25.709100
G1X1.059600Y25.708900
G1X1.059300Y25.708900
G1X1.023600Y25.688200
G1X0.997100Y25.672900
G1X0.997000Y25.672700
G1X0.996700Y25.672600
G1X0.970800Y25.646500
G1X0.945900Y25.621700
G1X0.945800Y25.621400
G1X0.945600Y25.621300
G1X0.920300Y25.577200
G1X0.909700Y25.559000
G1X0.909700Y25.558900
G1X0.909500Y25.558600
G1X0.895700Y25.506600
G1X0.891000Y25.489100
G1X0.891000Y25.488900
G1X0.890900Y25.488600
G1X0.891000Y25.452000
G1X0.891000Y19.194800
G1X0.909700Y19.124900
G1X0.945900Y19.062200
G1X0.997100Y19.011000
G1X1.059800Y18.974800
G1X1.129700Y18.956100
G1X1.202200Y18.956100
G1X1.272100Y18.974800
G1X1.334800Y19.011000
G1X1.386000Y19.062200
G1X1.386000Y19.062300
G1X2.048600Y19.724900
G1X3.411200Y19.724900
G1X4.374900Y18.761200
G1X4.374900Y17.398500
G1X4.072800Y17.096500
G1X4.036600Y17.033800
G1X4.017900Y16.963900
G1X4.017900Y16.891400
G1X4.017900Y16.728500
G1X4.017900Y16.728400
G1X4.017900Y16.655900
G1X4.036600Y16.586000
G1X4.072800Y16.523300
G1X4.374900Y16.221200
G1X4.374900Y14.858600
G1X4.006200Y14.490000
G1X3.963200Y14.447000
G1X3.955000Y14.438800
G1X3.918800Y14.376100
G1X3.900100Y14.306200
G1X3.900100Y14.233700
G1X3.918800Y14.163800
G1X3.955000Y14.101100
G1X4.006200Y14.049900
G1X4.374900Y13.681200
G1X4.374900Y12.318600
G1X4.006200Y11.950000
G1X3.963200Y11.907000
G1X3.955000Y11.898800
G1X3.918800Y11.836100
G1X3.900100Y11.766200
G1X3.900100Y11.693700
G1X3.918800Y11.623800
G1X3.955000Y11.561100
G1X4.006200Y11.509900
G1X4.374900Y11.141200
G1X4.374900Y9.778600
G1X4.006300Y9.410000
G1X4.006200Y9.410000
G1X3.963200Y9.367000
G1X3.955000Y9.358800
G1X3.918800Y9.296100
G1X3.900100Y9.226200
G1X3.900100Y9.153700
G1X3.918800Y9.083800
G1X3.955000Y9.021100
G1X4.006200Y8.969900
G1X4.374900Y8.601200
G1X4.374900Y7.238600
G1X3.411200Y6.274900
G1X2.048600Y6.274900
G1X1.385900Y6.937700
G1X1.347400Y6.976100
G1X1.334700Y6.988900
G1X1.272000Y7.025100
G1X1.202100Y7.043800
G1X1.129600Y7.043800
G1X1.059700Y7.025100
G1X0.997000Y6.988900
G1X0.945800Y6.937700
G1X0.909600Y6.875000
G1X0.890900Y6.805100
G1X0.890900Y6.732600
G1X0.890900Y1.129600
G1X0.909600Y1.059700
G1X0.945800Y0.997000
G1X0.997000Y0.945800
G1X1.059700Y0.909600
G1X1.129600Y0.890900
G1X1.202100Y0.890900
G1X98.870800Y0.891000
G1X98.940700Y0.909700
G1X99.003400Y0.945900
G1X99.054600Y0.997100
G1X99.090800Y1.059800
G1X99.109500Y1.129700
G1X99.109500Y1.202200
G1X99.109500Y1.831300
G1X99.090800Y1.901200
G1X99.054600Y1.963900
G1X99.003400Y2.015100
G1X98.940700Y2.051300
G1X98.870800Y2.070000
G1X98.798300Y2.070000
G1X98.728400Y2.051300
G1X98.665700Y2.015100
G1X98.614500Y1.963900
G1X98.282100Y1.631500
G1X96.919500Y1.631500
G1X95.955800Y2.595200
G1X95.955800Y3.366700
G1X95.956400Y3.402800
G1X95.955800Y3.405100
G1X95.955800Y3.407400
G1X95.946900Y3.440300
G1X95.939800Y3.469000
G1X95.939800Y3.640600
G1X95.424900Y4.155500
G1X94.696800Y4.155500
G1X94.528000Y3.986600
G1X91.895500Y4.739000
G1X91.893500Y4.740200
G1X91.861100Y4.748800
G1X91.828100Y4.758300
G1X91.825600Y4.758300
G1X91.823600Y4.758900
G1X91.792000Y4.758900
G1X91.755700Y4.759500
G1X91.753400Y4.758900
G1X91.753100Y4.758900
G1X91.624400Y4.812200
G1X91.610600Y4.820500
G1X91.590700Y4.826100
G1X91.572100Y4.833900
G1X91.556400Y4.835900
G1X91.421400Y4.874500
G1X91.420900Y4.874900
G1X91.419600Y4.876700
G1X91.393400Y4.896800
G1X91.366100Y4.918500
G1X91.364000Y4.919400
G1X91.362200Y4.920800
G1X91.331100Y4.933600
G1X91.299700Y4.947300
G1X91.297300Y4.947600
G1X91.296900Y4.947800
G1X91.197800Y5.046900
G1X91.188500Y5.059600
G1X91.172900Y5.071900
G1X91.158200Y5.086700
G1X91.144100Y5.094800
G1X91.035000Y5.181400
G1X91.034600Y5.182200
G1X91.034000Y5.184500
G1X91.018600Y5.211000
G1X91.000800Y5.243200
G1X90.998800Y5.245200
G1X90.997700Y5.247200
G1X90.975300Y5.269400
G1X90.950500Y5.295200
G1X90.948200Y5.296500
G1X90.947700Y5.297000
G1X90.894300Y5.426100
G1X90.890400Y5.441700
G1X90.880300Y5.459700
G1X90.872600Y5.478500
G1X90.862900Y5.491100
G1X90.795100Y5.613000
G1X90.795100Y5.613400
G1X90.795500Y5.616200
G1X90.790600Y5.652700
G1X90.787200Y5.683100
G1X90.786300Y5.685200
G1X90.786000Y5.688000
G1X90.772500Y5.720400
G1X90.760700Y5.750500
G1X90.759100Y5.752500
G1X90.758900Y5.753200
G1X90.758900Y5.892900
G1X90.761200Y5.908600
G1X90.758900Y5.929100
G1X90.758900Y5.949500
G1X90.754800Y5.964700
G1X90.738900Y6.103600
G1X90.739100Y6.104300
G1X90.740200Y6.106200
G1X90.748500Y6.137200
G1X90.758300Y6.171500
G1X90.758300Y6.174100
G1X90.758900Y6.176100
G1X90.758900Y6.207700
G1X90.759500Y6.244000
G1X90.758900Y6.246400
G1X90.758900Y6.275100
G1X90.740200Y6.345000
G1X90.704000Y6.407700
G1X90.652800Y6.458900
G1X90.590100Y6.495100
G1X90.520200Y6.513800
G1X90.447700Y6.513800
G1X90.377800Y6.495100
G1X90.315100Y6.458900
G1X90.263900Y6.407700
G1X90.263900Y6.407600
G1X89.951200Y6.094900
G1X88.588600Y6.094900
G1X87.624900Y7.058600
G1X87.624900Y8.421200
G1X88.588600Y9.384900
G1X89.951200Y9.384900
G1X90.263900Y9.072200
G1X90.263900Y9.072100
G1X90.307800Y9.028300
G1X90.315100Y9.020900
G1X90.377800Y8.984700
G1X90.447700Y8.966000
G1X90.520200Y8.966000
G1X90.590100Y8.984700
G1X90.652800Y9.020900
G1X90.704000Y9.072100
G1X90.740200Y9.134800
G1X90.758900Y9.204700
G1X90.758900Y9.277200
G1X90.758900Y10.520200
G1X90.740200Y10.590100
G1X90.704000Y10.652800
G1X90.652800Y10.704000
G1X90.590100Y10.740200
G1X90.520200Y10.758900
G1X90.447700Y10.758900
G1X90.265200Y10.758900
G1X77.252900Y10.758900
G1X76.797000Y10.947800
G1X76.407500Y11.337200
G1X74.735900Y13.009000
G1X74.711900Y13.032900
G1X74.684700Y13.060200
G1X74.622000Y13.096400
G1X74.552100Y13.115100
G1X74.479600Y13.115100
G1X74.409700Y13.096400
G1X74.347000Y13.060200
G1X74.295800Y13.009000
G1X74.259600Y12.946300
G1X74.240900Y12.876400
G1X74.240900Y12.803900
G1X74.240900Y8.752900
G1X74.052000Y8.297000
G1X73.939400Y8.184400
G1X73.903200Y8.121700
G1X73.884500Y8.051800
G1X73.884500Y7.979300
G1X73.884500Y7.409300
G1X72.920800Y6.445600
G1X71.558200Y6.445600
G1X70.594500Y7.409300
G1X70.594500Y8.771900
G1X71.572000Y9.749500
G1X71.590100Y9.754300
G1X71.652800Y9.790500
G1X71.704000Y9.841700
G1X71.740200Y9.904400
G1X71.758900Y9.974300
G1X71.758900Y10.046800
G1X71.758900Y12.983600
G1X71.760100Y12.988800
G1X71.758900Y13.019800
G1X71.758900Y13.050900
G1X71.757500Y13.056100
G1X71.757300Y13.061200
G1X71.748400Y13.089800
G1X71.740200Y13.120800
G1X71.737500Y13.125400
G1X71.736000Y13.130400
G1X71.719800Y13.156000
G1X71.704000Y13.183500
G1X71.700100Y13.187300
G1X71.697400Y13.191700
G1X71.675100Y13.212400
G1X71.652800Y13.234700
G1X71.648200Y13.237300
G1X71.644400Y13.240900
G1X71.617000Y13.255300
G1X71.590100Y13.270900
G1X71.585000Y13.272200
G1X71.580400Y13.274700
G1X71.549900Y13.281600
G1X71.520200Y13.289600
G1X71.515000Y13.289600
G1X71.509800Y13.290800
G1X71.478800Y13.289600
G1X71.447700Y13.289600
G1X71.442500Y13.288200
G1X71.437400Y13.288000
G1X71.408800Y13.279100
G1X71.377800Y13.270900
G1X71.373200Y13.268200
G1X71.368200Y13.266700
G1X71.342600Y13.250500
G1X71.315100Y13.234700
G1X71.311300Y13.230800
G1X71.306900Y13.228100
G1X71.286200Y13.205800
G1X71.263900Y13.183500
G1X71.261300Y13.178900
G1X71.257700Y13.175100
G1X71.243300Y13.147700
G1X71.227700Y13.120800
G1X71.226400Y13.115700
G1X71.223900Y13.111100
G1X71.217000Y13.080700
G1X71.209000Y13.050900
G1X71.209000Y13.045700
G1X71.171600Y12.881400
G1X70.718300Y12.313200
G1X70.063000Y11.997600
G1X69.336000Y11.997600
G1X68.680700Y12.313200
G1X68.227400Y12.881400
G1X68.189300Y13.048500
G1X69.735300Y13.048500
G1X69.856100Y13.072500
G1X69.969800Y13.119600
G1X70.072200Y13.188000
G1X70.159200Y13.275000
G1X70.227600Y13.377400
G1X70.274700Y13.491100
G1X70.298700Y13.611900
G1X70.298700Y13.735000
G1X70.274700Y13.855800
G1X70.227600Y13.969500
G1X70.159200Y14.071900
G1X70.072200Y14.158900
G1X69.969800Y14.227300
G1X69.856100Y14.274400
G1X69.735300Y14.298400
G1X68.227100Y14.298400
G1X68.227400Y14.299700
G1X68.680700Y14.868000
G1X69.336000Y15.183600
G1X70.063000Y15.183600
G1X70.718300Y14.868000
G1X71.171600Y14.299700
G1X71.209000Y14.135500
G1X71.209000Y14.130300
G1X71.217000Y14.100600
G1X71.223900Y14.070100
G1X71.226400Y14.065500
G1X71.227700Y14.060400
G1X71.243200Y14.033600
G1X71.257700Y14.006100
G1X71.261300Y14.002300
G1X71.263900Y13.997700
G1X71.286200Y13.975500
G1X71.306900Y13.953100
G1X71.311300Y13.950400
G1X71.315100Y13.946500
G1X71.342600Y13.930700
G1X71.368200Y13.914500
G1X71.373200Y13.913000
G1X71.377800Y13.910300
G1X71.408700Y13.902100
G1X71.437400Y13.893200
G1X71.442500Y13.893000
G1X71.447700Y13.891600
G1X71.478700Y13.891600
G1X71.509800Y13.890400
G1X71.515000Y13.891600
G1X71.520200Y13.891600
G1X71.549800Y13.899600
G1X71.580400Y13.906500
G1X71.585000Y13.909000
G1X71.590100Y13.910300
G1X71.616900Y13.925800
G1X71.644400Y13.940300
G1X71.648200Y13.943900
G1X71.652800Y13.946500
G1X71.675000Y13.968800
G1X71.697400Y13.989500
G1X71.700100Y13.993900
G1X71.704000Y13.997700
G1X71.719800Y14.025200
G1X71.736000Y14.050800
G1X71.737500Y14.055800
G1X71.740200Y14.060400
G1X71.748400Y14.091300
G1X71.757300Y14.120000
G1X71.757500Y14.125100
G1X71.758900Y14.130300
G1X71.758900Y14.161300
G1X71.760100Y14.192400
G1X71.758900Y14.197600
G1X71.758900Y15.740300
G1X71.760800Y15.750300
G1X71.758900Y15.775700
G1X71.758900Y15.802000
G1X71.756200Y15.812100
G1X71.755400Y15.822600
G1X71.746800Y15.846900
G1X71.740200Y15.871900
G1X71.735000Y15.880900
G1X71.731500Y15.890900
G1X71.716800Y15.912400
G1X71.704000Y15.934600
G1X71.696600Y15.941900
G1X69.424300Y19.271000
G1X69.411100Y19.293900
G1X69.403500Y19.301500
G1X69.397700Y19.310000
G1X69.378200Y19.326700
G1X69.359900Y19.345100
G1X69.350900Y19.350200
G1X69.342900Y19.357200
G1X69.319500Y19.368400
G1X69.297200Y19.381300
G1X69.286800Y19.384000
G1X69.277600Y19.388500
G1X69.252800Y19.393100
G1X69.227300Y19.400000
G1X69.216500Y19.400000
G1X69.206500Y19.401900
G1X69.181000Y19.400000
G1X69.118000Y19.400000
G1X69.048100Y19.381300
G1X68.985400Y19.345100
G1X68.934200Y19.293900
G1X68.898000Y19.231200
G1X68.879300Y19.161300
G1X68.879300Y19.088800
G1X68.879300Y17.923200
G1X68.325300Y17.369300
G1X68.302200Y17.347300
G1X68.300500Y17.344400
G1X68.298000Y17.342000
G1X68.280900Y17.312300
G1X68.264500Y17.285500
G1X68.263600Y17.282400
G1X68.261800Y17.279300
G1X68.252900Y17.246000
G1X68.244100Y17.216100
G1X68.244100Y17.212800
G1X68.243100Y17.209400
G1X68.243100Y17.175000
G1X68.214600Y16.006600
G1X68.213800Y16.003700
G1X68.213700Y15.969600
G1X68.212900Y15.937000
G1X68.213600Y15.934200
G1X68.213100Y15.766800
G1X68.212700Y15.764100
G1X68.211700Y15.760700
G1X68.143800Y15.607800
G1X68.142100Y15.605600
G1X68.130600Y15.577900
G1X68.115800Y15.544700
G1X68.115300Y15.541300
G1X68.050000Y15.384800
G1X68.048300Y15.382000
G1X68.046400Y15.379600
G1X67.924400Y15.263500
G1X67.921700Y15.262000
G1X67.898000Y15.238300
G1X67.874000Y15.215600
G1X67.872500Y15.213000
G1X67.752500Y15.093800
G1X67.750300Y15.092100
G1X67.747500Y15.090500
G1X67.587700Y15.028900
G1X67.584700Y15.028600
G1X67.553800Y15.015900
G1X67.522900Y15.004000
G1X67.520500Y15.002200
G1X67.366300Y14.938900
G1X67.363800Y14.938200
G1X67.360900Y14.937900
G1X67.190500Y14.942100
G1X67.187500Y14.943000
G1X67.152700Y14.943100
G1X67.120900Y14.943900
G1X67.118200Y14.943200
G1X64.355100Y14.952100
G1X64.354500Y14.952300
G1X64.301900Y14.952300
G1X64.282900Y14.952400
G1X64.282700Y14.952300
G1X64.282000Y14.952300
G1X64.227200Y14.937600
G1X64.212900Y14.933900
G1X64.212800Y14.933800
G1X64.212100Y14.933600
G1X64.162700Y14.905000
G1X64.150100Y14.897900
G1X64.150000Y14.897700
G1X64.149400Y14.897400
G1X64.106600Y14.854600
G1X64.098800Y14.846900
G1X64.098800Y14.846700
G1X64.098200Y14.846200
G1X64.064900Y14.788500
G1X64.062400Y14.784300
G1X64.062400Y14.784200
G1X64.062000Y14.783500
G1X64.049300Y14.736000
G1X64.043400Y14.714500
G1X64.043400Y14.714100
G1X64.043300Y14.713600
G1X64.043300Y14.664300
G1X64.043200Y14.642000
G1X64.043300Y14.641800
G1X64.043300Y11.081000
G1X64.042000Y11.075100
G1X64.043300Y11.045700
G1X64.043300Y11.014900
G1X64.044900Y11.008800
G1X64.045200Y11.002700
G1X64.054200Y10.974300
G1X64.062000Y10.945000
G1X64.065100Y10.939700
G1X64.067000Y10.933600
G1X64.083300Y10.908100
G1X64.098200Y10.882300
G1X64.102700Y10.877900
G1X64.106000Y10.872600
G1X64.128100Y10.852500
G1X64.149400Y10.831100
G1X64.154900Y10.828000
G1X64.159400Y10.823800
G1X64.185700Y10.810200
G1X64.212100Y10.794900
G1X64.218200Y10.793300
G1X66.220000Y9.753900
G1X66.244800Y9.739700
G1X66.249900Y9.738400
G1X66.255400Y9.735500
G1X66.286500Y9.728700
G1X66.314800Y9.721200
G1X66.320600Y9.721200
G1X66.326100Y9.720000
G1X66.355800Y9.721300
G1X66.387300Y9.721400
G1X66.393000Y9.723000
G1X66.398500Y9.723200
G1X66.427300Y9.732300
G1X66.439400Y9.735600
G1X67.840800Y9.735600
G1X68.804500Y8.771900
G1X68.804500Y7.409300
G1X67.847000Y6.451900
G1X67.813200Y6.418000
G1X67.795800Y6.400700
G1X67.759600Y6.338000
G1X67.740900Y6.268100
G1X67.740900Y6.195600
G1X67.740900Y5.425600
G1X67.759600Y5.355700
G1X67.795800Y5.293000
G1X67.847000Y5.241800
G1X67.909700Y5.205600
G1X67.936400Y5.198500
G1X68.911600Y4.223200
G1X68.911600Y2.860600
G1X67.947900Y1.896900
G1X66.585300Y1.896900
G1X65.621600Y2.860600
G1X65.621600Y3.545500
G1X65.602900Y3.615400
G1X65.566700Y3.678100
G1X65.515500Y3.729300
G1X65.447800Y3.797000
G1X65.258900Y4.253000
G1X65.258900Y6.734600
G1X65.258900Y7.246900
G1X65.381000Y7.541600
G1X65.392400Y7.563500
G1X65.395000Y7.575400
G1X65.399500Y7.586200
G1X65.402700Y7.610500
G1X65.407900Y7.634100
G1X65.407400Y7.645800
G1X65.409000Y7.658100
G1X65.405700Y7.682500
G1X65.404700Y7.706600
G1X65.401000Y7.718100
G1X65.399500Y7.729900
G1X65.390400Y7.751800
G1X65.382900Y7.775600
G1X65.376200Y7.786000
G1X65.371800Y7.796700
G1X65.357200Y7.815700
G1X65.343900Y7.836600
G1X65.335100Y7.844600
G1X65.327800Y7.854200
G1X65.308300Y7.869000
G1X65.290500Y7.885400
G1X65.279700Y7.891000
G1X65.270300Y7.898200
G1X65.248100Y7.907400
G1X62.590500Y9.287100
G1X62.581300Y9.294200
G1X62.559400Y9.303200
G1X62.537200Y9.314800
G1X62.525100Y9.317400
G1X62.410300Y9.364900
G1X62.402300Y9.372200
G1X62.380800Y9.393900
G1X62.374900Y9.397300
G1X62.370200Y9.401600
G1X62.343700Y9.415200
G1X62.334000Y9.420900
G1X62.253500Y9.516600
G1X62.247600Y9.527000
G1X62.230700Y9.543800
G1X62.214900Y9.562700
G1X62.204800Y9.569700
G1X62.116400Y9.658000
G1X62.111400Y9.668700
G1X62.100200Y9.696000
G1X62.096300Y9.701000
G1X62.093400Y9.707300
G1X62.073600Y9.730700
G1X62.067300Y9.738900
G1X62.029700Y9.858000
G1X62.028100Y9.870100
G1X62.018700Y9.892500
G1X62.011500Y9.915600
G1X62.005000Y9.925700
G1X61.956900Y10.041600
G1X61.956500Y10.052000
G1X61.956500Y10.082700
G1X61.954800Y10.088700
G1X61.954600Y10.095000
G1X61.945500Y10.123500
G1X61.942600Y10.134500
G1X61.953400Y10.259300
G1X61.956500Y10.270800
G1X61.956500Y10.295100
G1X61.958600Y10.319500
G1X61.956500Y10.331300
G1X61.956500Y15.722700
G1X61.958900Y15.741700
G1X61.956500Y15.759000
G1X61.956500Y15.776300
G1X61.955800Y15.778800
G1X61.956300Y15.951600
G1X61.956500Y15.952200
G1X61.956500Y16.004200
G1X61.956600Y16.023800
G1X61.956500Y16.024000
G1X61.956500Y16.209100
G1X62.021800Y16.365400
G1X62.022000Y16.365600
G1X62.030700Y16.386600
G1X62.049500Y16.431600
G1X62.049600Y16.432300
G1X62.115900Y16.592500
G1X62.231600Y16.707300
G1X62.232000Y16.707500
G1X62.252900Y16.728500
G1X62.282500Y16.757800
G1X62.282800Y16.758400
G1X62.409900Y16.885600
G1X62.555600Y16.945400
G1X62.556100Y16.945400
G1X62.586800Y16.958200
G1X62.622100Y16.972600
G1X62.622500Y16.972900
G1X62.793900Y17.043900
G1X62.950500Y17.043500
G1X62.950900Y17.043300
G1X62.990300Y17.043300
G1X63.022500Y17.043200
G1X63.022800Y17.043300
G1X63.226400Y17.043300
G1X63.230100Y17.042300
G1X63.245000Y17.042300
G1X63.260800Y17.040000
G1X63.274300Y17.041600
G1X63.289500Y17.040900
G1X63.295900Y17.042300
G1X63.302600Y17.042300
G1X63.320700Y17.047200
G1X63.332800Y17.048600
G1X63.342300Y17.052400
G1X63.360200Y17.056300
G1X63.365900Y17.059300
G1X63.372500Y17.061000
G1X63.392200Y17.072400
G1X63.400000Y17.075500
G1X63.405500Y17.079700
G1X63.424500Y17.089400
G1X63.429400Y17.093900
G1X63.435200Y17.097200
G1X63.453600Y17.115700
G1X63.458000Y17.118900
G1X63.460600Y17.122200
G1X63.478100Y17.138100
G1X63.481700Y17.143700
G1X63.486400Y17.148400
G1X63.500600Y17.173200
G1X63.502700Y17.175700
G1X63.503600Y17.177900
G1X63.517200Y17.199000
G1X63.519100Y17.205200
G1X63.522600Y17.211100
G1X63.530300Y17.240000
G1X63.530600Y17.241100
G1X63.531200Y17.242300
G1X63.531300Y17.243100
G1X63.539300Y17.268000
G1X63.539600Y17.274800
G1X63.541300Y17.281000
G1X63.541300Y17.310600
G1X63.541400Y17.312500
G1X63.541600Y17.313900
G1X63.541500Y17.314800
G1X63.542700Y17.340400
G1X63.541300Y17.346800
G1X63.541300Y17.353500
G1X63.533500Y17.382700
G1X63.533200Y17.383700
G1X63.533000Y17.385900
G1X63.532500Y17.387000
G1X63.527300Y17.411100
G1X63.524300Y17.416800
G1X63.522600Y17.423400
G1X63.507500Y17.449400
G1X63.506100Y17.453100
G1X63.504700Y17.454900
G1X63.494200Y17.475400
G1X63.489700Y17.480300
G1X63.486400Y17.486100
G1X63.466500Y17.505900
G1X63.462700Y17.511100
G1X63.459400Y17.513700
G1X63.445500Y17.529000
G1X63.439900Y17.532600
G1X63.049300Y17.923200
G1X63.049300Y19.285800
G1X63.390800Y19.627300
G1X63.390900Y19.627300
G1X63.434300Y19.670800
G1X63.442100Y19.678500
G1X63.478300Y19.741200
G1X63.497000Y19.811100
G1X63.497000Y19.883600
G1X63.478300Y19.953500
G1X63.442100Y20.016200
G1X63.390900Y20.067400
G1X63.390800Y20.067400
G1X63.084300Y20.373900
G1X63.084300Y21.736500
G1X63.452900Y22.105100
G1X63.453000Y22.105100
G1X63.496000Y22.148100
G1X63.504200Y22.156300
G1X63.540400Y22.219000
G1X63.559100Y22.288900
G1X63.559100Y22.361400
G1X63.540400Y22.431300
G1X63.504200Y22.494000
G1X63.453000Y22.545200
G1X63.084300Y22.913900
G1X63.084300Y24.276500
G1X63.855700Y25.047900
G1X63.855800Y25.047900
G1X63.892500Y25.084700
G1X63.907000Y25.099100
G1X63.943200Y25.161800
G1X63.961900Y25.231700
G1X63.961900Y25.304200
G1X63.943200Y25.374100
G1X63.907000Y25.436800
G1X63.855800Y25.488000
G1X63.855700Y25.488000
G1X63.032400Y26.311300
G1X63.032400Y27.673900
G1X63.407100Y28.048600
G1X65.947700Y28.048600
G1X66.322400Y27.673900
G1X66.322400Y26.311300
G1X65.550900Y25.539900
G1X65.514200Y25.503100
G1X65.499700Y25.488700
G1X65.463500Y25.426000
G1X65.444800Y25.356100
G1X65.444800Y25.283600
G1X65.463500Y25.213700
G1X65.499700Y25.151000
G1X65.550900Y25.099800
G1X65.859800Y24.790900
G1X65.922500Y24.754700
G1X65.992400Y24.736000
G1X66.064900Y24.736000
G1X66.134800Y24.754700
G1X66.197500Y24.790900
G1X66.248700Y24.842100
G1X66.627300Y25.220700
G1X67.989900Y25.220700
G1X68.358400Y24.852200
G1X68.358400Y24.852100
G1X68.401500Y24.809100
G1X68.409600Y24.800900
G1X68.472300Y24.764700
G1X68.542200Y24.746000
G1X68.614700Y24.746000
G1X68.684600Y24.764700
G1X68.747300Y24.800900
G1X68.798500Y24.852100
G1X68.798500Y24.852200
G1X69.176300Y25.230000
G1X70.538900Y25.230000
G1X71.502600Y24.266300
G1X71.502600Y22.903700
G1X71.082700Y22.483800
G1X71.046500Y22.421100
G1X71.027800Y22.351200
G1X71.027800Y22.278700
G1X71.046500Y22.208800
G1X71.082700Y22.146100
G1X71.133900Y22.094900
G1X71.134000Y22.094900
G1X71.502600Y21.726400
G1X71.502600Y21.271300
G1X71.500700Y21.261300
G1X71.502600Y21.235900
G1X71.502600Y21.209600
G1X71.505300Y21.199500
G1X71.506100Y21.189000
G1X71.514700Y21.164600
G1X71.521300Y21.139700
G1X71.526500Y21.130700
G1X71.530000Y21.120700
G1X71.544700Y21.099200
G1X71.557500Y21.077000
G1X71.564900Y21.069700
G1X74.304700Y17.055700
G1X74.310000Y17.030200
G1X74.310000Y17.022400
G1X74.317400Y16.994700
G1X74.323200Y16.967000
G1X74.326700Y16.960200
G1X74.328700Y16.952500
G1X74.343100Y16.927600
G1X74.355800Y16.902400
G1X74.361000Y16.896700
G1X74.364900Y16.889800
G1X74.385500Y16.869300
G1X74.404100Y16.848400
G1X74.410500Y16.844300
G1X77.959000Y13.295800
G1X78.021700Y13.259600
G1X78.091600Y13.240900
G1X78.164100Y13.240900
G1X88.520200Y13.240900
G1X88.590100Y13.259600
G1X88.652800Y13.295800
G1X88.704000Y13.347000
G1X88.740200Y13.409700
G1X88.758900Y13.479600
G1X88.758900Y13.552100
G1X88.758900Y19.945200
G1X88.759900Y19.949400
G1X88.758900Y19.980800
G1X88.758900Y20.013100
G1X88.757700Y20.017400
G1X88.751700Y20.207000
G1X88.754000Y20.213000
G1X88.755300Y20.227000
G1X88.758900Y20.240100
G1X88.758900Y20.262800
G1X88.761100Y20.285200
G1X88.758900Y20.298600
G1X88.758900Y20.337700
G1X88.758900Y20.408200
G1X88.740200Y20.478100
G1X88.704000Y20.540800
G1X88.652800Y20.592000
G1X86.687700Y22.557100
G1X86.498800Y23.013100
G1X86.498800Y23.597800
G1X86.498800Y25.350100
G1X86.480100Y25.420000
G1X86.443900Y25.482700
G1X86.392700Y25.533900
G1X86.094800Y25.831800
G1X86.094800Y27.194400
G1X87.058500Y28.158100

G0Z0.500
G0X73.187500Y26.609400
G1Z-0.100 f25
G1X73.187500Y27.337500 f200
G1X72.672600Y27.852400
G1X71.944500Y27.852400
G1X71.429600Y27.337500
G1X71.429600Y26.609400
G1X71.944500Y26.094500
G1X72.672600Y26.094500
G1X73.187500Y26.609400

G0Z0.500
G0X65.608300Y23.231200
G1Z-0.100 f25
G1X65.608300Y23.959300 f200
G1X65.093400Y24.474200
G1X64.365300Y24.474200
G1X63.850400Y23.959300
G1X63.850400Y23.231200
G1X64.365300Y22.716300
G1X65.093400Y22.716300
G1X65.608300Y23.231200

G0Z0.500
G0X68.187600Y20.671700
G1Z-0.100 f25
G1X68.187600Y20.758400 f200
G1X68.978700Y20.758400
G1X68.978700Y20.681000
G1X69.493600Y20.166100
G1X69.740900Y20.166100
G1X72.518500Y16.096800
G1X72.525000Y16.090400
G1X72.525000Y9.196700
G1X72.297900Y8.969600
G1X71.875500Y8.969600
G1X71.360600Y8.454700
G1X71.360600Y7.726600
G1X71.875500Y7.211700
G1X72.603600Y7.211700
G1X73.118500Y7.726600
G1X73.118500Y8.446800
G1X73.291600Y8.619900
G1X73.380000Y8.708300
G1X73.442500Y8.816600
G1X73.474900Y8.937400
G1X73.474900Y15.353400
G1X77.119900Y11.708300
G1X77.208300Y11.619900
G1X77.316600Y11.557400
G1X77.437400Y11.525000
G1X90.062500Y11.525000
G1X91.525000Y11.525000
G1X91.525000Y6.004900
G1X91.524000Y5.945300
G1X91.525000Y5.941400
G1X91.525000Y5.937400
G1X91.539900Y5.881800
G1X91.554400Y5.824000
G1X91.556400Y5.820500
G1X91.557400Y5.816600
G1X91.586800Y5.765700
G1X91.615100Y5.714700
G1X91.617900Y5.711900
G1X91.619900Y5.708300
G1X91.661400Y5.666800
G1X91.702000Y5.624800
G1X91.705500Y5.622700
G1X91.708300Y5.619900
G1X91.759000Y5.590700
G1X91.809300Y5.560500
G1X91.813200Y5.559400
G1X91.816600Y5.557400
G1X91.874100Y5.542000
G1X97.123000Y4.041700
G1X96.721900Y3.640600
G1X96.721900Y2.912500
G1X97.236800Y2.397600
G1X97.964900Y2.397600
G1X98.479800Y2.912500
G1X98.479800Y3.640600
G1X98.075800Y4.044600
G1X98.075800Y4.393900
G1X98.076800Y4.453700
G1X98.075800Y4.457700
G1X98.075800Y4.461600
G1X98.060900Y4.517000
G1X98.046400Y4.575000
G1X98.044400Y4.578500
G1X98.043400Y4.582400
G1X98.014100Y4.633200
G1X97.985700Y4.684300
G1X97.982900Y4.687100
G1X97.980900Y4.690700
G1X97.939500Y4.732000
G1X97.898800Y4.774200
G1X97.895300Y4.776300
G1X97.892500Y4.779100
G1X97.841900Y4.808200
G1X97.791500Y4.838500
G1X97.787600Y4.839600
G1X97.784200Y4.841600
G1X97.726900Y4.856900
G1X92.474900Y6.358200
G1X92.474900Y12.062500
G1X92.442500Y12.183300
G1X92.380000Y12.291600
G1X92.291600Y12.380000
G1X92.183300Y12.442500
G1X92.062500Y12.474900
G1X91.937400Y12.474900
G1X90.474900Y12.474900
G1X90.474900Y19.313100
G1X92.470400Y18.560100
G1X93.851000Y17.949400
G1X93.851000Y17.715900
G1X94.365900Y17.201000
G1X95.094000Y17.201000
G1X95.608900Y17.715900
G1X95.608900Y18.444000
G1X95.094000Y18.958900
G1X94.365900Y18.958900
G1X94.228200Y18.821200
G1X92.887000Y19.414400
G1X92.876200Y19.422200
G1X92.830200Y19.439500
G1X92.784900Y19.459600
G1X92.771500Y19.461700
G1X90.474900Y20.328400
G1X90.474900Y20.803200
G1X95.792700Y26.121000
G1X96.094000Y26.121000
G1X96.608900Y26.635900
G1X96.608900Y27.364000
G1X96.094000Y27.878900
G1X95.365900Y27.878900
G1X94.851000Y27.364000
G1X94.851000Y26.635900
G1X94.907700Y26.579300
G1X90.000000Y21.671600
G1X88.214800Y23.456800
G1X88.214800Y25.745100
G1X88.618800Y26.149100
G1X88.618800Y26.877200
G1X88.103900Y27.392100
G1X87.375800Y27.392100
G1X86.860900Y26.877200
G1X86.860900Y26.149100
G1X87.264900Y25.745100
G1X87.264900Y23.322600
G1X87.264900Y23.197500
G1X87.297300Y23.076700
G1X87.359800Y22.968400
G1X89.525000Y20.803200
G1X89.525000Y20.062500
G1X89.525000Y20.023800
G1X89.521100Y19.984600
G1X89.525000Y19.961000
G1X89.525000Y12.474900
G1X77.696700Y12.474900
G1X73.624500Y16.547100
G1X73.624300Y16.567700
G1X73.599100Y16.688200
G1X73.550800Y16.801500
G1X70.736600Y20.924400
G1X70.736600Y21.409100
G1X70.221700Y21.924000
G1X69.493600Y21.924000
G1X68.978700Y21.409100
