(This G-Code generated with CNC-DRILL-GCODE.ulp program)
(running under Eagle CAD.)

N00010  M03 S3000
G00 Z2.00 F400
(----------------------------------------------------------)
( Drill size=1.000mm )
(----------------------------------------------------------)
N00020  G00 X1.270 Y1.270
N00030  G1Z-1.70f50
N00040  G00 Z1.00 F400
N00050  G00 X1.270 Y3.810
N00060  G1Z-1.70f50
N00070  G00 Z1.00 F400
N00080  G00 X3.810 Y3.810
N00090  G1Z-1.70f50
N00100  G00 Z1.00 F400
N00110  G00 X1.270 Y6.350
N00120  G1Z-1.70f50
N00130  G00 Z1.00 F400
N00140  G00 X8.890 Y1.270
N00150  G1Z-1.70f50
N00160  G00 Z1.00 F400
N00170  G00 X11.430 Y3.810
N00180  G1Z-1.70f50
N00190  G00 Z1.00 F400
N00200  G00 X16.510 Y1.270
N00210  G1Z-1.70f50
N00220  G00 Z1.00 F400
N00230  G00 X19.232 Y3.501
N00240  G1Z-1.70f50
N00250  G00 Z1.00 F400
N00260  G00 X21.772 Y3.501
N00270  G1Z-1.70f50
N00280  G00 Z1.00 F400
N00290  G00 X26.230 Y3.499
N00300  G1Z-1.70f50
N00310  G00 Z1.00 F400
N00320  G00 X28.770 Y3.499
N00330  G1Z-1.70f50
N00340  G00 Z1.00 F400

(----------------------------------------------------------)
N00350  G00 Z2.00 F400
N00360  G00 X0 Y0 F400
N00370  M05 
