(This GCode generated with outlines_gcode_excel_mirrored.ulp program)
(running under Eagle CAD.)
(Use with mechanical etching/engraving bits, such as the)
(Think&Tinker Mechanical Etching Bit with 60-degree tip angle)
(X/Y/Z home should be at lower left corner of the board, with the tip just touching)
(C:/Users/Owner/Documents/eagle/nixie_neon_colon/untitledpattern_bot_1mm.nc layer 16)

(mm, Absolute mode, lift cutter above work, rapid to X/Y home, turn spindle on.)
G90
G0Z0.500
G0X0Y0
M03

(Begin)
G0Z0.500
G0X10.176000Y4.329300
G1Z-0.100 f25
G1X10.910600Y5.063900 f200
G1X11.949300Y5.063900
G1X12.466400Y4.546700
G1X13.483200Y5.760100
G1X13.499300Y5.784300
G1X13.524600Y5.809500
G1X13.547300Y5.836700
G1X13.569700Y5.854600
G1X13.590200Y5.875200
G1X13.620200Y5.895200
G1X13.647500Y5.917200
G1X13.672600Y5.930300
G1X13.697000Y5.946600
G1X13.730300Y5.960300
G1X13.761400Y5.976600
G1X13.789100Y5.984600
G1X13.815700Y5.995700
G1X13.823400Y5.997200
G1X5.546200Y6.006500
G1X9.397300Y4.059300
G1X9.427400Y4.047700
G1X9.455100Y4.030100
G1X9.483800Y4.015600
G1X9.508800Y3.996000
G1X9.535900Y3.978800
G1X9.559400Y3.956300
G1X9.584900Y3.936400
G1X9.605800Y3.912100
G1X10.176000Y3.368000
G1X10.176000Y4.329300

G0Z0.500
G0X18.673800Y4.716100
G1Z-0.100 f25
G1X14.310400Y4.716100 f200
G1X13.222800Y3.418300
G1X13.206700Y3.394100
G1X13.181400Y3.368900
G1X13.158700Y3.341700
G1X13.136300Y3.323800
G1X13.115800Y3.303200
G1X13.085900Y3.283200
G1X13.058500Y3.261200
G1X13.033300Y3.248100
G1X13.009000Y3.231800
G1X12.975700Y3.218100
G1X12.944600Y3.201800
G1X12.916900Y3.193800
G1X12.890300Y3.182700
G1X12.855300Y3.175800
G1X12.821300Y3.165800
G1X12.792700Y3.163300
G1X12.764200Y3.157600
G1X12.728400Y3.157600
G1X12.693200Y3.154500
G1X12.664700Y3.157600
G1X12.550800Y3.157600
G1X11.949300Y2.556000
G1X11.027000Y2.556000
G1X11.686700Y1.926600
G1X13.258300Y1.952200
G1X14.328500Y3.873600
G1X14.339700Y3.900000
G1X14.359000Y3.928300
G1X14.376400Y3.959600
G1X14.395900Y3.982500
G1X14.412000Y4.006200
G1X14.436400Y4.030200
G1X14.459600Y4.057500
G1X14.482800Y4.075800
G1X14.503600Y4.096300
G1X14.533200Y4.115600
G1X14.560400Y4.137200
G1X14.586500Y4.150500
G1X14.611100Y4.166700
G1X14.643600Y4.179800
G1X14.674700Y4.195800
G1X14.702800Y4.203800
G1X14.730200Y4.214900
G1X14.764700Y4.221400
G1X14.798300Y4.231000
G1X14.828100Y4.233400
G1X14.856500Y4.238800
G1X14.890800Y4.238500
G1X14.926500Y4.241400
G1X14.956200Y4.237900
G1X18.167600Y4.209900
G1X18.673800Y4.716100

G0Z0.500
G0X2.523900Y5.990700
G1Z-0.100 f25
G1X2.523900Y5.986300 f200
G1X2.526800Y5.989300
G1X2.531900Y5.992700
G1X2.523900Y5.990700

G0Z0.500
G0X2.556000Y4.173500
G1Z-0.100 f25
G1X2.523900Y4.141300 f200
G1X2.523900Y3.446400
G1X2.556000Y3.478600
G1X2.556000Y4.173500

G0Z0.500
G0X7.769100Y1.922300
G1Z-0.100 f25
G1X8.370600Y2.523900 f200
G1X9.170800Y2.523900
G1X8.751500Y2.923900
G1X4.928600Y4.856800
G1X4.541500Y4.851600
G1X5.063900Y4.329300
G1X5.063900Y3.290600
G1X4.887300Y3.114100
G1X5.483200Y1.922300
G1X7.769100Y1.922300

G0Z0.500
G0X0.750600Y2.523900
G1Z-0.100 f25
G1X1.601300Y2.523900 f200
G1X1.633500Y2.556000
G1X0.750600Y2.556000
G1X0.016000Y3.290600
G1X0.016000Y4.329300
G1X0.750600Y5.063900
G1X1.601400Y5.063900
G1X1.633600Y5.096000
G1X0.750600Y5.096000
G1X0.016000Y5.830600
G1X0.016000Y6.869300
G1X0.750600Y7.603900
G1X1.789300Y7.603900
G1X2.150900Y7.242200
G1X2.316000Y7.283400
G1X2.330900Y7.289600
G1X2.378500Y7.299000
G1X2.424800Y7.310600
G1X2.440700Y7.311300
G1X2.457000Y7.314600
G1X2.506600Y7.314500
G1X2.553300Y7.316800
G1X2.568900Y7.314400
G1X25.574400Y7.288700
G1X25.663900Y7.288700
G1X25.664400Y7.288600
G1X25.664700Y7.288600
G1X25.725700Y7.276400
G1X25.790000Y7.263600
G1X25.790200Y7.263500
G1X25.790700Y7.263400
G1X25.834100Y7.245300
G1X25.908700Y7.214500
G1X26.015500Y7.143100
G1X26.015800Y7.142800
G1X26.016100Y7.142600
G1X26.060700Y7.097800
G1X26.106400Y7.052200
G1X26.106600Y7.051900
G1X26.106800Y7.051700
G1X26.126400Y7.022200
G1X26.177800Y6.945400
G1X26.178000Y6.944700
G1X26.178100Y6.944700
G1X26.182600Y6.933700
G1X26.226900Y6.826700
G1X26.227000Y6.826200
G1X26.227100Y6.826000
G1X26.242000Y6.750900
G1X26.252000Y6.700600
G1X26.252000Y6.700400
G1X26.252100Y6.699900
G1X26.252000Y6.636300
G1X26.252000Y4.753000
G1X26.748900Y4.753000
G1X27.483500Y4.018400
G1X27.483500Y2.979700
G1X26.748900Y2.245100
G1X25.710200Y2.245100
G1X24.975600Y2.979700
G1X24.975600Y3.611900
G1X24.972400Y3.619600
G1X24.968200Y3.640700
G1X24.961200Y3.661300
G1X24.955600Y3.704000
G1X24.947300Y3.745700
G1X24.947300Y3.767400
G1X24.944500Y3.788700
G1X24.947300Y3.831500
G1X24.947300Y5.984700
G1X21.837400Y5.988200
G1X21.883400Y5.967900
G1X21.935100Y5.946600
G1X21.941300Y5.942400
G1X21.948400Y5.939300
G1X21.994400Y5.906900
G1X22.041900Y5.875200
G1X22.047400Y5.869600
G1X22.053500Y5.865400
G1X22.092500Y5.824500
G1X22.132800Y5.784300
G1X22.136900Y5.778100
G1X22.142300Y5.772500
G1X22.172800Y5.724300
G1X22.204200Y5.677500
G1X22.207100Y5.670400
G1X22.211200Y5.664000
G1X22.232000Y5.610200
G1X22.253300Y5.558800
G1X22.254700Y5.551600
G1X22.257600Y5.544200
G1X22.267500Y5.487200
G1X22.278400Y5.432700
G1X22.278400Y5.425000
G1X22.279700Y5.417600
G1X22.278400Y5.361400
G1X22.278400Y5.304200
G1X22.276900Y5.296700
G1X22.264300Y4.754900
G1X22.291200Y4.754900
G1X23.025800Y4.020300
G1X23.025800Y2.981600
G1X22.291200Y2.247000
G1X21.252500Y2.247000
G1X20.517900Y2.981600
G1X20.517900Y4.020300
G1X20.952400Y4.454700
G1X20.958500Y4.716100
G1X19.789900Y4.716100
G1X20.485800Y4.020300
G1X20.485800Y2.981600
G1X19.751200Y2.247000
G1X18.712500Y2.247000
G1X18.053400Y2.906200
G1X15.296500Y2.930300
G1X14.235700Y1.025800
G1X14.228100Y1.006500
G1X14.205100Y0.970800
G1X14.183700Y0.932400
G1X14.169800Y0.916100
G1X14.158500Y0.898500
G1X14.129000Y0.868100
G1X14.100500Y0.834500
G1X14.083400Y0.821100
G1X14.069100Y0.806200
G1X14.033800Y0.781800
G1X13.999700Y0.754800
G1X13.981000Y0.745200
G1X13.963500Y0.733100
G1X13.923900Y0.716000
G1X13.885400Y0.696200
G1X13.864800Y0.690400
G1X13.845600Y0.682000
G1X13.803600Y0.672900
G1X13.761800Y0.661000
G1X13.740700Y0.659300
G1X13.720000Y0.654800
G1X13.676700Y0.654100
G1X13.633600Y0.650600
G1X13.612600Y0.653100
G1X11.434200Y0.617600
G1X11.381000Y0.616300
G1X11.379100Y0.616700
G1X11.376300Y0.616600
G1X11.312600Y0.628300
G1X11.254400Y0.638400
G1X11.252100Y0.639300
G1X11.249900Y0.639700
G1X11.198100Y0.660200
G1X11.134600Y0.684700
G1X11.132400Y0.686200
G1X11.130400Y0.686900
G1X11.080700Y0.719000
G1X11.026100Y0.753600
G1X11.024500Y0.755200
G1X11.022400Y0.756500
G1X10.978700Y0.798800
G1X10.143900Y1.595400
G1X10.143900Y0.750600
G1X9.409300Y0.016000
G1X8.370600Y0.016000
G1X7.769100Y0.617600
G1X5.103000Y0.617600
G1X5.062100Y0.614700
G1X5.039200Y0.617600
G1X5.015700Y0.617600
G1X4.975100Y0.625700
G1X4.934600Y0.630800
G1X4.912700Y0.638100
G1X4.889600Y0.642700
G1X4.851300Y0.658600
G1X4.812700Y0.671400
G1X4.792800Y0.682800
G1X4.770900Y0.691800
G1X4.736700Y0.714700
G1X4.701000Y0.735000
G1X4.683300Y0.750400
G1X4.664100Y0.763200
G1X4.635100Y0.792200
G1X4.604000Y0.819200
G1X4.589800Y0.837600
G1X4.573200Y0.854100
G1X4.550300Y0.888500
G1X4.525200Y0.920700
G1X4.514900Y0.941400
G1X4.501800Y0.960900
G1X4.486000Y0.999100
G1X3.707500Y2.556000
G1X3.478600Y2.556000
G1X2.523900Y1.601300
G1X2.523900Y0.750600
G1X1.789300Y0.016000
G1X0.750600Y0.016000
G1X0.016000Y0.750600
G1X0.016000Y1.789300
G1X0.750600Y2.523900

G0Z0.500
G0X15.990600Y2.523900
G1Z-0.100 f25
G1X17.029300Y2.523900 f200
G1X17.633800Y1.919300
G1X28.730200Y1.889500
G1X28.730200Y2.245100
G1X28.250200Y2.245100
G1X27.515600Y2.979700
G1X27.515600Y4.018400
G1X28.250200Y4.753000
G1X29.288900Y4.753000
G1X29.685900Y4.355900
G1X29.691600Y4.353600
G1X29.736900Y4.323200
G1X29.782600Y4.294800
G1X29.790100Y4.287700
G1X29.798400Y4.282200
G1X29.836000Y4.244500
G1X29.876200Y4.206800
G1X29.882100Y4.198400
G1X29.889300Y4.191300
G1X29.919900Y4.145500
G1X29.950800Y4.102200
G1X29.954800Y4.093200
G1X29.960700Y4.084500
G1X29.963000Y4.078800
G1X30.023500Y4.018400
G1X30.023500Y3.899300
G1X30.032600Y3.859900
G1X30.032900Y3.849600
G1X30.034900Y3.839700
G1X30.034900Y3.786000
G1X30.036600Y3.731300
G1X30.034900Y3.721200
G1X30.034900Y1.299000
G1X30.035100Y1.298000
G1X30.034900Y1.234100
G1X30.034900Y1.171200
G1X30.034700Y1.170300
G1X30.034700Y1.169400
G1X30.022900Y1.111200
G1X30.009800Y1.045100
G1X30.009400Y1.044300
G1X30.009300Y1.043500
G1X29.991300Y1.000400
G1X29.960700Y0.926400
G1X29.959900Y0.925300
G1X29.959800Y0.924900
G1X29.932500Y0.884400
G1X29.889300Y0.819600
G1X29.888800Y0.819100
G1X29.888200Y0.818200
G1X29.833800Y0.764200
G1X29.798400Y0.728700
G1X29.797800Y0.728300
G1X29.797100Y0.727600
G1X29.747900Y0.695000
G1X29.691600Y0.657300
G1X29.690500Y0.656900
G1X29.690000Y0.656500
G1X29.642300Y0.637000
G1X29.572900Y0.608200
G1X29.571900Y0.608000
G1X29.571200Y0.607700
G1X29.503700Y0.594500
G1X29.446800Y0.583100
G1X29.446100Y0.583100
G1X29.445100Y0.582900
G1X29.371000Y0.583100
G1X29.318300Y0.583100
G1X29.317600Y0.583300
G1X17.627900Y0.614700
G1X17.029300Y0.016000
G1X15.990600Y0.016000
G1X15.256000Y0.750600
G1X15.256000Y1.789300
G1X15.990600Y2.523900

(Finished.  Raise cutter, turn spindle off, reset.)
G0Z0.500
G0X0Y0
M05
M30
