(This G-Code generated with CNC-DRILL-GCODE.ulp program)
(running under Eagle CAD.)

N00010  M03 S3000
G00 Z2.00 F400
(----------------------------------------------------------)
( Drill size=1.000mm )
(----------------------------------------------------------)
N00020  G00 X4.289 Y8.974
N00030  G1Z-0.40f50
N00040  G00 Z1.00 F400
N00050  G00 X4.893 Y6.431
N00060  G1Z-0.40f50
N00070  G00 Z1.00 F400
N00080  G00 X6.421 Y4.534
N00090  G1Z-0.40f50
N00100  G00 Z1.00 F400
N00110  G00 X8.626 Y3.429
N00120  G1Z-0.40f50
N00130  G00 Z1.00 F400
N00140  G00 X11.399 Y3.438
N00150  G1Z-0.40f50
N00160  G00 Z1.00 F400
N00170  G00 X13.579 Y4.538
N00180  G1Z-0.40f50
N00190  G00 Z1.00 F400
N00200  G00 X15.101 Y6.443
N00210  G1Z-0.40f50
N00220  G00 Z1.00 F400
N00230  G00 X15.718 Y8.998
N00240  G1Z-0.40f50
N00250  G00 Z1.00 F400
N00260  G00 X18.293 Y8.974
N00270  G1Z-0.40f50
N00280  G00 Z1.00 F400
N00290  G00 X18.898 Y6.431
N00300  G1Z-0.40f50
N00310  G00 Z1.00 F400
N00320  G00 X20.426 Y4.534
N00330  G1Z-0.40f50
N00340  G00 Z1.00 F400
N00350  G00 X22.630 Y3.429
N00360  G1Z-0.40f50
N00370  G00 Z1.00 F400
N00380  G00 X25.403 Y3.438
N00390  G1Z-0.40f50
N00400  G00 Z1.00 F400
N00410  G00 X27.583 Y4.538
N00420  G1Z-0.40f50
N00430  G00 Z1.00 F400
N00440  G00 X29.105 Y6.443
N00450  G1Z-0.40f50
N00460  G00 Z1.00 F400
N00470  G00 X29.722 Y8.998
N00480  G1Z-0.40f50
N00490  G00 Z1.00 F400
N00500  G00 X37.292 Y8.976
N00510  G1Z-0.40f50
N00520  G00 Z1.00 F400
N00530  G00 X37.896 Y6.432
N00540  G1Z-0.40f50
N00550  G00 Z1.00 F400
N00560  G00 X39.424 Y4.536
N00570  G1Z-0.40f50
N00580  G00 Z1.00 F400
N00590  G00 X41.628 Y3.430
N00600  G1Z-0.40f50
N00610  G00 Z1.00 F400
N00620  G00 X44.401 Y3.440
N00630  G1Z-0.40f50
N00640  G00 Z1.00 F400
N00650  G00 X46.582 Y4.540
N00660  G1Z-0.40f50
N00670  G00 Z1.00 F400
N00680  G00 X48.104 Y6.445
N00690  G1Z-0.40f50
N00700  G00 Z1.00 F400
N00710  G00 X48.720 Y9.000
N00720  G1Z-0.40f50
N00730  G00 Z1.00 F400
N00740  G00 X51.290 Y8.975
N00750  G1Z-0.40f50
N00760  G00 Z1.00 F400
N00770  G00 X51.894 Y6.432
N00780  G1Z-0.40f50
N00790  G00 Z1.00 F400
N00800  G00 X53.422 Y4.536
N00810  G1Z-0.40f50
N00820  G00 Z1.00 F400
N00830  G00 X55.627 Y3.430
N00840  G1Z-0.40f50
N00850  G00 Z1.00 F400
N00860  G00 X58.400 Y3.440
N00870  G1Z-0.40f50
N00880  G00 Z1.00 F400
N00890  G00 X60.580 Y4.540
N00900  G1Z-0.40f50
N00910  G00 Z1.00 F400
N00920  G00 X62.102 Y6.444
N00930  G1Z-0.40f50
N00940  G00 Z1.00 F400
N00950  G00 X62.719 Y9.000
N00960  G1Z-0.40f50
N00970  G00 Z1.00 F400
N00980  G00 X70.290 Y8.976
N00990  G1Z-0.40f50
N01000  G00 Z1.00 F400
N01010  G00 X70.894 Y6.432
N01020  G1Z-0.40f50
N01030  G00 Z1.00 F400
N01040  G00 X72.422 Y4.536
N01050  G1Z-0.40f50
N01060  G00 Z1.00 F400
N01070  G00 X74.626 Y3.430
N01080  G1Z-0.40f50
N01090  G00 Z1.00 F400
N01100  G00 X77.399 Y3.440
N01110  G1Z-0.40f50
N01120  G00 Z1.00 F400
N01130  G00 X79.579 Y4.540
N01140  G1Z-0.40f50
N01150  G00 Z1.00 F400
N01160  G00 X81.101 Y6.445
N01170  G1Z-0.40f50
N01180  G00 Z1.00 F400
N01190  G00 X81.718 Y9.000
N01200  G1Z-0.40f50
N01210  G00 Z1.00 F400
N01220  G00 X84.288 Y8.975
N01230  G1Z-0.40f50
N01240  G00 Z1.00 F400
N01250  G00 X84.892 Y6.432
N01260  G1Z-0.40f50
N01270  G00 Z1.00 F400
N01280  G00 X86.421 Y4.536
N01290  G1Z-0.40f50
N01300  G00 Z1.00 F400
N01310  G00 X88.625 Y3.430
N01320  G1Z-0.40f50
N01330  G00 Z1.00 F400
N01340  G00 X91.398 Y3.440
N01350  G1Z-0.40f50
N01360  G00 Z1.00 F400
N01370  G00 X93.578 Y4.540
N01380  G1Z-0.40f50
N01390  G00 Z1.00 F400
N01400  G00 X95.100 Y6.444
N01410  G1Z-0.40f50
N01420  G00 Z1.00 F400
N01430  G00 X95.717 Y9.000
N01440  G1Z-0.40f50
N01450  G00 Z1.00 F400
N01460  G00 X18.887 Y11.547
N01470  G1Z-0.40f50
N01480  G00 Z1.00 F400
N01490  G00 X4.883 Y11.547
N01500  G1Z-0.40f50
N01510  G00 Z1.00 F400
N01520  G00 X84.882 Y11.549
N01530  G1Z-0.40f50
N01540  G00 Z1.00 F400
N01550  G00 X51.884 Y11.549
N01560  G1Z-0.40f50
N01570  G00 Z1.00 F400
N01580  G00 X37.885 Y11.549
N01590  G1Z-0.40f50
N01600  G00 Z1.00 F400
N01610  G00 X70.883 Y11.549
N01620  G1Z-0.40f50
N01630  G00 Z1.00 F400
N01640  G00 X29.126 Y11.585
N01650  G1Z-0.40f50
N01660  G00 Z1.00 F400
N01670  G00 X15.122 Y11.585
N01680  G1Z-0.40f50
N01690  G00 Z1.00 F400
N01700  G00 X95.121 Y11.586
N01710  G1Z-0.40f50
N01720  G00 Z1.00 F400
N01730  G00 X62.122 Y11.586
N01740  G1Z-0.40f50
N01750  G00 Z1.00 F400
N01760  G00 X48.124 Y11.586
N01770  G1Z-0.40f50
N01780  G00 Z1.00 F400
N01790  G00 X81.122 Y11.586
N01800  G1Z-0.40f50
N01810  G00 Z1.00 F400
N01820  G00 X33.500 Y12.460
N01830  G1Z-0.40f50
N01840  G00 Z1.00 F400
N01850  G00 X66.499 Y12.464
N01860  G1Z-0.40f50
N01870  G00 Z1.00 F400
N01880  G00 X27.574 Y13.453
N01890  G1Z-0.40f50
N01900  G00 Z1.00 F400
N01910  G00 X13.570 Y13.453
N01920  G1Z-0.40f50
N01930  G00 Z1.00 F400
N01940  G00 X93.569 Y13.454
N01950  G1Z-0.40f50
N01960  G00 Z1.00 F400
N01970  G00 X60.571 Y13.454
N01980  G1Z-0.40f50
N01990  G00 Z1.00 F400
N02000  G00 X46.572 Y13.454
N02010  G1Z-0.40f50
N02020  G00 Z1.00 F400
N02030  G00 X79.570 Y13.454
N02040  G1Z-0.40f50
N02050  G00 Z1.00 F400
N02060  G00 X20.435 Y13.467
N02070  G1Z-0.40f50
N02080  G00 Z1.00 F400
N02090  G00 X6.431 Y13.467
N02100  G1Z-0.40f50
N02110  G00 Z1.00 F400
N02120  G00 X86.430 Y13.469
N02130  G1Z-0.40f50
N02140  G00 Z1.00 F400
N02150  G00 X53.432 Y13.469
N02160  G1Z-0.40f50
N02170  G00 Z1.00 F400
N02180  G00 X39.434 Y13.469
N02190  G1Z-0.40f50
N02200  G00 Z1.00 F400
N02210  G00 X72.432 Y13.469
N02220  G1Z-0.40f50
N02230  G00 Z1.00 F400
N02240  G00 X24.006 Y14.731
N02250  G1Z-0.40f50
N02260  G00 Z1.00 F400
N02270  G00 X10.002 Y14.731
N02280  G1Z-0.40f50
N02290  G00 Z1.00 F400
N02300  G00 X90.001 Y14.732
N02310  G1Z-0.40f50
N02320  G00 Z1.00 F400
N02330  G00 X57.003 Y14.732
N02340  G1Z-0.40f50
N02350  G00 Z1.00 F400
N02360  G00 X43.005 Y14.732
N02370  G1Z-0.40f50
N02380  G00 Z1.00 F400
N02390  G00 X76.002 Y14.732
N02400  G1Z-0.40f50
N02410  G00 Z1.00 F400
N02420  G00 X33.500 Y15.000
N02430  G1Z-0.40f50
N02440  G00 Z1.00 F400
N02450  G00 X66.499 Y15.004
N02460  G1Z-0.40f50
N02470  G00 Z1.00 F400
N02480  G00 X2.000 Y17.000
N02490  G1Z-0.40f50
N02500  G00 Z1.00 F400
N02510  G00 X4.000 Y17.000
N02520  G1Z-0.40f50
N02530  G00 Z1.00 F400
N02540  G00 X33.500 Y17.540
N02550  G1Z-0.40f50
N02560  G00 Z1.00 F400
N02570  G00 X66.499 Y17.544
N02580  G1Z-0.40f50
N02590  G00 Z1.00 F400
N02600  G00 X14.109 Y22.192
N02610  G1Z-0.40f50
N02620  G00 Z1.00 F400
N02630  G00 X16.649 Y22.192
N02640  G1Z-0.40f50
N02650  G00 Z1.00 F400
N02660  G00 X19.189 Y22.192
N02670  G1Z-0.40f50
N02680  G00 Z1.00 F400
N02690  G00 X21.729 Y22.192
N02700  G1Z-0.40f50
N02710  G00 Z1.00 F400
N02720  G00 X24.269 Y22.192
N02730  G1Z-0.40f50
N02740  G00 Z1.00 F400
N02750  G00 X26.809 Y22.192
N02760  G1Z-0.40f50
N02770  G00 Z1.00 F400
N02780  G00 X29.349 Y22.192
N02790  G1Z-0.40f50
N02800  G00 Z1.00 F400
N02810  G00 X31.889 Y22.192
N02820  G1Z-0.40f50
N02830  G00 Z1.00 F400
N02840  G00 X36.110 Y22.194
N02850  G1Z-0.40f50
N02860  G00 Z1.00 F400
N02870  G00 X38.650 Y22.194
N02880  G1Z-0.40f50
N02890  G00 Z1.00 F400
N02900  G00 X41.190 Y22.194
N02910  G1Z-0.40f50
N02920  G00 Z1.00 F400
N02930  G00 X43.730 Y22.194
N02940  G1Z-0.40f50
N02950  G00 Z1.00 F400
N02960  G00 X46.270 Y22.194
N02970  G1Z-0.40f50
N02980  G00 Z1.00 F400
N02990  G00 X60.315 Y22.181
N03000  G1Z-0.40f50
N03010  G00 Z1.00 F400
N03020  G00 X62.855 Y22.181
N03030  G1Z-0.40f50
N03040  G00 Z1.00 F400
N03050  G00 X65.395 Y22.181
N03060  G1Z-0.40f50
N03070  G00 Z1.00 F400
N03080  G00 X67.935 Y22.181
N03090  G1Z-0.40f50
N03100  G00 Z1.00 F400
N03110  G00 X70.475 Y22.181
N03120  G1Z-0.40f50
N03130  G00 Z1.00 F400
N03140  G00 X73.015 Y22.181
N03150  G1Z-0.40f50
N03160  G00 Z1.00 F400
N03170  G00 X75.555 Y22.181
N03180  G1Z-0.40f50
N03190  G00 Z1.00 F400
N03200  G00 X78.095 Y22.181
N03210  G1Z-0.40f50
N03220  G00 Z1.00 F400
N03230  G00 X48.810 Y22.194
N03240  G1Z-0.40f50
N03250  G00 Z1.00 F400
N03260  G00 X51.350 Y22.194
N03270  G1Z-0.40f50
N03280  G00 Z1.00 F400
N03290  G00 X53.890 Y22.194
N03300  G1Z-0.40f50
N03310  G00 Z1.00 F400
N03320  G00 X10.000 Y23.190
N03330  G1Z-0.40f50
N03340  G00 Z1.00 F400
N03350  G00 X82.200 Y23.460
N03360  G1Z-0.40f50
N03370  G00 Z1.00 F400
N03380  G00 X93.070 Y23.500
N03390  G1Z-0.40f50
N03400  G00 Z1.00 F400
N03410  G00 X90.530 Y23.500
N03420  G1Z-0.40f50
N03430  G00 Z1.00 F400
N03440  G00 X3.000 Y23.730
N03450  G1Z-0.40f50
N03460  G00 Z1.00 F400
N03470  G00 X86.200 Y24.460
N03480  G1Z-0.40f50
N03490  G00 Z1.00 F400
N03500  G00 X82.200 Y26.000
N03510  G1Z-0.40f50
N03520  G00 Z1.00 F400
N03530  G00 X3.000 Y26.270
N03540  G1Z-0.40f50
N03550  G00 Z1.00 F400
N03560  G00 X86.200 Y27.000
N03570  G1Z-0.40f50
N03580  G00 Z1.00 F400
N03590  G00 X97.270 Y27.000
N03600  G1Z-0.40f50
N03610  G00 Z1.00 F400
N03620  G00 X94.730 Y27.000
N03630  G1Z-0.40f50
N03640  G00 Z1.00 F400
N03650  G00 X92.470 Y27.000
N03660  G1Z-0.40f50
N03670  G00 Z1.00 F400
N03680  G00 X89.930 Y27.000
N03690  G1Z-0.40f50
N03700  G00 Z1.00 F400
N03710  G00 X82.200 Y28.540
N03720  G1Z-0.40f50
N03730  G00 Z1.00 F400
N03740  G00 X86.200 Y29.540
N03750  G1Z-0.40f50
N03760  G00 Z1.00 F400
N03770  G00 X78.095 Y29.801
N03780  G1Z-0.40f50
N03790  G00 Z1.00 F400
N03800  G00 X75.555 Y29.801
N03810  G1Z-0.40f50
N03820  G00 Z1.00 F400
N03830  G00 X73.015 Y29.801
N03840  G1Z-0.40f50
N03850  G00 Z1.00 F400
N03860  G00 X70.475 Y29.801
N03870  G1Z-0.40f50
N03880  G00 Z1.00 F400
N03890  G00 X67.935 Y29.801
N03900  G1Z-0.40f50
N03910  G00 Z1.00 F400
N03920  G00 X65.395 Y29.801
N03930  G1Z-0.40f50
N03940  G00 Z1.00 F400
N03950  G00 X62.855 Y29.801
N03960  G1Z-0.40f50
N03970  G00 Z1.00 F400
N03980  G00 X60.315 Y29.801
N03990  G1Z-0.40f50
N04000  G00 Z1.00 F400
N04010  G00 X31.889 Y29.812
N04020  G1Z-0.40f50
N04030  G00 Z1.00 F400
N04040  G00 X29.349 Y29.812
N04050  G1Z-0.40f50
N04060  G00 Z1.00 F400
N04070  G00 X26.809 Y29.812
N04080  G1Z-0.40f50
N04090  G00 Z1.00 F400
N04100  G00 X24.269 Y29.812
N04110  G1Z-0.40f50
N04120  G00 Z1.00 F400
N04130  G00 X21.729 Y29.812
N04140  G1Z-0.40f50
N04150  G00 Z1.00 F400
N04160  G00 X19.189 Y29.812
N04170  G1Z-0.40f50
N04180  G00 Z1.00 F400
N04190  G00 X16.649 Y29.812
N04200  G1Z-0.40f50
N04210  G00 Z1.00 F400
N04220  G00 X14.109 Y29.812
N04230  G1Z-0.40f50
N04240  G00 Z1.00 F400
N04250  G00 X53.890 Y29.814
N04260  G1Z-0.40f50
N04270  G00 Z1.00 F400
N04280  G00 X51.350 Y29.814
N04290  G1Z-0.40f50
N04300  G00 Z1.00 F400
N04310  G00 X48.810 Y29.814
N04320  G1Z-0.40f50
N04330  G00 Z1.00 F400
N04340  G00 X46.270 Y29.814
N04350  G1Z-0.40f50
N04360  G00 Z1.00 F400
N04370  G00 X43.730 Y29.814
N04380  G1Z-0.40f50
N04390  G00 Z1.00 F400
N04400  G00 X41.190 Y29.814
N04410  G1Z-0.40f50
N04420  G00 Z1.00 F400
N04430  G00 X38.650 Y29.814
N04440  G1Z-0.40f50
N04450  G00 Z1.00 F400
N04460  G00 X36.110 Y29.814
N04470  G1Z-0.40f50
N04480  G00 Z1.00 F400
N04490  G00 X10.000 Y30.810
N04500  G1Z-0.40f50
N04510  G00 Z1.00 F400
N04520  G00 X94.731 Y30.921
N04530  G1Z-0.40f50
N04540  G00 Z1.00 F400
N04550  G00 X97.270 Y30.921
N04560  G1Z-0.40f50
N04570  G00 Z1.00 F400
N04580  G00 X2.734 Y30.923
N04590  G1Z-0.40f50
N04600  G00 Z1.00 F400
N04610  G00 X5.274 Y30.923
N04620  G1Z-0.40f50
N04630  G00 Z1.00 F400
N04640  G00 X90.270 Y31.000
N04650  G1Z-0.40f50
N04660  G00 Z1.00 F400
N04670  G00 X87.730 Y31.000
N04680  G1Z-0.40f50
N04690  G00 Z1.00 F400
N04700  G00 X94.731 Y33.461
N04710  G1Z-0.40f50
N04720  G00 Z1.00 F400
N04730  G00 X97.270 Y33.461
N04740  G1Z-0.40f50
N04750  G00 Z1.00 F400
N04760  G00 X2.734 Y33.463
N04770  G1Z-0.40f50
N04780  G00 Z1.00 F400
N04790  G00 X5.274 Y33.463
N04800  G1Z-0.40f50
N04810  G00 Z1.00 F400
N04820  G00 X57.400 Y35.090
N04830  G1Z-0.40f50
N04840  G00 Z1.00 F400
N04850  G00 X59.940 Y35.090
N04860  G1Z-0.40f50
N04870  G00 Z1.00 F400
N04880  G00 X62.480 Y35.090
N04890  G1Z-0.40f50
N04900  G00 Z1.00 F400
N04910  G00 X65.020 Y35.090
N04920  G1Z-0.40f50
N04930  G00 Z1.00 F400
N04940  G00 X67.560 Y35.090
N04950  G1Z-0.40f50
N04960  G00 Z1.00 F400
N04970  G00 X70.100 Y35.090
N04980  G1Z-0.40f50
N04990  G00 Z1.00 F400
N05000  G00 X72.640 Y35.090
N05010  G1Z-0.40f50
N05020  G00 Z1.00 F400
N05030  G00 X75.180 Y35.090
N05040  G1Z-0.40f50
N05050  G00 Z1.00 F400
N05060  G00 X77.720 Y35.090
N05070  G1Z-0.40f50
N05080  G00 Z1.00 F400
N05090  G00 X80.260 Y35.090
N05100  G1Z-0.40f50
N05110  G00 Z1.00 F400
N05120  G00 X82.800 Y35.090
N05130  G1Z-0.40f50
N05140  G00 Z1.00 F400
N05150  G00 X85.340 Y35.090
N05160  G1Z-0.40f50
N05170  G00 Z1.00 F400
N05180  G00 X87.880 Y35.090
N05190  G1Z-0.40f50
N05200  G00 Z1.00 F400
N05210  G00 X90.420 Y35.090
N05220  G1Z-0.40f50
N05230  G00 Z1.00 F400
N05240  G00 X35.190 Y36.000
N05250  G1Z-0.40f50
N05260  G00 Z1.00 F400
N05270  G00 X42.810 Y36.000
N05280  G1Z-0.40f50
N05290  G00 Z1.00 F400
N05300  G00 X94.731 Y36.001
N05310  G1Z-0.40f50
N05320  G00 Z1.00 F400
N05330  G00 X97.270 Y36.001
N05340  G1Z-0.40f50
N05350  G00 Z1.00 F400
N05360  G00 X2.734 Y36.003
N05370  G1Z-0.40f50
N05380  G00 Z1.00 F400
N05390  G00 X5.274 Y36.003
N05400  G1Z-0.40f50
N05410  G00 Z1.00 F400
N05420  G00 X8.190 Y38.000
N05430  G1Z-0.40f50
N05440  G00 Z1.00 F400
N05450  G00 X15.810 Y38.000
N05460  G1Z-0.40f50
N05470  G00 Z1.00 F400
N05480  G00 X94.731 Y38.541
N05490  G1Z-0.40f50
N05500  G00 Z1.00 F400
N05510  G00 X97.270 Y38.541
N05520  G1Z-0.40f50
N05530  G00 Z1.00 F400
N05540  G00 X2.734 Y38.543
N05550  G1Z-0.40f50
N05560  G00 Z1.00 F400
N05570  G00 X5.274 Y38.543
N05580  G1Z-0.40f50
N05590  G00 Z1.00 F400
N05600  G00 X35.190 Y38.690
N05610  G1Z-0.40f50
N05620  G00 Z1.00 F400
N05630  G00 X37.730 Y38.690
N05640  G1Z-0.40f50
N05650  G00 Z1.00 F400
N05660  G00 X40.270 Y38.690
N05670  G1Z-0.40f50
N05680  G00 Z1.00 F400
N05690  G00 X42.810 Y38.690
N05700  G1Z-0.40f50
N05710  G00 Z1.00 F400
N05720  G00 X45.600 Y38.790
N05730  G1Z-0.40f50
N05740  G00 Z1.00 F400
N05750  G00 X22.179 Y39.213
N05760  G1Z-0.40f50
N05770  G00 Z1.00 F400
N05780  G00 X29.799 Y39.213
N05790  G1Z-0.40f50
N05800  G00 Z1.00 F400
N05810  G00 X15.540 Y41.000
N05820  G1Z-0.40f50
N05830  G00 Z1.00 F400
N05840  G00 X94.731 Y41.081
N05850  G1Z-0.40f50
N05860  G00 Z1.00 F400
N05870  G00 X97.270 Y41.081
N05880  G1Z-0.40f50
N05890  G00 Z1.00 F400
N05900  G00 X2.734 Y41.083
N05910  G1Z-0.40f50
N05920  G00 Z1.00 F400
N05930  G00 X5.274 Y41.083
N05940  G1Z-0.40f50
N05950  G00 Z1.00 F400
N05960  G00 X50.730 Y41.730
N05970  G1Z-0.40f50
N05980  G00 Z1.00 F400
N05990  G00 X53.270 Y41.730
N06000  G1Z-0.40f50
N06010  G00 Z1.00 F400
N06020  G00 X22.179 Y41.753
N06030  G1Z-0.40f50
N06040  G00 Z1.00 F400
N06050  G00 X29.799 Y41.753
N06060  G1Z-0.40f50
N06070  G00 Z1.00 F400
N06080  G00 X90.420 Y42.710
N06090  G1Z-0.40f50
N06100  G00 Z1.00 F400
N06110  G00 X87.880 Y42.710
N06120  G1Z-0.40f50
N06130  G00 Z1.00 F400
N06140  G00 X85.340 Y42.710
N06150  G1Z-0.40f50
N06160  G00 Z1.00 F400
N06170  G00 X82.800 Y42.710
N06180  G1Z-0.40f50
N06190  G00 Z1.00 F400
N06200  G00 X80.260 Y42.710
N06210  G1Z-0.40f50
N06220  G00 Z1.00 F400
N06230  G00 X77.720 Y42.710
N06240  G1Z-0.40f50
N06250  G00 Z1.00 F400
N06260  G00 X75.180 Y42.710
N06270  G1Z-0.40f50
N06280  G00 Z1.00 F400
N06290  G00 X72.640 Y42.710
N06300  G1Z-0.40f50
N06310  G00 Z1.00 F400
N06320  G00 X70.100 Y42.710
N06330  G1Z-0.40f50
N06340  G00 Z1.00 F400
N06350  G00 X67.560 Y42.710
N06360  G1Z-0.40f50
N06370  G00 Z1.00 F400
N06380  G00 X65.020 Y42.710
N06390  G1Z-0.40f50
N06400  G00 Z1.00 F400
N06410  G00 X62.480 Y42.710
N06420  G1Z-0.40f50
N06430  G00 Z1.00 F400
N06440  G00 X59.940 Y42.710
N06450  G1Z-0.40f50
N06460  G00 Z1.00 F400
N06470  G00 X57.400 Y42.710
N06480  G1Z-0.40f50
N06490  G00 Z1.00 F400
N06500  G00 X10.540 Y44.250
N06510  G1Z-0.40f50
N06520  G00 Z1.00 F400
N06530  G00 X50.730 Y44.270
N06540  G1Z-0.40f50
N06550  G00 Z1.00 F400
N06560  G00 X53.270 Y44.270
N06570  G1Z-0.40f50
N06580  G00 Z1.00 F400
N06590  G00 X22.179 Y44.293
N06600  G1Z-0.40f50
N06610  G00 Z1.00 F400
N06620  G00 X29.799 Y44.293
N06630  G1Z-0.40f50
N06640  G00 Z1.00 F400
N06650  G00 X7.000 Y45.460
N06660  G1Z-0.40f50
N06670  G00 Z1.00 F400
N06680  G00 X42.810 Y46.310
N06690  G1Z-0.40f50
N06700  G00 Z1.00 F400
N06710  G00 X40.270 Y46.310
N06720  G1Z-0.40f50
N06730  G00 Z1.00 F400
N06740  G00 X37.730 Y46.310
N06750  G1Z-0.40f50
N06760  G00 Z1.00 F400
N06770  G00 X35.190 Y46.310
N06780  G1Z-0.40f50
N06790  G00 Z1.00 F400
N06800  G00 X45.600 Y46.410
N06810  G1Z-0.40f50
N06820  G00 Z1.00 F400
N06830  G00 X22.179 Y46.833
N06840  G1Z-0.40f50
N06850  G00 Z1.00 F400
N06860  G00 X29.799 Y46.833
N06870  G1Z-0.40f50
N06880  G00 Z1.00 F400
N06890  G00 X15.540 Y47.500
N06900  G1Z-0.40f50
N06910  G00 Z1.00 F400
N06920  G00 X66.810 Y48.000
N06930  G1Z-0.40f50
N06940  G00 Z1.00 F400
N06950  G00 X59.190 Y48.000
N06960  G1Z-0.40f50
N06970  G00 Z1.00 F400
N06980  G00 X7.000 Y48.000
N06990  G1Z-0.40f50
N07000  G00 Z1.00 F400
N07010  G00 X52.810 Y50.000
N07020  G1Z-0.40f50
N07030  G00 Z1.00 F400
N07040  G00 X45.190 Y50.000
N07050  G1Z-0.40f50
N07060  G00 Z1.00 F400
N07070  G00 X33.190 Y50.000
N07080  G1Z-0.40f50
N07090  G00 Z1.00 F400
N07100  G00 X40.810 Y50.000
N07110  G1Z-0.40f50
N07120  G00 Z1.00 F400
N07130  G00 X79.650 Y50.000
N07140  G1Z-0.40f50
N07150  G00 Z1.00 F400
N07160  G00 X82.190 Y50.000
N07170  G1Z-0.40f50
N07180  G00 Z1.00 F400
N07190  G00 X84.730 Y50.000
N07200  G1Z-0.40f50
N07210  G00 Z1.00 F400
N07220  G00 X87.270 Y50.000
N07230  G1Z-0.40f50
N07240  G00 Z1.00 F400
N07250  G00 X89.810 Y50.000
N07260  G1Z-0.40f50
N07270  G00 Z1.00 F400
N07280  G00 X92.350 Y50.000
N07290  G1Z-0.40f50
N07300  G00 Z1.00 F400
N07310  G00 X63.810 Y50.000
N07320  G1Z-0.40f50
N07330  G00 Z1.00 F400
N07340  G00 X56.190 Y50.000
N07350  G1Z-0.40f50
N07360  G00 Z1.00 F400
N07370  G00 X69.460 Y50.000
N07380  G1Z-0.40f50
N07390  G00 Z1.00 F400
N07400  G00 X74.540 Y50.000
N07410  G1Z-0.40f50
N07420  G00 Z1.00 F400
N07430  G00 X7.000 Y50.540
N07440  G1Z-0.40f50
N07450  G00 Z1.00 F400
(----------------------------------------------------------)
( Drill size=3.000mm )
(----------------------------------------------------------)
N07460  G00 X2.500 Y2.500
N07470  G1Z-0.40f50
N07480  G00 Z1.00 F400
N07490  G00 X97.500 Y2.500
N07500  G1Z-0.40f50
N07510  G00 Z1.00 F400
N07520  G00 X97.500 Y50.500
N07530  G1Z-0.40f50
N07540  G00 Z1.00 F400
N07550  G00 X2.500 Y50.500
N07560  G1Z-0.40f50
N07570  G00 Z1.00 F400

(----------------------------------------------------------)
N07580  G00 Z2.00 F400
N07590  G00 X0 Y0 F400
N07600  M05 
