(This GCode generated with outlines_gcode_excel_mirrored.ulp program)
(running under Eagle CAD.)
(Use with mechanical etching/engraving bits, such as the)
(Think&Tinker Mechanical Etching Bit with 60-degree tip angle)
(X/Y/Z home should be at lower left corner of the board, with the tip just touching)
(C:/Users/Owner/Documents/eagle/nixie_display/untitledpattern_top_1mm.nc layer 1)

(mm, Absolute mode, lift cutter above work, rapid to X/Y home, turn spindle on.)
G90
G0Z0.500
G0X0Y0
M03

(Begin)
G0Z0.500
G0X67.312400Y23.789600
G1Z-0.100 f25
G1X67.263400Y23.907800 f200
G1X67.192300Y24.014300
G1X67.101800Y24.104800
G1X66.995300Y24.175900
G1X66.877100Y24.224900
G1X66.751500Y24.249900
G1X66.623400Y24.249900
G1X51.069200Y24.249900
G1X46.758600Y28.560400
G1X46.789000Y28.560400
G1X47.523600Y29.295000
G1X47.523600Y30.333700
G1X47.392000Y30.465300
G1X47.686900Y30.464900
G1X47.555700Y30.333700
G1X47.555700Y29.295000
G1X48.290300Y28.560400
G1X49.329000Y28.560400
G1X50.063600Y29.295000
G1X50.063600Y30.333700
G1X49.935400Y30.461900
G1X50.223500Y30.461500
G1X50.095700Y30.333700
G1X50.095700Y29.295000
G1X50.830300Y28.560400
G1X51.869000Y28.560400
G1X52.603600Y29.295000
G1X52.603600Y30.333700
G1X52.478800Y30.458500
G1X52.760100Y30.458100
G1X52.635700Y30.333700
G1X52.635700Y29.295000
G1X53.370300Y28.560400
G1X54.409000Y28.560400
G1X55.143600Y29.295000
G1X55.143600Y30.333700
G1X55.022200Y30.455100
G1X56.962300Y30.452500
G1X58.402700Y29.483900
G1X58.419800Y29.468900
G1X58.456300Y29.447900
G1X58.490400Y29.424900
G1X58.511000Y29.416400
G1X58.530700Y29.404900
G1X58.570500Y29.391500
G1X58.608500Y29.375500
G1X58.630500Y29.371100
G1X58.651900Y29.363800
G1X58.693800Y29.358400
G1X58.734000Y29.350200
G1X58.756200Y29.350200
G1X59.061100Y29.310200
G1X59.061100Y29.281900
G1X59.795700Y28.547300
G1X60.834400Y28.547300
G1X61.569000Y29.281900
G1X61.569000Y30.320600
G1X60.834400Y31.055200
G1X59.795700Y31.055200
G1X59.326900Y30.586300
G1X59.035900Y30.624500
G1X57.758300Y31.483500
G1X60.153000Y32.167700
G1X60.189600Y32.175000
G1X60.214200Y32.185200
G1X60.240100Y32.192600
G1X60.273700Y32.209900
G1X60.307800Y32.224000
G1X60.329700Y32.238600
G1X60.354000Y32.251100
G1X60.383500Y32.274600
G1X60.414300Y32.295100
G1X60.433300Y32.314100
G1X60.454200Y32.330700
G1X60.478200Y32.359100
G1X60.504800Y32.385600
G1X60.519700Y32.407900
G1X60.537000Y32.428300
G1X60.555300Y32.461400
G1X60.575900Y32.492100
G1X60.586000Y32.516500
G1X60.599200Y32.540200
G1X60.610700Y32.576000
G1X60.624900Y32.610300
G1X60.630100Y32.636800
G1X60.638300Y32.662100
G1X60.642600Y32.699100
G1X60.649900Y32.735900
G1X60.649900Y32.762500
G1X60.653000Y32.789300
G1X60.649900Y32.827000
G1X60.649900Y33.724100
G1X60.663100Y33.692100
G1X60.672300Y33.678400
G1X61.395500Y32.157700
G1X61.901300Y30.620700
G1X61.601100Y30.320600
G1X61.601100Y29.281900
G1X62.335700Y28.547300
G1X63.374400Y28.547300
G1X63.447800Y28.620800
G1X63.447800Y26.335900
G1X63.472800Y26.210300
G1X63.521800Y26.092100
G1X63.592900Y25.985600
G1X63.683400Y25.895100
G1X63.789900Y25.824000
G1X63.908100Y25.775000
G1X64.033700Y25.750000
G1X64.161800Y25.750000
G1X67.563000Y25.750000
G1X67.590400Y25.746900
G1X67.627500Y25.750000
G1X67.664000Y25.750000
G1X67.690500Y25.755300
G1X67.718100Y25.757600
G1X67.753800Y25.767900
G1X67.789600Y25.775000
G1X67.814600Y25.785400
G1X67.841100Y25.793000
G1X67.874200Y25.810100
G1X67.907800Y25.824000
G1X67.930200Y25.839000
G1X67.954900Y25.851700
G1X67.983800Y25.874800
G1X68.014300Y25.895100
G1X68.033700Y25.914600
G1X68.055000Y25.931500
G1X68.078500Y25.959400
G1X68.104800Y25.985600
G1X68.120000Y26.008500
G1X70.266200Y28.547300
G1X70.994400Y28.547300
G1X71.117400Y28.670300
G1X71.123900Y27.789000
G1X67.620000Y24.928800
G1X67.600600Y24.916700
G1X67.571500Y24.889200
G1X67.539300Y24.863000
G1X67.524400Y24.844900
G1X67.507400Y24.828900
G1X67.483300Y24.795000
G1X67.457900Y24.764200
G1X67.447100Y24.744100
G1X67.433200Y24.724600
G1X67.416400Y24.687100
G1X67.397200Y24.651500
G1X67.390300Y24.628900
G1X67.380800Y24.607800
G1X67.371800Y24.568300
G1X67.359700Y24.529100
G1X67.357400Y24.505900
G1X67.352100Y24.483000
G1X67.350900Y24.441300
G1X67.346900Y24.401700
G1X67.349100Y24.379100
G1X67.329400Y23.704300
G1X67.312400Y23.789600

G0Z0.500
G0X66.489700Y24.265900
G1Z-0.100 f25
G1X66.750400Y24.265900 f200
G1X66.781000Y24.262800
G1X66.813700Y24.265900
G1X66.847200Y24.265900
G1X66.877700Y24.272000
G1X66.908500Y24.274900
G1X66.940100Y24.284400
G1X66.972800Y24.290900
G1X67.001600Y24.302900
G1X67.031100Y24.311700
G1X67.060300Y24.327200
G1X67.091000Y24.339900
G1X67.116500Y24.357000
G1X67.144200Y24.371600
G1X67.170100Y24.392800
G1X67.197500Y24.411000
G1X67.219200Y24.432800
G1X67.243500Y24.452500
G1X67.264800Y24.478400
G1X67.288000Y24.501500
G1X67.305000Y24.527100
G1X67.325000Y24.551200
G1X67.340900Y24.580900
G1X67.359100Y24.608000
G1X67.370800Y24.636300
G1X67.371600Y24.637900
G1X67.385300Y24.657000
G1X67.401900Y24.694100
G1X67.421200Y24.729800
G1X67.428100Y24.752300
G1X67.435300Y24.768400
G1X67.440500Y24.776100
G1X67.460600Y24.824600
G1X67.483700Y24.876000
G1X67.485900Y24.885700
G1X67.489500Y24.894300
G1X67.500100Y24.947600
G1X67.512300Y25.000800
G1X67.512500Y25.010300
G1X67.514500Y25.019900
G1X67.514500Y25.074900
G1X67.516100Y25.128900
G1X67.514500Y25.138300
G1X67.514500Y25.148000
G1X67.503800Y25.201600
G1X67.494800Y25.255100
G1X67.491400Y25.264000
G1X67.489500Y25.273600
G1X67.468600Y25.323800
G1X67.449300Y25.374800
G1X67.444100Y25.383100
G1X67.440500Y25.391800
G1X67.411100Y25.435700
G1X67.381400Y25.483300
G1X67.374600Y25.490500
G1X67.369400Y25.498300
G1X67.331700Y25.535900
G1X67.293600Y25.576400
G1X67.285600Y25.582000
G1X67.278900Y25.588800
G1X67.234500Y25.618300
G1X67.189300Y25.650600
G1X67.180200Y25.654700
G1X67.172400Y25.659900
G1X67.123600Y25.680100
G1X67.072500Y25.703100
G1X67.062800Y25.705300
G1X67.054200Y25.708900
G1X67.000900Y25.719500
G1X66.947700Y25.731700
G1X66.938200Y25.731900
G1X66.928600Y25.733900
G1X66.873600Y25.733900
G1X66.819600Y25.735500
G1X66.810200Y25.733900
G1X64.295400Y25.733900
G1X63.965200Y25.733900
G1X63.720400Y25.835200
G1X63.533000Y26.022600
G1X63.431700Y26.267400
G1X63.431700Y27.945300
G1X63.406700Y28.070900
G1X63.357700Y28.189100
G1X63.286600Y28.295600
G1X63.196100Y28.386100
G1X63.089600Y28.457200
G1X62.971400Y28.506200
G1X62.845800Y28.531200
G1X62.717700Y28.531200
G1X62.329000Y28.531200
G1X61.999300Y28.860900
G1X61.999200Y28.860900
G1X61.999200Y28.861000
G1X61.892800Y28.932100
G1X61.810100Y28.966200
G1X61.774600Y28.981000
G1X61.649000Y29.006000
G1X61.520900Y29.006000
G1X61.520800Y29.006000
G1X61.402500Y28.982400
G1X61.395300Y28.981000
G1X61.391900Y28.979500
G1X61.277000Y28.932000
G1X61.172800Y28.862300
G1X61.170600Y28.860900
G1X61.080100Y28.770400
G1X61.080100Y28.770300
G1X60.841000Y28.531200
G1X59.789000Y28.531200
G1X59.200300Y29.119900
G1X59.145300Y29.175300
G1X59.144300Y29.175900
G1X59.143800Y29.176500
G1X59.096500Y29.208000
G1X59.039100Y29.246700
G1X59.038100Y29.247000
G1X59.037400Y29.247600
G1X58.978300Y29.272000
G1X58.921000Y29.296000
G1X58.920100Y29.296100
G1X58.919100Y29.296600
G1X58.847000Y29.310900
G1X58.753300Y29.329900
G1X58.731800Y29.337200
G1X58.690600Y29.342500
G1X58.650000Y29.350800
G1X58.627300Y29.350800
G1X58.563800Y29.359100
G1X58.558600Y29.360900
G1X58.553700Y29.363000
G1X58.500600Y29.398700
G1X58.483500Y29.413700
G1X58.447500Y29.434400
G1X58.413400Y29.457400
G1X58.392400Y29.466100
G1X58.336400Y29.498400
G1X58.332500Y29.501900
G1X58.303100Y29.531500
G1X58.284500Y29.544000
G1X58.268100Y29.558400
G1X58.232200Y29.579100
G1X57.174100Y30.290600
G1X57.173700Y30.291000
G1X57.114600Y30.330600
G1X57.068200Y30.361800
G1X57.067800Y30.362000
G1X57.067300Y30.362300
G1X57.007500Y30.387200
G1X56.950100Y30.411200
G1X56.949500Y30.411300
G1X56.949100Y30.411500
G1X56.888000Y30.423700
G1X56.824600Y30.436500
G1X56.824000Y30.436500
G1X56.823600Y30.436600
G1X56.768300Y30.436700
G1X56.696500Y30.436900
G1X56.695900Y30.436800
G1X55.873900Y30.437900
G1X55.873600Y30.438000
G1X55.819100Y30.438000
G1X55.746400Y30.438100
G1X55.745900Y30.438000
G1X55.745500Y30.438000
G1X55.697500Y30.428400
G1X55.620800Y30.413300
G1X55.620300Y30.413000
G1X55.619900Y30.413000
G1X55.590700Y30.400900
G1X55.502400Y30.364500
G1X55.395900Y30.293500
G1X55.395500Y30.293100
G1X55.395200Y30.292900
G1X55.351300Y30.249000
G1X55.305300Y30.203100
G1X55.305100Y30.202800
G1X55.304700Y30.202400
G1X55.270200Y30.150700
G1X55.234000Y30.096700
G1X55.233800Y30.096100
G1X55.233600Y30.095900
G1X55.217500Y30.057000
G1X55.184800Y29.978500
G1X55.184700Y29.977800
G1X55.184600Y29.977700
G1X55.176500Y29.937000
G1X55.159700Y29.853000
G1X55.159700Y29.852500
G1X55.159600Y29.852100
G1X55.159600Y29.789700
G1X55.159500Y29.724900
G1X55.159600Y29.724400
G1X55.159600Y29.288300
G1X54.415600Y28.544300
G1X53.363600Y28.544300
G1X53.033900Y28.874000
G1X53.033800Y28.874100
G1X52.927400Y28.945200
G1X52.844700Y28.979300
G1X52.809200Y28.994100
G1X52.683600Y29.019100
G1X52.555500Y29.019100
G1X52.555400Y29.019100
G1X52.437000Y28.995500
G1X52.429900Y28.994100
G1X52.426500Y28.992700
G1X52.311600Y28.945100
G1X52.207400Y28.875400
G1X52.205200Y28.874000
G1X52.114700Y28.783500
G1X52.114700Y28.783400
G1X51.875600Y28.544300
G1X50.823600Y28.544300
G1X50.584500Y28.783400
G1X50.584500Y28.783500
G1X50.502800Y28.865100
G1X50.494000Y28.874000
G1X50.387600Y28.945100
G1X50.269300Y28.994100
G1X50.143800Y29.019100
G1X50.015700Y29.019100
G1X50.015600Y29.019100
G1X49.890000Y28.994100
G1X49.856500Y28.980200
G1X49.771800Y28.945200
G1X49.665400Y28.874100
G1X49.574800Y28.783500
G1X49.335600Y28.544300
G1X48.302400Y28.544300
G1X48.176800Y28.519300
G1X48.173400Y28.517900
G1X48.058500Y28.470300
G1X47.954300Y28.400600
G1X47.952100Y28.399200
G1X47.861600Y28.308700
G1X47.790500Y28.202200
G1X47.741500Y28.084000
G1X47.716500Y27.958400
G1X47.716500Y27.830300
G1X47.741500Y27.704700
G1X47.742900Y27.701300
G1X47.790500Y27.586400
G1X47.860200Y27.482200
G1X47.861600Y27.480000
G1X47.952100Y27.389500
G1X50.930700Y24.411000
G1X51.037200Y24.339900
G1X51.155400Y24.290900
G1X51.281000Y24.265900
G1X51.409100Y24.265900
G1X66.489700Y24.265900

G0Z0.500
G0X60.409700Y32.267900
G1Z-0.100 f25
G1X60.381700Y32.239800 f200
G1X60.351400Y32.213800
G1X60.336400Y32.194500
G1X60.277300Y32.135500
G1X60.206200Y32.029000
G1X60.157200Y31.910800
G1X60.132200Y31.785200
G1X60.132200Y31.657100
G1X60.157200Y31.531500
G1X60.206200Y31.413300
G1X60.277300Y31.306800
G1X60.367800Y31.216300
G1X60.474300Y31.145200
G1X60.592500Y31.096200
G1X60.718100Y31.071200
G1X60.813400Y31.071200
G1X60.853300Y31.068200
G1X60.877700Y31.071200
G1X60.901900Y31.071200
G1X60.940700Y31.079000
G1X60.980400Y31.083800
G1X61.003600Y31.091500
G1X61.027500Y31.096200
G1X61.063600Y31.111200
G1X61.102000Y31.123800
G1X61.123700Y31.136100
G1X61.145700Y31.145200
G1X61.178100Y31.166900
G1X61.213400Y31.186800
G1X61.232000Y31.202800
G1X61.252200Y31.216300
G1X61.280300Y31.244400
G1X61.310500Y31.270400
G1X61.325500Y31.289700
G1X61.342700Y31.306800
G1X61.364600Y31.339700
G1X61.389300Y31.371200
G1X61.400500Y31.393400
G1X61.413800Y31.413300
G1X61.428700Y31.449300
G1X61.447000Y31.485500
G1X61.453600Y31.509300
G1X61.462800Y31.531500
G1X61.470600Y31.570600
G1X61.481200Y31.608900
G1X61.483000Y31.633100
G1X61.487800Y31.657100
G1X61.487800Y31.696700
G1X61.490800Y31.736600
G1X61.487800Y31.761000
G1X61.487800Y31.785200
G1X61.480000Y31.824000
G1X61.475200Y31.863700
G1X61.467500Y31.886900
G1X61.462800Y31.910800
G1X61.452300Y31.936100
G1X61.449000Y31.952700
G1X61.434000Y31.988700
G1X61.421400Y32.027200
G1X61.409100Y32.048900
G1X61.400000Y32.070900
G1X61.378300Y32.103300
G1X61.358400Y32.138600
G1X61.342400Y32.157200
G1X61.328900Y32.177400
G1X61.300800Y32.205400
G1X61.274800Y32.235700
G1X61.255500Y32.250700
G1X61.238400Y32.267900
G1X61.205600Y32.289800
G1X61.174000Y32.314500
G1X61.151800Y32.325700
G1X61.131900Y32.339000
G1X61.095900Y32.353900
G1X61.059700Y32.372200
G1X61.035900Y32.378800
G1X61.013700Y32.388000
G1X60.974600Y32.395700
G1X60.936300Y32.406400
G1X60.912100Y32.408200
G1X60.888100Y32.413000
G1X60.848500Y32.413000
G1X60.808600Y32.416000
G1X60.784200Y32.413000
G1X60.760000Y32.413000
G1X60.721200Y32.405200
G1X60.681500Y32.400400
G1X60.658200Y32.392700
G1X60.634400Y32.388000
G1X60.598300Y32.373000
G1X60.559900Y32.360400
G1X60.538200Y32.348100
G1X60.516200Y32.339000
G1X60.483800Y32.317300
G1X60.448500Y32.297400
G1X60.429900Y32.281400
G1X60.409700Y32.267900

G0Z0.500
G0X72.165600Y26.961300
G1Z-0.100 f25
G1X72.194200Y26.980700 f200
G1X72.214000Y27.000800
G1X72.236800Y27.019400
G1X72.259400Y27.046900
G1X72.284100Y27.071900
G1X72.300100Y27.096300
G1X72.318200Y27.118200
G1X72.334700Y27.148900
G1X72.354400Y27.178800
G1X72.365200Y27.205500
G1X72.378900Y27.230900
G1X72.389400Y27.265200
G1X72.402500Y27.297500
G1X72.407800Y27.325400
G1X72.416400Y27.353300
G1X72.419900Y27.388400
G1X72.426600Y27.423200
G1X72.426400Y27.452700
G1X72.429200Y27.480700
G1X72.425900Y27.515000
G1X72.417600Y28.625400
G1X72.495700Y28.547300
G1X73.534400Y28.547300
G1X73.652100Y28.665100
G1X73.652100Y27.099900
G1X68.833400Y23.736700
G1X68.785600Y23.704800
G1X68.780800Y23.700000
G1X68.775500Y23.696300
G1X68.736100Y23.655200
G1X68.695100Y23.614300
G1X68.691500Y23.608800
G1X68.686800Y23.604000
G1X68.654400Y23.553300
G1X68.624100Y23.507900
G1X68.640900Y24.084200
G1X72.165600Y26.961300

G0Z0.500
G0X70.994400Y31.055200
G1Z-0.100 f25
G1X69.955700Y31.055200 f200
G1X69.221100Y30.320600
G1X69.221100Y29.324600
G1X69.189000Y29.286600
G1X69.189000Y29.417000
G1X69.193700Y29.431600
G1X69.197900Y29.468600
G1X69.205000Y29.504300
G1X69.205000Y29.531500
G1X69.208100Y29.558800
G1X69.205000Y29.595800
G1X69.205000Y30.327200
G1X69.949000Y31.071200
G1X70.366800Y31.071200
G1X70.369400Y31.070700
G1X70.433300Y31.071200
G1X70.492700Y31.071200
G1X70.495100Y31.071700
G1X70.497500Y31.071700
G1X70.558100Y31.084300
G1X70.618300Y31.096200
G1X70.620400Y31.097100
G1X70.622900Y31.097600
G1X70.681100Y31.122300
G1X70.736500Y31.145200
G1X70.738400Y31.146600
G1X70.740800Y31.147500
G1X70.791000Y31.181600
G1X70.843000Y31.216300
G1X70.844800Y31.218200
G1X70.846700Y31.219400
G1X70.888000Y31.261400
G1X70.933500Y31.306800
G1X70.934800Y31.308900
G1X70.936600Y31.310600
G1X70.973600Y31.366900
G1X71.004600Y31.413300
G1X71.005400Y31.415200
G1X71.006900Y31.417500
G1X71.031100Y31.477300
G1X71.053600Y31.531500
G1X71.054100Y31.534000
G1X71.055000Y31.536200
G1X71.067100Y31.599600
G1X71.078600Y31.657100
G1X71.078600Y31.659300
G1X71.079100Y31.661900
G1X71.078600Y31.728500
G1X71.078600Y31.785200
G1X71.078100Y31.787400
G1X71.074400Y32.286400
G1X71.075300Y32.291400
G1X71.073900Y32.349000
G1X71.073500Y32.409000
G1X71.072400Y32.414200
G1X71.072300Y32.419500
G1X71.059400Y32.476900
G1X71.047600Y32.534400
G1X71.045500Y32.539200
G1X71.044400Y32.544400
G1X71.020500Y32.598300
G1X70.997700Y32.652300
G1X70.994700Y32.656600
G1X70.992600Y32.661500
G1X70.958800Y32.709500
G1X70.925800Y32.758200
G1X70.922000Y32.761900
G1X70.376200Y33.538600
G1X70.345700Y33.584300
G1X70.340300Y33.589700
G1X70.335800Y33.596100
G1X70.294800Y33.635100
G1X70.255200Y33.674800
G1X70.248700Y33.679100
G1X70.243200Y33.684400
G1X70.195000Y33.714900
G1X70.148700Y33.745900
G1X70.141700Y33.748700
G1X70.135100Y33.753000
G1X70.082100Y33.773500
G1X70.030500Y33.794900
G1X70.022900Y33.796400
G1X70.015700Y33.799200
G1X69.960500Y33.808800
G1X69.904900Y33.819900
G1X69.897000Y33.819900
G1X69.889600Y33.821200
G1X69.834000Y33.819900
G1X69.573900Y33.819900
G1X68.829900Y34.563900
G1X68.829900Y35.600400
G1X68.831600Y35.610600
G1X68.829900Y35.665000
G1X68.829900Y35.701700
G1X69.264300Y36.027500
G1X68.846000Y35.609300
G1X68.846000Y34.570600
G1X69.580600Y33.836000
G1X70.186800Y33.836000
G1X71.088500Y32.553100
G1X71.100400Y30.949100
G1X70.994400Y31.055200

G0Z0.500
G0X71.353900Y34.570600
G1Z-0.100 f25
G1X71.353900Y35.609300 f200
G1X70.619300Y36.343900
G1X69.686100Y36.343900
G1X69.791800Y36.423100
G1X69.839500Y36.405100
G1X69.888200Y36.384900
G1X69.898300Y36.382900
G1X69.907800Y36.379300
G1X69.961000Y36.370500
G1X70.013800Y36.359900
G1X70.024000Y36.359900
G1X70.034100Y36.358200
G1X70.088600Y36.359900
G1X70.625900Y36.359900
G1X70.865000Y36.120800
G1X70.865000Y36.120700
G1X70.946700Y36.039100
G1X70.955500Y36.030200
G1X71.061900Y35.959100
G1X71.180200Y35.910100
G1X71.305700Y35.885100
G1X71.433800Y35.885100
G1X71.433900Y35.885100
G1X71.559500Y35.910100
G1X71.593000Y35.924100
G1X71.677700Y35.959000
G1X71.784100Y36.030100
G1X71.874700Y36.120700
G1X72.113900Y36.359900
G1X73.165900Y36.359900
G1X73.405000Y36.120800
G1X73.405000Y36.120700
G1X73.486700Y36.039100
G1X73.495500Y36.030200
G1X73.601900Y35.959100
G1X73.720200Y35.910100
G1X73.845700Y35.885100
G1X73.973800Y35.885100
G1X73.973900Y35.885100
G1X74.099500Y35.910100
G1X74.133000Y35.924100
G1X74.217700Y35.959000
G1X74.324100Y36.030100
G1X74.414700Y36.120700
G1X74.414700Y36.120800
G1X74.653900Y36.359900
G1X75.187200Y36.359900
G1X75.312800Y36.384900
G1X75.431000Y36.433900
G1X75.537500Y36.505000
G1X75.628000Y36.595500
G1X75.699100Y36.702000
G1X75.748100Y36.820200
G1X75.773100Y36.945800
G1X75.773100Y37.073900
G1X75.773100Y37.841300
G1X75.775400Y37.856600
G1X75.773100Y37.904500
G1X75.773100Y37.953400
G1X75.770000Y37.968900
G1X75.766600Y38.038500
G1X75.793100Y38.102400
G1X75.801400Y38.116200
G1X75.818000Y38.162500
G1X75.836200Y38.206400
G1X75.839200Y38.221700
G1X75.862700Y38.287200
G1X75.911800Y38.336200
G1X75.924700Y38.345700
G1X75.957500Y38.381900
G1X75.991300Y38.415600
G1X76.000000Y38.428700
G1X76.754900Y39.260000
G1X76.788800Y39.293900
G1X76.797400Y39.306900
G1X76.808200Y39.318700
G1X76.833500Y39.360900
G1X76.859900Y39.400400
G1X76.865800Y39.414800
G1X76.874100Y39.428500
G1X76.890400Y39.474100
G1X76.908900Y39.518600
G1X76.912000Y39.534300
G1X76.917300Y39.549000
G1X76.924300Y39.596300
G1X76.933900Y39.644200
G1X76.933900Y39.660200
G1X76.936200Y39.675600
G1X76.933900Y39.723900
G1X76.933900Y40.388900
G1X76.944400Y40.404400
G1X76.950000Y40.411000
G1X76.950000Y39.451000
G1X75.968300Y38.369900
G1X75.934300Y38.336000
G1X75.925700Y38.323000
G1X75.914900Y38.311200
G1X75.889400Y38.268600
G1X75.863200Y38.229500
G1X75.857400Y38.215400
G1X75.849000Y38.201500
G1X75.832500Y38.155200
G1X75.814200Y38.111300
G1X75.811200Y38.095800
G1X75.805800Y38.081000
G1X75.798700Y38.033300
G1X75.789200Y37.985700
G1X75.789200Y37.969800
G1X75.786900Y37.954400
G1X75.789200Y37.906100
G1X75.789200Y36.253900
G1X75.699300Y36.343900
G1X74.660600Y36.343900
G1X73.926000Y35.609300
G1X73.926000Y34.570600
G1X74.660600Y33.836000
G1X74.968300Y33.836000
G1X72.761200Y32.587000
G1X72.742900Y32.579800
G1X72.706400Y32.556000
G1X72.667500Y32.534100
G1X72.652400Y32.521000
G1X72.635500Y32.510100
G1X72.604100Y32.479400
G1X72.570500Y32.450500
G1X72.558000Y32.434300
G1X72.543900Y32.420700
G1X72.519500Y32.385100
G1X72.491700Y32.349600
G1X72.482600Y32.331400
G1X72.471400Y32.315200
G1X72.454300Y32.275300
G1X72.434100Y32.235300
G1X72.428700Y32.215700
G1X72.420900Y32.197600
G1X72.411900Y32.154900
G1X72.399900Y32.111900
G1X72.398400Y32.091700
G1X72.394300Y32.072400
G1X72.393800Y32.029100
G1X72.392500Y32.011300
G1X72.387300Y32.706900
G1X72.388200Y32.712000
G1X72.386800Y32.770100
G1X72.386400Y32.829600
G1X72.385300Y32.834800
G1X72.385200Y32.840100
G1X72.372300Y32.897700
G1X72.360500Y32.955000
G1X72.358400Y32.959800
G1X72.357300Y32.965000
G1X72.333300Y33.019100
G1X72.310600Y33.072900
G1X72.307600Y33.077200
G1X72.305500Y33.082100
G1X72.271600Y33.130200
G1X72.238700Y33.178800
G1X72.234900Y33.182500
G1X71.298300Y34.515100
G1X71.353900Y34.570600

G0Z0.500
G0X73.893900Y34.570600
G1Z-0.100 f25
G1X73.893900Y35.609300 f200
G1X73.159300Y36.343900
G1X72.120600Y36.343900
G1X71.386000Y35.609300
G1X71.386000Y34.570600
G1X72.120600Y33.836000
G1X73.159300Y33.836000
G1X73.893900Y34.570600

G0Z0.500
G0X72.392900Y31.964000
G1Z-0.100 f25
G1X72.392900Y31.957400 f200
G1X72.392800Y31.965200
G1X72.392900Y31.964000

G0Z0.500
G0X64.747700Y27.049900
G1Z-0.100 f25
G1X64.747700Y28.675400 f200
G1X64.875700Y28.547300
G1X65.914400Y28.547300
G1X66.649000Y29.281900
G1X66.649000Y30.320600
G1X66.537100Y30.432400
G1X66.543000Y30.442100
G1X66.566100Y30.474400
G1X66.576300Y30.497200
G1X66.589000Y30.518000
G1X66.602200Y30.554500
G1X66.618800Y30.591100
G1X66.624400Y30.615700
G1X66.632700Y30.638300
G1X66.638500Y30.676700
G1X66.898100Y31.798700
G1X66.901200Y31.806000
G1X66.912400Y31.860700
G1X66.925200Y31.915800
G1X66.925400Y31.923900
G1X66.927000Y31.931400
G1X66.927300Y31.985400
G1X66.929200Y32.043800
G1X66.927800Y32.051900
G1X66.940900Y33.935800
G1X66.956900Y33.919700
G1X66.944500Y32.118300
G1X66.942600Y32.060300
G1X66.944000Y32.052200
G1X66.943900Y32.044500
G1X66.954300Y31.990800
G1X66.956200Y31.979000
G1X66.944800Y31.929900
G1X66.944600Y31.921500
G1X66.943000Y31.914100
G1X66.942700Y31.862900
G1X66.937100Y31.849600
G1X66.915100Y31.801000
G1X66.913500Y31.793900
G1X66.910200Y31.786200
G1X66.898400Y31.728600
G1X66.684600Y30.804700
G1X66.680700Y30.795400
G1X66.670200Y30.742500
G1X66.658000Y30.689900
G1X66.657700Y30.679700
G1X66.655700Y30.669800
G1X66.655700Y30.616300
G1X66.654000Y30.561900
G1X66.655700Y30.551800
G1X66.655700Y30.541700
G1X66.665000Y30.495200
G1X66.665000Y29.275200
G1X65.921000Y28.531200
G1X65.349600Y28.531200
G1X65.224000Y28.506200
G1X65.105800Y28.457200
G1X64.999300Y28.386100
G1X64.908800Y28.295600
G1X64.837700Y28.189100
G1X64.788700Y28.070900
G1X64.763700Y27.945300
G1X64.763700Y27.817200
G1X64.763700Y27.651800
G1X64.788700Y27.526200
G1X64.837700Y27.408000
G1X64.908800Y27.301500
G1X64.999300Y27.211000
G1X65.105800Y27.139900
G1X65.224000Y27.090900
G1X65.349600Y27.065900
G1X65.477700Y27.065900
G1X66.952300Y27.065900
G1X66.979600Y27.062800
G1X67.016600Y27.065900
G1X67.053200Y27.065900
G1X67.079800Y27.071200
G1X67.107300Y27.073500
G1X67.142900Y27.083800
G1X67.178800Y27.090900
G1X67.203800Y27.101300
G1X67.230300Y27.108900
G1X67.263300Y27.126000
G1X67.297000Y27.139900
G1X67.319400Y27.154900
G1X67.344100Y27.167600
G1X67.372900Y27.190700
G1X67.403500Y27.211000
G1X67.423000Y27.230500
G1X67.444200Y27.247400
G1X67.467700Y27.275200
G1X67.494000Y27.301500
G1X67.509200Y27.324400
G1X69.027600Y29.120600
G1X69.163700Y29.256700
G1X67.298200Y27.049900
G1X64.747700Y27.049900

G0Z0.500
G0X63.374400Y31.055200
G1Z-0.100 f25
G1X63.126600Y31.055200 f200
G1X62.624600Y32.580800
G1X62.614400Y32.621300
G1X62.604400Y32.642300
G1X62.597300Y32.663900
G1X62.577100Y32.699600
G1X62.036600Y33.836000
G1X62.999300Y33.836000
G1X63.097600Y33.934400
G1X63.099400Y32.843100
G1X63.098400Y32.837500
G1X63.099500Y32.781100
G1X63.099600Y32.721200
G1X63.100800Y32.715300
G1X63.100900Y32.709500
G1X63.113200Y32.653500
G1X63.124800Y32.595700
G1X63.127100Y32.590200
G1X63.447800Y31.129200
G1X63.447800Y30.981700
G1X63.374400Y31.055200

G0Z0.500
G0X63.049900Y36.293300
G1Z-0.100 f25
G1X63.049900Y36.456900 f200
G1X63.093500Y36.486700
G1X63.093900Y36.249300
G1X63.049900Y36.293300

G0Z0.500
G0X70.726700Y41.563500
G1Z-0.100 f25
G1X70.726700Y41.134900 f200
G1X70.675000Y41.098100
G1X70.695400Y41.532200
G1X70.726700Y41.563500

G0Z0.500
G0X64.500600Y33.836000
G1Z-0.100 f25
G1X65.539300Y33.836000 f200
G1X65.641100Y33.937900
G1X65.628200Y32.076600
G1X65.391900Y31.055200
G1X64.875700Y31.055200
G1X64.747700Y30.927100
G1X64.747700Y31.142600
G1X64.748800Y31.148800
G1X64.747700Y31.205200
G1X64.747700Y31.264000
G1X64.746400Y31.270400
G1X64.746300Y31.276800
G1X64.734000Y31.332900
G1X64.722700Y31.389600
G1X64.720200Y31.395500
G1X64.399300Y32.857600
G1X64.397500Y33.939200
G1X64.500600Y33.836000

G0Z0.500
G0X9.473900Y21.919900
G1Z-0.100 f25
G1X8.729900Y22.663900 f200
G1X8.729900Y23.715900
G1X9.473900Y24.459900
G1X10.525900Y24.459900
G1X11.269900Y23.715900
G1X11.269900Y22.663900
G1X10.525900Y21.919900
G1X9.473900Y21.919900

G0Z0.500
G0X11.253900Y22.670600
G1Z-0.100 f25
G1X11.253900Y23.709300 f200
G1X10.519300Y24.443900
G1X9.480600Y24.443900
G1X8.746000Y23.709300
G1X8.746000Y22.670600
G1X9.480600Y21.936000
G1X10.519300Y21.936000
G1X11.253900Y22.670600

G0Z0.500
G0X93.599900Y27.643200
G1Z-0.100 f25
G1X93.382800Y27.860300 f200
G1X93.815700Y27.859000
G1X93.599900Y27.643200

G0Z0.500
G0X91.063900Y50.519300
G1Z-0.100 f25
G1X90.633100Y50.950000 f200
G1X91.526800Y50.950000
G1X91.096000Y50.519300
G1X91.096000Y49.542900
G1X91.063900Y49.569200
G1X91.063900Y50.519300

G0Z0.500
G0X93.476500Y41.600400
G1Z-0.100 f25
G1X93.476500Y40.642500 f200
G1X93.460400Y40.658700
G1X93.460400Y41.607000
G1X93.588800Y41.735400
G1X93.659900Y41.841900
G1X93.708900Y41.960100
G1X93.733900Y42.085700
G1X93.733900Y42.213800
G1X93.733900Y45.345300
G1X93.737000Y45.377400
G1X93.733900Y45.408400
G1X93.733900Y45.440400
G1X93.727500Y45.472400
G1X93.724300Y45.504800
G1X93.715000Y45.535200
G1X93.708900Y45.566000
G1X93.696600Y45.595600
G1X93.687000Y45.627200
G1X93.671800Y45.655400
G1X93.659900Y45.684200
G1X93.641800Y45.711200
G1X93.626400Y45.740000
G1X93.606400Y45.764300
G1X93.588800Y45.790700
G1X93.565900Y45.813600
G1X93.545100Y45.838900
G1X93.520300Y45.859100
G1X93.498300Y45.881200
G1X93.471600Y45.899000
G1X90.216200Y48.562300
G1X90.193800Y48.584800
G1X90.166600Y48.602900
G1X90.141500Y48.623500
G1X90.113400Y48.638400
G1X90.087300Y48.655900
G1X90.057400Y48.668200
G1X90.028500Y48.683700
G1X89.998100Y48.692900
G1X89.969100Y48.704900
G1X89.959000Y48.706900
G1X89.916600Y48.746000
G1X90.017200Y48.746000
G1X93.750000Y45.692000
G1X93.750000Y41.873800
G1X93.476500Y41.600400

G0Z0.500
G0X88.556000Y50.519300
G1Z-0.100 f25
G1X88.556000Y50.002000 f200
G1X88.539900Y50.016900
G1X88.539900Y50.348000
G1X88.523900Y50.428300
G1X88.523900Y50.519300
G1X88.476100Y50.567000
G1X88.465900Y50.591800
G1X88.394800Y50.698300
G1X88.304300Y50.788800
G1X88.197800Y50.859900
G1X88.173000Y50.870100
G1X88.093100Y50.950000
G1X88.986800Y50.950000
G1X88.556000Y50.519300

G0Z0.500
G0X54.523900Y43.750600
G1Z-0.100 f25
G1X54.523900Y44.789300 f200
G1X53.789300Y45.523900
G1X52.750600Y45.523900
G1X52.016000Y44.789300
G1X52.016000Y43.750600
G1X52.023800Y43.742900
G1X51.495100Y43.214300
G1X51.424000Y43.107800
G1X51.375000Y42.989600
G1X51.353200Y42.879900
G1X51.249300Y42.983900
G1X50.210600Y42.983900
G1X49.476000Y42.249300
G1X49.476000Y41.210600
G1X50.210600Y40.476000
G1X51.249300Y40.476000
G1X51.350000Y40.576800
G1X51.350000Y40.249900
G1X47.222800Y40.249900
G1X47.182100Y40.252800
G1X47.159100Y40.249900
G1X47.135900Y40.249900
G1X47.096000Y40.241900
G1X47.055100Y40.236800
G1X47.032900Y40.229400
G1X47.010300Y40.224900
G1X46.973000Y40.209400
G1X46.208600Y39.954600
G1X46.119300Y40.043900
G1X45.080600Y40.043900
G1X44.861300Y39.824500
G1X44.861300Y43.750000
G1X47.998500Y43.750000
G1X48.063300Y43.749900
G1X48.063800Y43.750000
G1X48.064000Y43.750000
G1X48.111200Y43.759400
G1X48.188900Y43.774800
G1X48.189100Y43.774900
G1X48.189600Y43.775000
G1X48.232500Y43.792800
G1X48.307200Y43.823600
G1X48.413800Y43.894700
G1X48.414000Y43.894900
G1X48.414300Y43.895100
G1X48.458400Y43.939200
G1X48.504400Y43.985100
G1X48.504600Y43.985400
G1X48.504800Y43.985600
G1X48.532100Y44.026500
G1X48.575600Y44.091500
G1X48.575700Y44.091900
G1X48.575900Y44.092100
G1X48.600200Y44.150700
G1X48.624700Y44.209700
G1X48.624700Y44.210000
G1X48.624900Y44.210300
G1X48.641300Y44.292900
G1X48.932700Y45.750000
G1X63.198800Y45.750000
G1X63.180800Y45.706700
G1X63.157000Y45.650900
G1X63.156400Y45.647900
G1X63.155400Y45.645600
G1X63.143500Y45.586200
G1X63.130800Y45.525600
G1X63.130800Y45.522900
G1X63.130200Y45.520100
G1X63.130100Y45.455700
G1X63.114000Y43.849100
G1X62.999300Y43.963900
G1X61.960600Y43.963900
G1X61.226000Y43.229300
G1X61.226000Y42.190600
G1X61.960600Y41.456000
G1X62.303100Y41.456000
G1X56.221700Y37.849900
G1X54.746500Y37.849900
G1X54.753400Y37.854500
G1X54.803200Y37.886200
G1X54.808300Y37.891200
G1X54.814300Y37.895100
G1X54.855300Y37.936200
G1X54.895700Y37.974800
G1X54.899600Y37.980500
G1X54.904800Y37.985600
G1X54.936500Y38.033100
G1X57.332500Y41.456000
G1X57.919300Y41.456000
G1X58.653900Y42.190600
G1X58.653900Y43.229300
G1X57.919300Y43.963900
G1X56.880600Y43.963900
G1X56.146000Y43.229300
G1X56.146000Y42.190600
G1X56.213100Y42.123500
G1X54.061600Y39.049900
G1X52.346500Y39.049900
G1X52.414300Y39.095100
G1X52.504800Y39.185600
G1X52.575900Y39.292100
G1X52.624900Y39.410300
G1X52.649900Y39.535900
G1X52.649900Y40.576800
G1X52.665900Y40.560800
G1X52.665900Y39.651800
G1X52.690900Y39.526200
G1X52.739900Y39.408000
G1X52.811000Y39.301500
G1X52.901500Y39.211000
G1X53.008000Y39.139900
G1X53.126200Y39.090900
G1X53.251800Y39.065900
G1X53.379900Y39.065900
G1X53.707800Y39.065900
G1X53.764700Y39.064700
G1X53.771500Y39.065900
G1X53.778800Y39.065900
G1X53.834600Y39.077000
G1X53.890800Y39.086900
G1X53.897600Y39.089600
G1X53.904400Y39.090900
G1X53.954800Y39.111800
G1X54.010100Y39.133300
G1X54.016400Y39.137400
G1X54.022600Y39.139900
G1X54.068300Y39.170500
G1X54.118000Y39.202100
G1X54.123100Y39.207000
G1X54.129100Y39.211000
G1X54.170200Y39.252100
G1X54.210500Y39.290700
G1X54.214400Y39.296400
G1X54.219600Y39.301500
G1X54.251300Y39.349100
G1X55.979800Y41.818200
G1X55.984800Y41.823200
G1X56.015700Y41.869500
G1X56.049100Y41.917200
G1X56.052100Y41.924000
G1X56.055900Y41.929700
G1X56.076800Y41.980100
G1X56.100700Y42.034400
G1X56.102300Y42.041700
G1X56.104900Y42.047900
G1X56.115500Y42.101500
G1X56.128400Y42.159400
G1X56.128500Y42.166800
G1X56.129900Y42.173500
G1X56.129900Y42.230500
G1X56.131100Y42.287500
G1X56.129900Y42.294300
G1X56.129900Y43.235900
G1X56.873900Y43.979900
G1X57.925900Y43.979900
G1X58.255600Y43.650200
G1X58.255700Y43.650100
G1X58.362100Y43.579000
G1X58.444800Y43.544900
G1X58.480300Y43.530100
G1X58.605900Y43.505100
G1X58.734000Y43.505100
G1X58.734100Y43.505100
G1X58.852500Y43.528700
G1X58.859600Y43.530100
G1X58.863000Y43.531500
G1X58.977900Y43.579100
G1X59.082100Y43.648800
G1X59.084300Y43.650200
G1X59.174800Y43.740700
G1X59.174800Y43.740800
G1X59.413900Y43.979900
G1X60.465900Y43.979900
G1X60.795600Y43.650200
G1X60.795700Y43.650100
G1X60.902100Y43.579000
G1X60.984800Y43.544900
G1X61.020300Y43.530100
G1X61.145900Y43.505100
G1X61.274000Y43.505100
G1X61.274100Y43.505100
G1X61.392500Y43.528700
G1X61.399600Y43.530100
G1X61.403000Y43.531500
G1X61.517900Y43.579100
G1X61.622100Y43.648800
G1X61.624300Y43.650200
G1X61.714800Y43.740700
G1X61.714800Y43.740800
G1X61.953900Y43.979900
G1X62.456200Y43.979900
G1X62.513400Y43.979300
G1X62.516400Y43.979900
G1X62.519800Y43.979900
G1X62.578500Y43.991600
G1X62.639200Y44.003000
G1X62.642300Y44.004300
G1X62.645400Y44.004900
G1X62.697500Y44.026500
G1X62.757900Y44.050800
G1X62.760800Y44.052800
G1X62.763600Y44.053900
G1X62.811100Y44.085700
G1X62.865100Y44.120900
G1X62.867400Y44.123300
G1X62.870100Y44.125000
G1X62.912200Y44.167100
G1X62.956500Y44.210500
G1X62.958300Y44.213300
G1X62.960600Y44.215500
G1X62.992700Y44.263600
G1X63.028700Y44.316300
G1X63.030000Y44.319600
G1X63.031700Y44.322000
G1X63.053900Y44.375600
G1X63.078800Y44.434000
G1X63.079400Y44.437200
G1X63.080700Y44.440200
G1X63.093300Y44.503500
G1X63.105000Y44.559400
G1X63.105000Y44.562400
G1X63.105700Y44.565800
G1X63.105700Y44.631700
G1X63.109500Y45.016700
G1X63.110200Y45.019900
G1X63.110200Y45.081200
G1X63.110800Y45.141600
G1X63.110200Y45.144700
G1X63.110200Y45.148000
G1X63.098900Y45.204700
G1X63.087100Y45.267400
G1X63.085700Y45.270600
G1X63.085200Y45.273600
G1X63.064300Y45.323800
G1X63.039300Y45.386100
G1X63.037200Y45.389100
G1X63.036200Y45.391800
G1X63.005600Y45.437500
G1X62.969200Y45.493300
G1X62.966800Y45.495700
G1X62.965100Y45.498300
G1X62.924400Y45.538900
G1X62.879600Y45.584700
G1X62.876700Y45.586600
G1X62.874600Y45.588800
G1X62.828200Y45.619700
G1X62.773800Y45.656900
G1X62.770400Y45.658300
G1X62.768100Y45.659900
G1X62.716500Y45.681200
G1X62.656100Y45.707000
G1X62.652800Y45.707600
G1X62.649900Y45.708900
G1X62.588800Y45.721000
G1X62.530700Y45.733200
G1X62.527600Y45.733200
G1X62.524300Y45.733900
G1X62.461800Y45.733900
G1X62.402600Y45.734500
G1X62.399500Y45.733900
G1X55.234300Y45.733900
G1X55.233300Y45.734100
G1X55.169600Y45.733900
G1X55.106900Y45.733900
G1X55.106000Y45.733700
G1X55.105200Y45.733700
G1X55.051400Y45.722800
G1X54.981300Y45.708900
G1X54.980500Y45.708500
G1X54.979700Y45.708400
G1X54.915900Y45.681700
G1X54.863100Y45.659900
G1X54.862600Y45.659500
G1X54.861500Y45.659100
G1X54.804900Y45.621000
G1X54.756600Y45.588800
G1X54.756000Y45.588100
G1X54.755300Y45.587700
G1X54.719500Y45.551600
G1X54.666100Y45.498300
G1X54.665500Y45.497400
G1X54.665000Y45.496900
G1X54.633400Y45.449200
G1X54.595000Y45.391800
G1X54.594700Y45.391000
G1X54.594200Y45.390300
G1X54.571700Y45.335500
G1X54.546000Y45.273600
G1X54.545900Y45.272600
G1X54.545500Y45.271900
G1X54.532300Y45.204700
G1X54.521000Y45.148000
G1X54.521000Y45.147300
G1X54.520800Y45.146300
G1X54.521000Y45.082600
G1X54.521000Y45.019900
G1X54.521200Y45.019000
G1X54.521200Y45.018200
G1X54.532100Y44.964400
G1X54.539900Y44.925000
G1X54.539900Y43.743900
G1X53.795900Y42.999900
G1X53.347000Y42.999900
G1X53.266700Y42.983900
G1X53.103000Y42.983900
G1X53.135200Y43.016000
G1X53.789300Y43.016000
G1X54.523900Y43.750600

G0Z0.500
G0X48.766500Y40.265700
G1Z-0.100 f25
G1X48.830200Y40.265900 f200
G1X48.892900Y40.265900
G1X48.893900Y40.266100
G1X48.894600Y40.266100
G1X48.948400Y40.277000
G1X49.018500Y40.290900
G1X49.019300Y40.291300
G1X49.020100Y40.291400
G1X49.083900Y40.318100
G1X49.136700Y40.339900
G1X49.137200Y40.340300
G1X49.138300Y40.340700
G1X49.194900Y40.378800
G1X49.243200Y40.411000
G1X49.243800Y40.411700
G1X49.244500Y40.412100
G1X49.280300Y40.448200
G1X49.333700Y40.501500
G1X49.334300Y40.502400
G1X49.334800Y40.502900
G1X49.366400Y40.550600
G1X49.404800Y40.608000
G1X49.405100Y40.608800
G1X49.405600Y40.609500
G1X49.428100Y40.664300
G1X49.453800Y40.726200
G1X49.453900Y40.727200
G1X49.454300Y40.727900
G1X49.467500Y40.795100
G1X49.478800Y40.851800
G1X49.478800Y40.852500
G1X49.479000Y40.853500
G1X49.478800Y40.917200
G1X49.478800Y40.979900
G1X49.478600Y40.980900
G1X49.478600Y40.981600
G1X49.467700Y41.035400
G1X49.459900Y41.074800
G1X49.459900Y42.255900
G1X49.789600Y42.585600
G1X49.860700Y42.692100
G1X49.909700Y42.810300
G1X49.934700Y42.935900
G1X49.934700Y43.064000
G1X49.909700Y43.189600
G1X49.860700Y43.307800
G1X49.789600Y43.414300
G1X49.699100Y43.504800
G1X49.699000Y43.504800
G1X49.294100Y43.909800
G1X49.292600Y43.910700
G1X49.187600Y43.981000
G1X49.104900Y44.015100
G1X49.069400Y44.029900
G1X48.943800Y44.054900
G1X48.815700Y44.054900
G1X48.815600Y44.054900
G1X48.697300Y44.031300
G1X48.690100Y44.029900
G1X48.686700Y44.028400
G1X48.571800Y43.980900
G1X48.469700Y43.912600
G1X48.465400Y43.909800
G1X48.465400Y43.909700
G1X48.424100Y43.882200
G1X48.377200Y43.835200
G1X48.315200Y43.809700
G1X48.314700Y43.809300
G1X48.314600Y43.809300
G1X48.312800Y43.808000
G1X48.259300Y43.772300
G1X48.194200Y43.759500
G1X48.193600Y43.759200
G1X48.193400Y43.759200
G1X48.170300Y43.749600
G1X48.132300Y43.733900
G1X48.129000Y43.733900
G1X48.065600Y43.734000
G1X48.065100Y43.733900
G1X48.064900Y43.733900
G1X48.025100Y43.726000
G1X47.999200Y43.720800
G1X47.992700Y43.722100
G1X47.934400Y43.733800
G1X47.934000Y43.733800
G1X47.933600Y43.733900
G1X47.871100Y43.733900
G1X47.806300Y43.734000
G1X47.805800Y43.733900
G1X45.463200Y43.733900
G1X45.337600Y43.708900
G1X45.219400Y43.659900
G1X45.112900Y43.588800
G1X45.022400Y43.498300
G1X44.951300Y43.391800
G1X44.902300Y43.273600
G1X44.877300Y43.148000
G1X44.877300Y43.019900
G1X44.877300Y40.645800
G1X44.902300Y40.520200
G1X44.951300Y40.402000
G1X45.022400Y40.295500
G1X45.112900Y40.205000
G1X45.219400Y40.133900
G1X45.337600Y40.084900
G1X45.463200Y40.059900
G1X45.591300Y40.059900
G1X46.345400Y40.059900
G1X46.386100Y40.057000
G1X46.409100Y40.059900
G1X46.432400Y40.059900
G1X46.472500Y40.067900
G1X46.513100Y40.073000
G1X46.535100Y40.080400
G1X46.558000Y40.084900
G1X46.595700Y40.100600
G1X46.905800Y40.203900
G1X46.928500Y40.208400
G1X46.966000Y40.224000
G1X47.005200Y40.237000
G1X47.025500Y40.248600
G1X47.082900Y40.272400
G1X47.090400Y40.273900
G1X47.098000Y40.274800
G1X47.159300Y40.270500
G1X47.182000Y40.265900
G1X47.223100Y40.265900
G1X47.263900Y40.263000
G1X47.286900Y40.265900
G1X48.765500Y40.265900
G1X48.766500Y40.265700

G0Z0.500
G0X57.615200Y41.439900
G1Z-0.100 f25
G1X57.559700Y41.428800 f200
G1X57.503200Y41.418900
G1X57.496400Y41.416200
G1X57.489600Y41.414900
G1X57.439500Y41.394100
G1X57.383900Y41.372500
G1X57.377600Y41.368400
G1X57.371400Y41.365900
G1X57.325900Y41.335500
G1X57.276000Y41.303700
G1X57.270900Y41.298700
G1X57.264900Y41.294800
G1X57.224000Y41.253900
G1X57.183500Y41.215100
G1X57.179500Y41.209400
G1X57.174400Y41.204300
G1X57.142900Y41.157000
G1X55.594800Y38.945500
G1X55.563100Y38.903300
G1X55.558600Y38.893900
G1X55.552500Y38.885200
G1X55.530400Y38.834900
G1X55.507800Y38.787800
G1X55.505300Y38.777900
G1X55.500900Y38.768000
G1X55.489000Y38.713900
G1X55.476100Y38.663800
G1X55.475600Y38.653600
G1X55.473200Y38.643000
G1X55.472100Y38.588800
G1X55.469200Y38.535800
G1X55.470700Y38.525300
G1X55.470500Y38.514900
G1X55.479800Y38.462400
G1X55.487400Y38.409100
G1X55.490900Y38.399300
G1X55.492700Y38.388800
G1X55.512300Y38.338600
G1X55.529900Y38.288400
G1X55.535300Y38.279400
G1X55.539100Y38.269500
G1X55.567900Y38.224400
G1X55.595200Y38.178300
G1X55.602300Y38.170500
G1X55.607900Y38.161600
G1X55.644900Y38.123000
G1X55.680800Y38.083000
G1X55.689300Y38.076700
G1X55.696500Y38.069100
G1X55.740600Y38.038300
G1X55.783200Y38.006300
G1X55.792600Y38.001800
G1X55.801300Y37.995700
G1X55.851600Y37.973600
G1X55.898700Y37.951000
G1X55.908600Y37.948500
G1X55.918500Y37.944100
G1X55.972600Y37.932200
G1X56.022700Y37.919300
G1X56.032900Y37.918800
G1X56.043500Y37.916400
G1X56.097700Y37.915300
G1X56.150700Y37.912400
G1X56.161200Y37.913900
G1X56.171600Y37.913700
G1X56.224100Y37.923000
G1X56.277400Y37.930600
G1X56.287200Y37.934100
G1X56.297700Y37.935900
G1X56.347900Y37.955500
G1X56.398100Y37.973100
G1X56.407100Y37.978500
G1X56.417000Y37.982300
G1X56.461900Y38.011000
G1X60.166100Y40.207400
G1X60.182000Y40.214000
G1X60.219900Y40.239400
G1X60.260700Y40.263500
G1X60.273900Y40.275400
G1X60.288500Y40.285100
G1X60.321600Y40.318200
G1X60.356000Y40.349100
G1X60.366400Y40.363100
G1X60.379000Y40.375600
G1X60.404800Y40.414300
G1X60.432700Y40.451500
G1X60.440400Y40.467600
G1X60.450100Y40.482100
G1X60.467800Y40.524900
G1X60.488000Y40.567000
G1X60.492300Y40.584100
G1X60.499100Y40.600300
G1X60.508200Y40.646000
G1X60.519700Y40.691000
G1X60.520600Y40.708600
G1X60.524100Y40.725900
G1X60.524100Y40.772600
G1X60.526600Y40.819000
G1X60.524100Y40.836400
G1X60.524100Y40.854000
G1X60.515000Y40.899600
G1X60.508400Y40.945700
G1X60.502500Y40.962300
G1X60.499100Y40.979600
G1X60.481600Y41.021800
G1X60.465900Y41.066400
G1X60.456600Y41.082000
G1X60.450100Y41.097800
G1X60.424800Y41.135600
G1X60.400600Y41.176500
G1X60.388700Y41.189700
G1X60.379000Y41.204300
G1X60.345900Y41.237400
G1X60.315000Y41.271800
G1X60.301000Y41.282200
G1X60.288500Y41.294800
G1X60.249800Y41.320600
G1X60.212600Y41.348500
G1X60.196500Y41.356200
G1X60.182000Y41.365900
G1X60.139200Y41.383600
G1X60.097100Y41.403800
G1X60.080000Y41.408100
G1X60.063800Y41.414900
G1X60.018100Y41.424000
G1X59.973100Y41.435500
G1X59.955500Y41.436400
G1X59.938200Y41.439900
G1X59.891500Y41.439900
G1X59.845100Y41.442400
G1X59.827700Y41.439900
G1X59.413900Y41.439900
G1X59.174800Y41.679000
G1X59.174800Y41.679100
G1X59.093100Y41.760700
G1X59.084300Y41.769600
G1X58.977900Y41.840700
G1X58.859600Y41.889700
G1X58.734100Y41.914700
G1X58.606000Y41.914700
G1X58.605900Y41.914700
G1X58.480300Y41.889700
G1X58.446800Y41.875800
G1X58.362100Y41.840800
G1X58.255700Y41.769700
G1X58.165100Y41.679100
G1X57.925900Y41.439900
G1X57.686500Y41.439900
G1X57.629300Y41.441100
G1X57.622500Y41.439900
G1X57.615200Y41.439900

G0Z0.500
G0X61.193900Y42.190600
G1Z-0.100 f25
G1X61.193900Y43.229300 f200
G1X60.459300Y43.963900
G1X59.420600Y43.963900
G1X58.686000Y43.229300
G1X58.686000Y42.190600
G1X59.420600Y41.456000
G1X60.459300Y41.456000
G1X61.193900Y42.190600

G0Z0.500
G0X51.983900Y43.750600
G1Z-0.100 f25
G1X51.983900Y44.789300 f200
G1X51.249300Y45.523900
G1X50.210600Y45.523900
G1X49.476000Y44.789300
G1X49.476000Y43.750600
G1X50.210600Y43.016000
G1X51.249300Y43.016000
G1X51.983900Y43.750600

G0Z0.500
G0X85.091800Y27.665100
G1Z-0.100 f25
G1X85.049900Y27.623100 f200
G1X85.049900Y27.645900
G1X85.069300Y27.665300
G1X85.091800Y27.665100

G0Z0.500
G0X89.016000Y31.504100
G1Z-0.100 f25
G1X89.016000Y30.480600 f200
G1X89.333600Y30.163100
G1X88.666300Y30.163100
G1X88.983900Y30.480600
G1X88.983900Y31.519300
G1X88.753100Y31.750000
G1X88.852100Y31.750000
G1X89.016000Y31.504100

G0Z0.500
G0X64.611900Y50.971200
G1Z-0.100 f25
G1X68.661200Y50.974400 f200
G1X68.336700Y50.649900
G1X64.933200Y50.649900
G1X64.611900Y50.971200

G0Z0.500
G0X83.408700Y36.254400
G1Z-0.100 f25
G1X83.319300Y36.343900 f200
G1X82.280600Y36.343900
G1X82.191200Y36.254400
G1X82.191100Y38.971500
G1X82.193800Y38.965000
G1X82.210800Y38.918000
G1X82.218600Y38.905100
G1X82.224000Y38.892100
G1X82.250700Y38.852100
G1X82.277100Y38.808500
G1X82.287200Y38.797600
G1X82.295100Y38.785600
G1X82.329600Y38.751100
G1X83.408700Y37.571300
G1X83.408700Y36.254400

G0Z0.500
G0X86.092100Y31.824000
G1Z-0.100 f25
G1X86.104900Y31.818700 f200
G1X86.116900Y31.811400
G1X86.163700Y31.794400
G1X86.210300Y31.775000
G1X86.224300Y31.772200
G1X86.237200Y31.767500
G1X86.285900Y31.760000
G1X86.335900Y31.750000
G1X86.350200Y31.750000
G1X86.363700Y31.747900
G1X86.413500Y31.750000
G1X86.706800Y31.750000
G1X86.476000Y31.519300
G1X86.476000Y30.793900
G1X85.680600Y30.793900
G1X85.123100Y30.236400
G1X82.218900Y33.866700
G1X82.213800Y33.902800
G1X82.280600Y33.836000
G1X83.319300Y33.836000
G1X83.408700Y33.925500
G1X83.408700Y33.873500
G1X83.406600Y33.860000
G1X83.408700Y33.810200
G1X83.408700Y33.759700
G1X83.411400Y33.746200
G1X83.412000Y33.732000
G1X83.424100Y33.682400
G1X83.433700Y33.634100
G1X83.438900Y33.621600
G1X83.442300Y33.607600
G1X83.464100Y33.560900
G1X83.482700Y33.515900
G1X83.490300Y33.504600
G1X83.496300Y33.491600
G1X83.526200Y33.450800
G1X83.553800Y33.409400
G1X83.563700Y33.399500
G1X83.571900Y33.388300
G1X83.608600Y33.354600
G1X83.644300Y33.318900
G1X83.655900Y33.311200
G1X83.666200Y33.301700
G1X83.709600Y33.275400
G1X83.750800Y33.247800
G1X83.763500Y33.242600
G1X86.050400Y31.851900
G1X86.092100Y31.824000

G0Z0.500
G0X85.592600Y30.728600
G1Z-0.100 f25
G1X85.612300Y30.748300 f200
G1X85.634300Y30.765900
G1X85.657700Y30.793700
G1X85.801900Y30.938000
G1X85.827500Y30.955000
G1X85.837100Y30.964700
G1X85.848700Y30.973100
G1X85.883000Y31.010600
G1X85.918000Y31.045500
G1X85.925700Y31.057100
G1X85.935200Y31.067400
G1X85.961800Y31.111300
G1X85.989100Y31.152000
G1X85.994200Y31.164400
G1X86.001800Y31.176800
G1X86.019200Y31.224800
G1X86.038100Y31.270200
G1X86.040800Y31.284200
G1X86.045600Y31.297100
G1X86.053100Y31.345800
G1X86.063100Y31.395800
G1X86.063100Y31.410100
G1X86.065200Y31.423600
G1X86.063100Y31.473400
G1X86.063100Y31.523900
G1X86.060400Y31.537400
G1X86.059800Y31.551600
G1X86.047700Y31.601200
G1X86.038100Y31.649500
G1X86.032900Y31.662000
G1X86.029500Y31.676000
G1X86.007500Y31.723100
G1X85.989100Y31.767700
G1X85.981600Y31.778800
G1X85.975500Y31.792100
G1X85.944800Y31.833900
G1X85.918000Y31.874200
G1X85.908300Y31.883800
G1X85.899900Y31.895400
G1X85.862400Y31.929700
G1X85.827500Y31.964700
G1X85.815900Y31.972400
G1X85.805600Y31.981900
G1X85.762200Y32.008200
G1X85.721000Y32.035800
G1X85.708300Y32.041000
G1X84.983200Y32.482000
G1X84.972700Y32.490900
G1X84.929700Y32.514500
G1X84.886100Y32.541100
G1X84.872700Y32.545900
G1X84.860500Y32.552700
G1X84.811900Y32.568100
G1X84.765800Y32.584900
G1X84.752400Y32.586900
G1X84.738500Y32.591400
G1X84.687000Y32.597100
G1X84.639300Y32.604500
G1X84.625500Y32.603900
G1X84.611300Y32.605500
G1X84.561700Y32.601200
G1X84.511300Y32.599100
G1X84.497300Y32.595600
G1X84.483600Y32.594500
G1X84.436900Y32.580900
G1X84.386900Y32.568800
G1X84.373900Y32.562700
G1X84.360600Y32.558900
G1X84.317000Y32.536200
G1X84.270800Y32.514800
G1X84.259300Y32.506300
G1X84.247000Y32.500000
G1X84.208600Y32.469200
G1X84.167500Y32.439200
G1X84.157900Y32.428600
G1X84.147000Y32.420000
G1X84.114900Y32.381800
G1X84.081000Y32.344900
G1X84.073700Y32.332900
G1X84.064600Y32.322100
G1X84.040700Y32.278600
G1X84.014400Y32.235500
G1X84.009600Y32.222100
G1X84.002800Y32.209900
G1X83.987400Y32.161300
G1X83.970600Y32.115200
G1X83.968600Y32.101800
G1X83.964100Y32.087900
G1X83.958400Y32.036400
G1X83.951000Y31.988700
G1X83.951600Y31.974900
G1X83.950000Y31.960700
G1X83.954300Y31.911100
G1X83.956400Y31.860700
G1X83.959900Y31.846700
G1X83.961000Y31.833000
G1X83.974600Y31.786300
G1X83.986700Y31.736300
G1X83.992800Y31.723300
G1X83.996600Y31.710000
G1X84.019300Y31.666400
G1X84.040700Y31.620200
G1X84.049200Y31.608700
G1X84.055500Y31.596400
G1X84.086300Y31.558000
G1X84.116300Y31.516900
G1X84.126900Y31.507300
G1X84.653600Y30.848900
G1X84.673400Y30.819100
G1X84.693100Y30.799400
G1X84.710700Y30.777400
G1X84.738500Y30.754000
G1X84.763900Y30.728600
G1X84.787000Y30.713200
G1X84.808600Y30.695000
G1X84.840800Y30.677300
G1X84.870400Y30.657500
G1X84.895800Y30.647000
G1X84.920800Y30.633200
G1X84.955900Y30.622100
G1X84.988600Y30.608500
G1X85.015700Y30.603200
G1X85.042800Y30.594500
G1X85.079300Y30.590500
G1X85.114200Y30.583500
G1X85.142100Y30.583500
G1X85.170000Y30.580400
G1X85.206000Y30.583500
G1X85.242300Y30.583500
G1X85.269900Y30.589000
G1X85.297700Y30.591400
G1X85.332300Y30.601400
G1X85.367900Y30.608500
G1X85.393600Y30.619200
G1X85.420700Y30.627000
G1X85.453300Y30.643900
G1X85.486100Y30.657500
G1X85.508900Y30.672800
G1X85.534300Y30.685900
G1X85.562800Y30.708800
G1X85.592600Y30.728600

G0Z0.500
G0X80.891200Y44.024300
G1Z-0.100 f25
G1X80.891200Y43.851900 f200
G1X80.779300Y43.963900
G1X79.740600Y43.963900
G1X79.006000Y43.229300
G1X79.006000Y42.190600
G1X79.740600Y41.456000
G1X80.779300Y41.456000
G1X80.891300Y41.568000
G1X80.891300Y36.231800
G1X80.779300Y36.343900
G1X79.740600Y36.343900
G1X79.006000Y35.609300
G1X79.006000Y34.570600
G1X79.740600Y33.836000
G1X80.779300Y33.836000
G1X80.892600Y33.949300
G1X80.900200Y33.911100
G1X80.954000Y33.526100
G1X80.957900Y33.480500
G1X80.962700Y33.464200
G1X80.965100Y33.446500
G1X80.980600Y33.402200
G1X80.993500Y33.357500
G1X81.001700Y33.341800
G1X81.007300Y33.325600
G1X81.030600Y33.286100
G1X81.052400Y33.243900
G1X81.063500Y33.230100
G1X81.072200Y33.215200
G1X81.102800Y33.180900
G1X84.264400Y29.229000
G1X84.273900Y29.212900
G1X84.303800Y29.179700
G1X84.332400Y29.143900
G1X84.347000Y29.131700
G1X84.359500Y29.117700
G1X84.395500Y29.090900
G1X84.430300Y29.061500
G1X84.447100Y29.052300
G1X84.462000Y29.041100
G1X84.502100Y29.022000
G1X84.542500Y28.999700
G1X84.561000Y28.993900
G1X84.577600Y28.985900
G1X84.620400Y28.975000
G1X84.638500Y28.969300
G1X84.563100Y28.970000
G1X84.552300Y28.975900
G1X84.537300Y28.987200
G1X84.495800Y29.007000
G1X84.456200Y29.028900
G1X84.440400Y29.033900
G1X84.427700Y29.042400
G1X84.386100Y29.059600
G1X84.343000Y29.080300
G1X84.325400Y29.084800
G1X84.309500Y29.091400
G1X84.264400Y29.100400
G1X84.218900Y29.112000
G1X84.201200Y29.112900
G1X84.183900Y29.116400
G1X84.137400Y29.116400
G1X84.091000Y29.118900
G1X84.073500Y29.116400
G1X84.055800Y29.116400
G1X84.010900Y29.107400
G1X83.964300Y29.100800
G1X83.947300Y29.094800
G1X83.930200Y29.091400
G1X83.887800Y29.073800
G1X83.843500Y29.058200
G1X83.828100Y29.049000
G1X83.812000Y29.042400
G1X83.774200Y29.017100
G1X83.733400Y28.993000
G1X83.720000Y28.981000
G1X83.705500Y28.971300
G1X83.673200Y28.938900
G1X83.638100Y28.907500
G1X83.627400Y28.893100
G1X83.615000Y28.880800
G1X83.589700Y28.842900
G1X83.561300Y28.805000
G1X83.553400Y28.788500
G1X83.543900Y28.774300
G1X83.526700Y28.732700
G1X83.506000Y28.689600
G1X83.501500Y28.672000
G1X83.494900Y28.656100
G1X83.485900Y28.611000
G1X83.474300Y28.565500
G1X83.473400Y28.547800
G1X83.469900Y28.530500
G1X83.469900Y28.484000
G1X83.467400Y28.437600
G1X83.469900Y28.420100
G1X83.469900Y28.013900
G1X83.140200Y27.684200
G1X83.140100Y27.684100
G1X83.069000Y27.577700
G1X83.034900Y27.495000
G1X83.020100Y27.459500
G1X82.995100Y27.333900
G1X82.995100Y27.205800
G1X82.995100Y27.205700
G1X83.018700Y27.087300
G1X83.020100Y27.080200
G1X83.021500Y27.076800
G1X83.069100Y26.961900
G1X83.138800Y26.857700
G1X83.140200Y26.855500
G1X83.230700Y26.765000
G1X83.230800Y26.765000
G1X83.469900Y26.525900
G1X83.469900Y25.473900
G1X82.725900Y24.729900
G1X82.051800Y24.729900
G1X81.971500Y24.713900
G1X81.680600Y24.713900
G1X81.449900Y24.483100
G1X81.449900Y24.976800
G1X81.680600Y24.746000
G1X82.719300Y24.746000
G1X83.453900Y25.480600
G1X83.453900Y26.519300
G1X82.719300Y27.253900
G1X81.680600Y27.253900
G1X81.449900Y27.023100
G1X81.449900Y27.516800
G1X81.680600Y27.286000
G1X82.719300Y27.286000
G1X83.453900Y28.020600
G1X83.453900Y29.059300
G1X82.719300Y29.793900
G1X81.680600Y29.793900
G1X81.449900Y29.563100
G1X81.449900Y31.264000
G1X81.424900Y31.389600
G1X81.375900Y31.507800
G1X81.304800Y31.614300
G1X81.214300Y31.704800
G1X81.107800Y31.775900
G1X80.989600Y31.824900
G1X80.864000Y31.849900
G1X80.735900Y31.849900
G1X76.735900Y31.849900
G1X76.612500Y31.825300
G1X77.934900Y32.642900
G1X77.981500Y32.669900
G1X77.988200Y32.675900
G1X77.996200Y32.680800
G1X78.037900Y32.719700
G1X78.077500Y32.754500
G1X78.082800Y32.761500
G1X78.089900Y32.768100
G1X78.123100Y32.814200
G1X78.155300Y32.856200
G1X78.159200Y32.864400
G1X78.164700Y32.871900
G1X78.187200Y32.921400
G1X78.211700Y32.971100
G1X78.214100Y32.980300
G1X78.217800Y32.988400
G1X78.230300Y33.041600
G1X78.244500Y33.094800
G1X78.245000Y33.103900
G1X78.247200Y33.113000
G1X78.249300Y33.170500
G1X78.295000Y33.891800
G1X78.973900Y34.570600
G1X78.973900Y35.609300
G1X78.239300Y36.343900
G1X77.200600Y36.343900
G1X77.089100Y36.232300
G1X77.089100Y37.670600
G1X78.070800Y38.751700
G1X78.104800Y38.785600
G1X78.113400Y38.798600
G1X78.124200Y38.810400
G1X78.149700Y38.852900
G1X78.175900Y38.892100
G1X78.181700Y38.906200
G1X78.190100Y38.920100
G1X78.206600Y38.966400
G1X78.224900Y39.010300
G1X78.227900Y39.025800
G1X78.233300Y39.040600
G1X78.240400Y39.088200
G1X78.249900Y39.135900
G1X78.249900Y39.151900
G1X78.252200Y39.167200
G1X78.249900Y39.215500
G1X78.249900Y41.466700
G1X78.973900Y42.190600
G1X78.973900Y43.229300
G1X78.239300Y43.963900
G1X77.200600Y43.963900
G1X77.087300Y43.850500
G1X77.087300Y43.873400
G1X77.193900Y43.979900
G1X78.245900Y43.979900
G1X78.485000Y43.740800
G1X78.485000Y43.740700
G1X78.566700Y43.659100
G1X78.575500Y43.650200
G1X78.681900Y43.579100
G1X78.800200Y43.530100
G1X78.925700Y43.505100
G1X79.053800Y43.505100
G1X79.053900Y43.505100
G1X79.179500Y43.530100
G1X79.213000Y43.544100
G1X79.297700Y43.579000
G1X79.404100Y43.650100
G1X79.494700Y43.740700
G1X79.494700Y43.740800
G1X79.772100Y44.018200
G1X79.787300Y44.029600
G1X79.817200Y44.063300
G1X79.849200Y44.095200
G1X79.859700Y44.111000
G1X79.872400Y44.125200
G1X79.895400Y44.164600
G1X79.920300Y44.201700
G1X79.927500Y44.219100
G1X79.937200Y44.235600
G1X79.952100Y44.278500
G1X79.969300Y44.319900
G1X79.972900Y44.338400
G1X79.979300Y44.356500
G1X79.985500Y44.401600
G1X79.994300Y44.445500
G1X79.994300Y44.464600
G1X79.996900Y44.483300
G1X79.994300Y44.528200
G1X79.994300Y44.573600
G1X79.990600Y44.592100
G1X79.989500Y44.611200
G1X79.978000Y44.655200
G1X79.969300Y44.699200
G1X79.962100Y44.716400
G1X79.957300Y44.735100
G1X79.937300Y44.776300
G1X79.920300Y44.817400
G1X79.909800Y44.833000
G1X79.901500Y44.850300
G1X79.874200Y44.886300
G1X79.849200Y44.923900
G1X79.835700Y44.937300
G1X79.824300Y44.952500
G1X79.790600Y44.982400
G1X79.758700Y45.014400
G1X79.742900Y45.024900
G1X79.145200Y45.556900
G1X79.113400Y45.588800
G1X79.097600Y45.599300
G1X79.083400Y45.612000
G1X79.044000Y45.635000
G1X79.006900Y45.659900
G1X78.989500Y45.667100
G1X78.973000Y45.676800
G1X78.930000Y45.691700
G1X78.888700Y45.708900
G1X78.870300Y45.712500
G1X78.852100Y45.718900
G1X78.807000Y45.725100
G1X78.763100Y45.733900
G1X78.744000Y45.733900
G1X78.725300Y45.736500
G1X78.680300Y45.733900
G1X72.628500Y45.733900
G1X72.502900Y45.708900
G1X72.384700Y45.659900
G1X72.278200Y45.588800
G1X72.187700Y45.498300
G1X72.116600Y45.391800
G1X72.067600Y45.273600
G1X72.042600Y45.148000
G1X72.042600Y45.019900
G1X72.042600Y43.885900
G1X72.026600Y43.869800
G1X72.026600Y45.443100
G1X72.026700Y45.506400
G1X72.026600Y45.506900
G1X72.026600Y45.507400
G1X72.014300Y45.569300
G1X72.001900Y45.632000
G1X72.001700Y45.632400
G1X72.001600Y45.633000
G1X71.981900Y45.680400
G1X71.953200Y45.750000
G1X78.952600Y45.750000
G1X80.891200Y44.024300

G0Z0.500
G0X79.733900Y41.439900
G1Z-0.100 f25
G1X79.404200Y41.769600 f200
G1X79.403900Y41.769800
G1X79.403800Y41.769900
G1X79.302500Y41.837400
G1X79.297700Y41.840700
G1X79.297400Y41.840900
G1X79.191100Y41.884900
G1X79.179500Y41.889700
G1X79.179400Y41.889700
G1X79.179000Y41.889900
G1X79.109700Y41.903500
G1X79.053900Y41.914700
G1X78.925800Y41.914700
G1X78.925400Y41.914700
G1X78.826900Y41.895000
G1X78.800200Y41.889700
G1X78.800100Y41.889600
G1X78.799800Y41.889600
G1X78.723500Y41.857800
G1X78.682000Y41.840700
G1X78.681900Y41.840600
G1X78.681600Y41.840500
G1X78.639700Y41.812400
G1X78.575500Y41.769600
G1X78.485000Y41.679100
G1X78.484800Y41.678700
G1X78.411000Y41.605000
G1X78.410800Y41.604700
G1X78.410700Y41.604600
G1X78.339700Y41.498200
G1X78.294300Y41.388400
G1X78.290900Y41.380300
G1X78.290900Y41.380200
G1X78.290700Y41.379800
G1X78.276700Y41.308900
G1X78.265900Y41.254700
G1X78.265900Y41.254300
G1X78.265900Y41.126200
G1X78.265900Y39.280200
G1X78.263600Y39.264900
G1X78.265900Y39.217000
G1X78.265900Y39.168100
G1X78.269000Y39.152600
G1X78.272400Y39.083100
G1X78.245600Y39.018500
G1X78.237400Y39.005000
G1X78.221500Y38.960500
G1X78.202700Y38.915300
G1X78.199600Y38.899300
G1X78.176300Y38.834300
G1X78.127200Y38.785200
G1X78.114200Y38.775700
G1X78.081400Y38.739500
G1X78.047600Y38.705800
G1X78.038900Y38.692700
G1X77.284100Y37.861400
G1X77.250200Y37.827600
G1X77.241600Y37.814600
G1X77.230800Y37.802800
G1X77.205500Y37.760600
G1X77.179100Y37.721100
G1X77.173200Y37.706700
G1X77.164900Y37.693000
G1X77.148600Y37.647400
G1X77.130100Y37.602900
G1X77.127000Y37.587200
G1X77.121700Y37.572500
G1X77.114700Y37.525200
G1X77.105100Y37.477300
G1X77.105100Y37.461300
G1X77.102800Y37.445900
G1X77.105100Y37.397600
G1X77.105100Y36.945800
G1X77.130100Y36.820200
G1X77.179100Y36.702000
G1X77.250200Y36.595500
G1X77.340700Y36.505000
G1X77.447200Y36.433900
G1X77.565400Y36.384900
G1X77.691000Y36.359900
G1X77.819100Y36.359900
G1X78.245900Y36.359900
G1X78.485000Y36.120800
G1X78.485000Y36.120700
G1X78.566700Y36.039100
G1X78.575500Y36.030200
G1X78.681900Y35.959100
G1X78.800200Y35.910100
G1X78.925700Y35.885100
G1X79.053800Y35.885100
G1X79.053900Y35.885100
G1X79.179500Y35.910100
G1X79.213000Y35.924000
G1X79.297700Y35.959000
G1X79.404100Y36.030100
G1X79.494700Y36.120700
G1X79.733900Y36.359900
G1X80.289300Y36.359900
G1X80.414900Y36.384900
G1X80.533100Y36.433900
G1X80.639600Y36.505000
G1X80.730100Y36.595500
G1X80.801200Y36.702000
G1X80.850200Y36.820200
G1X80.875200Y36.945800
G1X80.875200Y37.073900
G1X80.875200Y40.854000
G1X80.850200Y40.979600
G1X80.801200Y41.097800
G1X80.730100Y41.204300
G1X80.639600Y41.294800
G1X80.533100Y41.365900
G1X80.414900Y41.414900
G1X80.289300Y41.439900
G1X80.161200Y41.439900
G1X79.733900Y41.439900

G0Z0.500
G0X78.666000Y31.865900
G1Z-0.100 f25
G1X78.710000Y31.865900 f200
G1X78.753200Y31.863200
G1X78.773300Y31.865900
G1X80.474000Y31.865900
G1X80.474100Y31.865900
G1X80.745800Y31.865900
G1X80.773700Y31.862800
G1X80.809700Y31.865900
G1X80.846000Y31.865900
G1X80.873700Y31.871400
G1X80.901400Y31.873800
G1X80.935900Y31.883800
G1X80.971600Y31.890900
G1X80.997300Y31.901600
G1X81.024400Y31.909400
G1X81.057000Y31.926300
G1X81.089800Y31.939900
G1X81.112600Y31.955200
G1X81.138000Y31.968300
G1X81.166500Y31.991100
G1X81.196300Y32.011000
G1X81.216000Y32.030700
G1X81.238000Y32.048300
G1X81.261400Y32.076100
G1X81.286800Y32.101500
G1X81.302200Y32.124600
G1X81.320400Y32.146200
G1X81.338100Y32.178400
G1X81.357900Y32.208000
G1X81.368400Y32.233400
G1X81.382200Y32.258400
G1X81.393300Y32.293400
G1X81.406900Y32.326200
G1X81.412300Y32.353300
G1X81.420900Y32.380400
G1X81.424900Y32.416800
G1X81.431900Y32.451800
G1X81.431900Y32.479700
G1X81.435000Y32.507600
G1X81.431900Y32.543600
G1X81.431900Y32.579900
G1X81.426400Y32.607600
G1X81.424000Y32.635300
G1X81.414000Y32.669800
G1X81.406900Y32.705500
G1X81.396200Y32.731200
G1X81.388400Y32.758300
G1X81.371500Y32.790900
G1X81.357900Y32.823700
G1X81.342600Y32.846500
G1X81.329500Y32.871900
G1X81.306700Y32.900400
G1X81.286800Y32.930200
G1X81.267100Y32.949900
G1X81.212100Y33.018600
G1X81.203200Y33.033800
G1X81.172300Y33.068300
G1X81.143100Y33.104900
G1X81.129300Y33.116400
G1X81.117900Y33.129300
G1X81.093100Y33.147900
G1X81.082100Y33.166700
G1X81.060900Y33.207600
G1X81.050500Y33.220600
G1X81.041500Y33.235900
G1X81.009400Y33.271900
G1X80.997200Y33.287100
G1X80.988500Y33.317300
G1X80.980100Y33.333400
G1X80.974300Y33.350100
G1X80.951000Y33.389500
G1X80.929600Y33.431000
G1X80.928200Y33.432700
G1X80.924600Y33.443200
G1X80.914500Y33.460400
G1X80.907300Y33.477800
G1X80.882900Y33.514300
G1X80.859900Y33.553600
G1X80.846900Y33.568200
G1X80.836200Y33.584300
G1X80.804800Y33.615600
G1X80.774900Y33.649400
G1X80.759200Y33.661200
G1X80.745700Y33.674800
G1X80.708900Y33.699300
G1X80.672800Y33.726700
G1X80.655000Y33.735300
G1X80.639200Y33.745900
G1X80.598700Y33.762700
G1X80.557700Y33.782600
G1X80.538600Y33.787600
G1X80.521000Y33.794900
G1X80.477700Y33.803500
G1X80.433800Y33.815000
G1X80.414100Y33.816100
G1X80.395400Y33.819900
G1X80.351400Y33.819900
G1X80.305900Y33.822600
G1X80.286400Y33.819900
G1X79.733900Y33.819900
G1X79.404200Y34.149600
G1X79.297700Y34.220700
G1X79.179500Y34.269700
G1X79.053900Y34.294700
G1X78.925800Y34.294700
G1X78.800200Y34.269700
G1X78.682000Y34.220700
G1X78.575500Y34.149600
G1X78.498700Y34.072700
G1X78.466100Y34.044100
G1X78.453500Y34.027500
G1X78.438900Y34.013000
G1X78.415100Y33.977300
G1X78.388400Y33.942400
G1X78.379100Y33.923400
G1X78.367800Y33.906500
G1X78.351500Y33.867000
G1X78.332000Y33.827400
G1X78.326700Y33.807200
G1X78.318800Y33.788300
G1X78.310300Y33.745400
G1X78.299200Y33.703700
G1X78.297900Y33.683300
G1X78.293800Y33.662700
G1X78.293800Y33.618500
G1X78.277500Y33.360500
G1X78.275200Y33.351100
G1X78.273300Y33.294600
G1X78.269900Y33.241600
G1X78.271100Y33.232500
G1X78.270800Y33.223100
G1X78.278500Y33.176100
G1X78.275600Y33.164100
G1X78.261500Y33.110900
G1X78.261000Y33.102000
G1X78.258900Y33.093400
G1X78.256900Y33.037500
G1X78.256200Y33.025700
G1X78.235000Y32.982700
G1X78.232500Y32.973200
G1X78.228400Y32.964300
G1X78.217800Y32.919100
G1X78.210900Y32.908700
G1X78.210000Y32.907400
G1X78.176900Y32.864200
G1X78.173000Y32.856100
G1X78.167800Y32.849000
G1X78.160900Y32.833900
G1X78.154100Y32.823700
G1X78.137700Y32.784100
G1X78.118200Y32.744300
G1X78.115700Y32.734700
G1X78.114700Y32.732600
G1X78.112600Y32.723300
G1X78.105100Y32.705500
G1X78.096600Y32.662700
G1X78.085400Y32.620500
G1X78.084200Y32.600100
G1X78.080100Y32.579900
G1X78.080100Y32.535900
G1X78.077400Y32.492700
G1X78.080100Y32.472600
G1X78.080100Y32.451800
G1X78.088600Y32.409200
G1X78.094400Y32.365800
G1X78.101200Y32.346200
G1X78.105100Y32.326200
G1X78.121700Y32.286300
G1X78.135900Y32.244700
G1X78.146400Y32.226800
G1X78.154100Y32.208000
G1X78.178100Y32.172100
G1X78.200200Y32.134000
G1X78.213800Y32.118700
G1X78.225200Y32.101500
G1X78.256400Y32.070300
G1X78.284900Y32.038000
G1X78.301000Y32.025700
G1X78.315700Y32.011000
G1X78.351700Y31.987000
G1X78.386600Y31.960300
G1X78.405600Y31.951100
G1X78.422200Y31.939900
G1X78.461800Y31.923500
G1X78.501600Y31.904000
G1X78.521600Y31.898700
G1X78.540400Y31.890900
G1X78.583200Y31.882400
G1X78.625400Y31.871200
G1X78.645800Y31.870000
G1X78.666000Y31.865900

G0Z0.500
G0X81.465900Y30.912600
G1Z-0.100 f25
G1X81.465900Y30.884500 f200
G1X81.462800Y30.856800
G1X81.465900Y30.820800
G1X81.465900Y30.523900
G1X81.465900Y30.395800
G1X81.490900Y30.270200
G1X81.539900Y30.152000
G1X81.611000Y30.045500
G1X81.701500Y29.955000
G1X81.808000Y29.883900
G1X81.926200Y29.834900
G1X82.051800Y29.809900
G1X82.390800Y29.809900
G1X82.418500Y29.806800
G1X82.454500Y29.809900
G1X82.490800Y29.809900
G1X82.518500Y29.815400
G1X82.546100Y29.817800
G1X82.580400Y29.827800
G1X82.616400Y29.834900
G1X82.642300Y29.845700
G1X82.669100Y29.853400
G1X82.701400Y29.870200
G1X82.734600Y29.883900
G1X82.757500Y29.899200
G1X82.782800Y29.912300
G1X82.811100Y29.935000
G1X82.841100Y29.955000
G1X82.861100Y29.975000
G1X82.882700Y29.992300
G1X82.905700Y30.019700
G1X82.931600Y30.045500
G1X82.947100Y30.068800
G1X82.965200Y30.090200
G1X82.982800Y30.122300
G1X83.002700Y30.152000
G1X83.013300Y30.177700
G1X83.026900Y30.202300
G1X83.037800Y30.236600
G1X83.051700Y30.270200
G1X83.057200Y30.298100
G1X83.065600Y30.324400
G1X83.069600Y30.360000
G1X83.076700Y30.395800
G1X83.076700Y30.423900
G1X83.079800Y30.451600
G1X83.076700Y30.487600
G1X83.076700Y30.523900
G1X83.071200Y30.551600
G1X83.068800Y30.579200
G1X83.058800Y30.613500
G1X83.051700Y30.649500
G1X83.040900Y30.675400
G1X83.033200Y30.702200
G1X83.016400Y30.734500
G1X83.002700Y30.767700
G1X82.987400Y30.790600
G1X82.974300Y30.815900
G1X82.951500Y30.844400
G1X82.931600Y30.874200
G1X82.911900Y30.893900
G1X82.640900Y31.232500
G1X82.620700Y31.262900
G1X82.600600Y31.283000
G1X82.583400Y31.304500
G1X82.556000Y31.327500
G1X82.530200Y31.353400
G1X82.506900Y31.368900
G1X82.485500Y31.387000
G1X82.453400Y31.404600
G1X82.423700Y31.424500
G1X82.398000Y31.435100
G1X82.373400Y31.448700
G1X82.339000Y31.459600
G1X82.305500Y31.473500
G1X82.277700Y31.479000
G1X82.251300Y31.487400
G1X82.215600Y31.491400
G1X82.179900Y31.498500
G1X82.151800Y31.498500
G1X82.124100Y31.501600
G1X82.088100Y31.498500
G1X82.051800Y31.498500
G1X82.024100Y31.493000
G1X81.996500Y31.490600
G1X81.962200Y31.480600
G1X81.926200Y31.473500
G1X81.900300Y31.462700
G1X81.873500Y31.455000
G1X81.841200Y31.438200
G1X81.808000Y31.424500
G1X81.785100Y31.409200
G1X81.759800Y31.396100
G1X81.731400Y31.373400
G1X81.701500Y31.353400
G1X81.681500Y31.333400
G1X81.659900Y31.316100
G1X81.636900Y31.288700
G1X81.611000Y31.262900
G1X81.595500Y31.239600
G1X81.577400Y31.218200
G1X81.559800Y31.186100
G1X81.539900Y31.156400
G1X81.529300Y31.130700
G1X81.515700Y31.106100
G1X81.504800Y31.071700
G1X81.490900Y31.038200
G1X81.485400Y31.010400
G1X81.477000Y30.984000
G1X81.473000Y30.948300
G1X81.465900Y30.912600

G0Z0.500
G0X50.424300Y38.930600
G1Z-0.100 f25
G1X50.385600Y38.904800 f200
G1X50.373200Y38.892400
G1X50.359700Y38.882300
G1X50.329100Y38.848300
G1X50.295100Y38.814300
G1X50.285400Y38.799600
G1X46.910500Y35.049900
G1X43.633100Y35.049900
G1X44.063900Y35.480600
G1X44.063900Y35.875700
G1X44.601800Y36.326200
G1X44.625700Y36.342100
G1X44.650600Y36.367100
G1X44.677700Y36.389700
G1X44.695800Y36.412300
G1X44.716200Y36.432600
G1X44.735600Y36.461700
G1X44.758000Y36.489500
G1X44.771600Y36.515600
G1X44.787300Y36.539100
G1X44.800500Y36.571200
G1X44.817200Y36.603000
G1X44.825300Y36.630900
G1X44.836300Y36.657300
G1X44.843200Y36.692200
G1X44.853100Y36.725900
G1X44.855600Y36.754400
G1X44.861300Y36.782900
G1X44.861300Y36.818500
G1X44.864400Y36.853500
G1X44.861300Y36.882000
G1X44.861300Y37.755400
G1X45.080600Y37.536000
G1X46.119300Y37.536000
G1X46.853900Y38.270600
G1X46.853900Y38.799500
G1X47.305400Y38.950000
G1X50.450300Y38.950000
G1X50.424300Y38.930600

G0Z0.500
G0X44.855300Y35.065900
G1Z-0.100 f25
G1X44.917200Y35.065900 f200
G1X44.982000Y35.065800
G1X44.982500Y35.065900
G1X46.566700Y35.065900
G1X46.584000Y35.063400
G1X46.631400Y35.065900
G1X46.677900Y35.065900
G1X46.694800Y35.069300
G1X46.712000Y35.070200
G1X46.757500Y35.081800
G1X46.803500Y35.090900
G1X46.819200Y35.097500
G1X46.836000Y35.101700
G1X46.879300Y35.122400
G1X46.921700Y35.139900
G1X46.935400Y35.149100
G1X46.951600Y35.156800
G1X46.989800Y35.185400
G1X47.028200Y35.211000
G1X47.040500Y35.223300
G1X47.054100Y35.233500
G1X47.084900Y35.267800
G1X47.118700Y35.301500
G1X47.128300Y35.316000
G1X49.397100Y37.836700
G1X49.430100Y37.869600
G1X49.439500Y37.883800
G1X49.451200Y37.896700
G1X49.475700Y37.937900
G1X49.501200Y37.976100
G1X49.507600Y37.991600
G1X49.516600Y38.006700
G1X49.532400Y38.051400
G1X49.550200Y38.094300
G1X49.553500Y38.111200
G1X49.559300Y38.127400
G1X49.566100Y38.174100
G1X49.575200Y38.219900
G1X49.575200Y38.236900
G1X49.577700Y38.254100
G1X49.575200Y38.301200
G1X49.575200Y38.348000
G1X49.571800Y38.365000
G1X49.570900Y38.382100
G1X49.559400Y38.427300
G1X49.550200Y38.473600
G1X49.543600Y38.489400
G1X49.539400Y38.506100
G1X49.518800Y38.549100
G1X49.501200Y38.591800
G1X49.491900Y38.605600
G1X49.484300Y38.621700
G1X49.455900Y38.659600
G1X49.430100Y38.698300
G1X49.417700Y38.710700
G1X49.407600Y38.724200
G1X49.373200Y38.755200
G1X49.339600Y38.788800
G1X49.325400Y38.798300
G1X49.312500Y38.809900
G1X49.271300Y38.834400
G1X49.233100Y38.859900
G1X49.217600Y38.866300
G1X49.202500Y38.875300
G1X49.157800Y38.891100
G1X49.114900Y38.908900
G1X49.098000Y38.912200
G1X49.081800Y38.918000
G1X49.035100Y38.924800
G1X48.989300Y38.933900
G1X48.972300Y38.933900
G1X48.955100Y38.936400
G1X48.908000Y38.933900
G1X47.455800Y38.933900
G1X47.330200Y38.908900
G1X47.212000Y38.859900
G1X47.105500Y38.788800
G1X47.015000Y38.698300
G1X46.943900Y38.591800
G1X46.894900Y38.473600
G1X46.869900Y38.348000
G1X46.869900Y38.263900
G1X46.125900Y37.519900
G1X45.562800Y37.519900
G1X45.527500Y37.523000
G1X45.499200Y37.519900
G1X45.470300Y37.519900
G1X45.435300Y37.512900
G1X45.400200Y37.509100
G1X45.372900Y37.500500
G1X45.344700Y37.494900
G1X45.312200Y37.481400
G1X45.278100Y37.470700
G1X45.252500Y37.456600
G1X45.226500Y37.445900
G1X45.197700Y37.426600
G1X45.165800Y37.409200
G1X45.143500Y37.390500
G1X45.120000Y37.374800
G1X45.095000Y37.349800
G1X45.067700Y37.326900
G1X45.049900Y37.304600
G1X45.029500Y37.284300
G1X45.009700Y37.254600
G1X44.987600Y37.227100
G1X44.974400Y37.201600
G1X44.958400Y37.177800
G1X44.944900Y37.145200
G1X44.928400Y37.113600
G1X44.920400Y37.085900
G1X44.909400Y37.059600
G1X44.902500Y37.024900
G1X44.892500Y36.990700
G1X44.890000Y36.962000
G1X44.884400Y36.934000
G1X44.884400Y36.898500
G1X44.882900Y36.881300
G1X44.877300Y36.853300
G1X44.877300Y36.817700
G1X44.874200Y36.782400
G1X44.877300Y36.754000
G1X44.877300Y36.708900
G1X44.872600Y36.685200
G1X44.865600Y36.661100
G1X44.844800Y36.621400
G1X44.828900Y36.597600
G1X44.815700Y36.565700
G1X44.799200Y36.534100
G1X44.791000Y36.505800
G1X44.773900Y36.464700
G1X44.760100Y36.444100
G1X44.744800Y36.425000
G1X44.711000Y36.396700
G1X44.686600Y36.380500
G1X44.661500Y36.355200
G1X44.634900Y36.333100
G1X44.617000Y36.310800
G1X44.570900Y36.264600
G1X44.506100Y36.221600
G1X44.505600Y36.221100
G1X44.505000Y36.220700
G1X44.446100Y36.161800
G1X44.415400Y36.131200
G1X44.415200Y36.130800
G1X44.414500Y36.130200
G1X44.377400Y36.074500
G1X44.344000Y36.024900
G1X44.343700Y36.024000
G1X44.343400Y36.023700
G1X44.323400Y35.975300
G1X44.294800Y35.906800
G1X44.294700Y35.906100
G1X44.294400Y35.905500
G1X44.283800Y35.851800
G1X44.269500Y35.781300
G1X44.269500Y35.780300
G1X44.269400Y35.779900
G1X44.269400Y35.718000
G1X44.269300Y35.653200
G1X44.269400Y35.652700
G1X44.269400Y35.651800
G1X44.283000Y35.583500
G1X44.294000Y35.527500
G1X44.294300Y35.526900
G1X44.294400Y35.526200
G1X44.313700Y35.479800
G1X44.342700Y35.409200
G1X44.343300Y35.408400
G1X44.343400Y35.408000
G1X44.369300Y35.369400
G1X44.413600Y35.302600
G1X44.414100Y35.302100
G1X44.414500Y35.301500
G1X44.473400Y35.242600
G1X44.504000Y35.211900
G1X44.504400Y35.211700
G1X44.505000Y35.211000
G1X44.560700Y35.173900
G1X44.610300Y35.140500
G1X44.611200Y35.140200
G1X44.611500Y35.139900
G1X44.659900Y35.119900
G1X44.728400Y35.091300
G1X44.729100Y35.091200
G1X44.729700Y35.090900
G1X44.783400Y35.080300
G1X44.853900Y35.066000
G1X44.854900Y35.066000
G1X44.855300Y35.065900

G0Z0.500
G0X95.984400Y38.267100
G1Z-0.100 f25
G1X95.985800Y38.274300 f200
G1X96.000400Y38.347500
G1X96.000400Y38.347800
G1X96.000400Y38.475900
G1X96.000400Y39.081200
G1X96.414300Y39.495100
G1X96.504800Y39.585600
G1X96.575900Y39.692100
G1X96.624900Y39.810300
G1X96.648600Y39.929700
G1X96.751100Y39.827100
G1X97.789800Y39.827100
G1X98.150000Y40.187400
G1X98.150000Y39.434700
G1X97.789800Y39.795000
G1X96.751100Y39.795000
G1X96.016500Y39.060400
G1X96.016500Y38.135700
G1X95.984400Y38.103500
G1X95.984400Y38.267100

G0Z0.500
G0X97.789800Y37.287100
G1Z-0.100 f25
G1X98.150000Y37.647400 f200
G1X98.150000Y36.894700
G1X97.789800Y37.255000
G1X96.974100Y37.255000
G1X97.006300Y37.287100
G1X97.789800Y37.287100

G0Z0.500
G0X97.789800Y42.335000
G1Z-0.100 f25
G1X96.751100Y42.335000 f200
G1X96.649900Y42.233700
G1X96.649900Y42.256500
G1X96.744400Y42.351000
G1X97.796500Y42.351000
G1X98.150000Y41.997400
G1X98.150000Y41.974700
G1X97.789800Y42.335000

G0Z0.500
G0X96.751100Y29.667100
G1Z-0.100 f25
G1X97.789800Y29.667100 f200
G1X98.150000Y30.027400
G1X98.150000Y30.004600
G1X97.796500Y29.651000
G1X97.314000Y29.651000
G1X97.312500Y29.651300
G1X97.248700Y29.651000
G1X97.187400Y29.651000
G1X97.186000Y29.650700
G1X97.184400Y29.650700
G1X97.115700Y29.636700
G1X97.061800Y29.626000
G1X97.060800Y29.625500
G1X97.059000Y29.625200
G1X96.992900Y29.597400
G1X96.943600Y29.577000
G1X96.942600Y29.576200
G1X96.940900Y29.575600
G1X96.885500Y29.538100
G1X96.837100Y29.505900
G1X96.836100Y29.504800
G1X96.834800Y29.504000
G1X96.790000Y29.458700
G1X96.746600Y29.415400
G1X96.745900Y29.414200
G1X96.744700Y29.413100
G1X96.708100Y29.357700
G1X96.675500Y29.308900
G1X96.675000Y29.307600
G1X96.674100Y29.306300
G1X96.650000Y29.247200
G1X96.626500Y29.190700
G1X96.626300Y29.189200
G1X96.615100Y29.161900
G1X96.610200Y29.150000
G1X96.578200Y29.150100
G1X96.582700Y29.156800
G1X96.615100Y29.205300
G1X96.615600Y29.206600
G1X96.616700Y29.208200
G1X96.643200Y29.273100
G1X96.664100Y29.323500
G1X96.664400Y29.325000
G1X96.665100Y29.326700
G1X96.677300Y29.389900
G1X96.689100Y29.449100
G1X96.689100Y29.450900
G1X96.689400Y29.452400
G1X96.689100Y29.511100
G1X96.689100Y29.577200
G1X96.688700Y29.578900
G1X96.688000Y29.730300
G1X96.751100Y29.667100

G0Z0.500
G0X96.751100Y32.207100
G1Z-0.100 f25
G1X97.789800Y32.207100 f200
G1X98.150000Y32.567400
G1X98.150000Y31.814700
G1X97.789800Y32.175000
G1X96.751100Y32.175000
G1X96.675900Y32.099700
G1X96.675000Y32.283300
G1X96.751100Y32.207100

G0Z0.500
G0X96.751100Y34.747100
G1Z-0.100 f25
G1X97.789800Y34.747100 f200
G1X98.150000Y35.107400
G1X98.150000Y34.354700
G1X97.789800Y34.715000
G1X96.751100Y34.715000
G1X96.663000Y34.626800
G1X96.661900Y34.836300
G1X96.751100Y34.747100

G0Z0.500
G0X94.291900Y39.827100
G1Z-0.100 f25
G1X94.908000Y39.827100 f200
G1X94.891800Y39.811000
G1X94.308100Y39.811000
G1X94.291900Y39.827100

G0Z0.500
G0X3.333900Y34.636000
G1Z-0.100 f25
G1X3.333900Y34.830100 f200
G1X3.350000Y34.846300
G1X3.350000Y34.619800
G1X3.333900Y34.636000

G0Z0.500
G0X3.333900Y37.176000
G1Z-0.100 f25
G1X3.333900Y37.370100 f200
G1X3.350000Y37.386300
G1X3.350000Y37.159800
G1X3.333900Y37.176000

G0Z0.500
G0X3.333900Y39.716000
G1Z-0.100 f25
G1X3.333900Y39.910100 f200
G1X3.350000Y39.926300
G1X3.350000Y39.699800
G1X3.333900Y39.716000

G0Z0.500
G0X4.665900Y39.917400
G1Z-0.100 f25
G1X4.665900Y39.708700 f200
G1X4.649900Y39.692600
G1X4.649900Y39.933500
G1X4.665900Y39.917400

G0Z0.500
G0X4.665900Y37.377400
G1Z-0.100 f25
G1X4.665900Y37.168700 f200
G1X4.649900Y37.152600
G1X4.649900Y37.393500
G1X4.665900Y37.377400

G0Z0.500
G0X4.665900Y34.837400
G1Z-0.100 f25
G1X4.665900Y34.628700 f200
G1X4.649900Y34.612600
G1X4.649900Y34.853500
G1X4.665900Y34.837400

G0Z0.500
G0X4.665900Y32.297400
G1Z-0.100 f25
G1X4.665900Y32.088700 f200
G1X4.649900Y32.072600
G1X4.649900Y32.313500
G1X4.665900Y32.297400

G0Z0.500
G0X59.472100Y2.782400
G1Z-0.100 f25
G1X59.561700Y2.958300 f200
G1X59.622700Y3.146000
G1X59.653600Y3.340900
G1X59.653600Y3.538400
G1X59.624500Y3.721800
G1X59.762800Y3.583400
G1X59.922500Y3.467400
G1X60.098400Y3.377800
G1X60.286100Y3.316800
G1X60.481000Y3.285900
G1X60.678500Y3.285900
G1X60.873400Y3.316800
G1X61.061100Y3.377800
G1X61.237000Y3.467400
G1X61.396700Y3.583400
G1X61.536200Y3.722900
G1X61.652200Y3.882600
G1X61.741800Y4.058500
G1X61.761500Y4.119300
G1X62.226900Y3.653900
G1X60.971900Y2.649900
G1X59.375700Y2.649900
G1X59.472100Y2.782400

G0Z0.500
G0X56.699100Y2.772600
G1Z-0.100 f25
G1X56.788700Y2.948500 f200
G1X56.849700Y3.136200
G1X56.880600Y3.331100
G1X56.880600Y3.528600
G1X56.849700Y3.723500
G1X56.788700Y3.911200
G1X56.699100Y4.087100
G1X56.583100Y4.246800
G1X56.443600Y4.386300
G1X56.283900Y4.502300
G1X56.108000Y4.591900
G1X55.920300Y4.652900
G1X55.725400Y4.683800
G1X55.527900Y4.683800
G1X55.333000Y4.652900
G1X55.145300Y4.591900
G1X54.969400Y4.502300
G1X54.809700Y4.386300
G1X54.670200Y4.246800
G1X54.627900Y4.188500
G1X54.645300Y4.242000
G1X54.676200Y4.436900
G1X54.676200Y4.634400
G1X54.645300Y4.829300
G1X54.584300Y5.017000
G1X54.494700Y5.192900
G1X54.378700Y5.352600
G1X54.239200Y5.492100
G1X54.197100Y5.522600
G1X55.486100Y5.522600
G1X57.153400Y3.586900
G1X57.145700Y3.538400
G1X57.145700Y3.340900
G1X57.176600Y3.146000
G1X57.237600Y2.958300
G1X57.327200Y2.782400
G1X57.423600Y2.649900
G1X56.609900Y2.649900
G1X56.699100Y2.772600

G0Z0.500
G0X59.165400Y21.089400
G1Z-0.100 f25
G1X59.512100Y21.211000 f200
G1X59.795700Y20.927300
G1X60.815400Y20.927300
G1X59.175000Y19.250200
G1X59.165400Y21.089400

G0Z0.500
G0X63.208200Y20.927300
G1Z-0.100 f25
G1X61.985700Y19.704800 f200
G1X61.985600Y19.704800
G1X61.895100Y19.614300
G1X61.824000Y19.507800
G1X61.775000Y19.389600
G1X61.750000Y19.264000
G1X61.750000Y13.882000
G1X61.732700Y13.935600
G1X61.643100Y14.111500
G1X61.527100Y14.271200
G1X61.387600Y14.410700
G1X61.227900Y14.526700
G1X61.052000Y14.616300
G1X60.864300Y14.677300
G1X60.669400Y14.708200
G1X60.471900Y14.708200
G1X60.277000Y14.677300
G1X60.089300Y14.616300
G1X60.012100Y14.576900
G1X60.013800Y18.248700
G1X62.028400Y20.308400
G1X62.038000Y20.315500
G1X62.072600Y20.353600
G1X62.109400Y20.391200
G1X62.116000Y20.401400
G1X62.593900Y20.927300
G1X63.208200Y20.927300

G0Z0.500
G0X60.894000Y14.694800
G1Z-0.100 f25
G1X60.894300Y14.694800 f200
G1X60.894300Y14.694700
G1X60.899300Y14.693800
G1X61.019600Y14.669700
G1X61.147700Y14.669700
G1X61.147800Y14.669700
G1X61.148000Y14.669700
G1X61.177300Y14.675600
G1X61.273300Y14.694600
G1X61.391600Y14.743500
G1X61.498000Y14.814600
G1X61.498100Y14.814700
G1X61.498300Y14.814800
G1X61.543200Y14.859800
G1X61.588600Y14.905100
G1X61.588700Y14.905300
G1X61.588800Y14.905300
G1X61.598800Y14.920400
G1X61.659800Y15.011500
G1X61.708800Y15.129700
G1X61.708800Y15.130000
G1X61.708900Y15.130000
G1X61.709800Y15.135000
G1X61.733900Y15.255300
G1X61.733900Y15.383400
G1X61.733900Y15.383500
G1X61.733900Y18.329900
G1X61.734600Y18.333600
G1X61.733900Y18.393300
G1X61.733900Y18.454500
G1X61.733100Y18.458300
G1X61.733100Y18.461700
G1X61.720800Y18.519900
G1X61.708900Y18.580100
G1X61.707500Y18.583200
G1X61.706800Y18.587000
G1X61.681400Y18.646200
G1X61.659900Y18.698300
G1X61.658000Y18.701000
G1X61.656500Y18.704700
G1X61.620100Y18.757800
G1X61.588800Y18.804800
G1X61.586300Y18.807200
G1X61.584200Y18.810400
G1X61.540600Y18.852900
G1X61.498300Y18.895300
G1X61.495100Y18.897300
G1X61.492600Y18.899900
G1X61.441500Y18.933100
G1X61.391800Y18.966400
G1X61.388500Y18.967700
G1X61.385400Y18.969800
G1X61.328200Y18.992700
G1X61.273600Y19.015400
G1X61.270000Y19.016100
G1X61.266600Y19.017500
G1X61.204900Y19.029000
G1X61.148000Y19.040400
G1X61.144500Y19.040400
G1X61.140800Y19.041100
G1X61.081100Y19.040400
G1X61.019900Y19.040400
G1X61.016100Y19.039600
G1X61.012700Y19.039600
G1X60.954500Y19.027300
G1X60.894300Y19.015400
G1X60.891200Y19.014000
G1X60.887400Y19.013300
G1X60.828200Y18.987900
G1X60.776100Y18.966400
G1X60.773400Y18.964500
G1X60.769700Y18.963000
G1X60.716600Y18.926600
G1X60.669600Y18.895300
G1X60.667200Y18.892800
G1X60.664000Y18.890700
G1X60.620000Y18.845600
G1X60.579100Y18.804800
G1X60.577200Y18.801800
G1X60.218700Y18.435200
G1X60.175000Y18.391600
G1X60.173000Y18.388400
G1X60.170200Y18.385700
G1X60.137800Y18.335800
G1X60.103800Y18.285200
G1X60.102300Y18.281500
G1X60.100300Y18.278500
G1X60.078100Y18.222900
G1X60.054800Y18.167000
G1X60.054100Y18.163300
G1X60.052600Y18.159700
G1X60.041300Y18.099000
G1X60.029700Y18.041400
G1X60.029700Y18.037600
G1X60.029000Y18.033900
G1X60.029700Y17.976500
G1X60.028600Y15.438600
G1X60.028500Y15.438200
G1X60.028500Y15.310100
G1X60.053200Y15.185900
G1X60.053400Y15.184800
G1X60.053500Y15.184800
G1X60.053500Y15.184500
G1X60.076400Y15.129400
G1X60.102300Y15.066500
G1X60.173400Y14.960000
G1X60.173500Y14.960000
G1X60.173600Y14.959800
G1X60.264100Y14.869300
G1X60.336100Y14.821300
G1X60.370300Y14.798300
G1X60.370600Y14.798300
G1X60.370600Y14.798200
G1X60.488800Y14.749200
G1X60.588700Y14.729300
G1X60.614100Y14.724200
G1X60.614300Y14.724200
G1X60.614400Y14.724200
G1X60.823100Y14.724200
G1X60.894000Y14.694800

G0Z0.500
G0X60.089300Y12.292200
G1Z-0.100 f25
G1X60.152600Y12.271700 f200
G1X60.011000Y12.130100
G1X60.011100Y12.332100
G1X60.089300Y12.292200

G0Z0.500
G0X59.750000Y6.464000
G1Z-0.100 f25
G1X59.750000Y6.335900 f200
G1X59.775000Y6.210300
G1X59.824000Y6.092100
G1X59.895100Y5.985600
G1X60.159200Y5.721600
G1X60.098400Y5.701900
G1X59.922500Y5.612300
G1X59.762800Y5.496300
G1X59.716400Y5.449900
G1X59.075600Y5.449900
G1X56.507800Y8.105000
G1X56.504800Y8.109500
G1X56.463800Y8.150400
G1X56.422700Y8.193000
G1X56.418100Y8.196100
G1X56.414300Y8.200000
G1X56.366200Y8.232000
G1X56.317400Y8.265900
G1X56.312200Y8.268100
G1X56.307800Y8.271100
G1X56.255800Y8.292600
G1X56.200000Y8.316900
G1X56.194400Y8.318100
G1X56.189600Y8.320100
G1X56.132600Y8.331400
G1X56.074900Y8.343900
G1X56.069500Y8.343900
G1X56.064000Y8.345100
G1X56.005000Y8.345100
G1X55.946800Y8.346100
G1X55.941400Y8.345100
G1X52.376100Y8.345100
G1X52.452000Y8.494000
G1X52.513000Y8.681700
G1X52.543900Y8.876600
G1X52.543900Y9.074100
G1X52.513000Y9.269000
G1X52.452000Y9.456700
G1X52.362400Y9.632600
G1X52.246400Y9.792300
G1X52.108400Y9.930300
G1X53.561200Y8.719600
G1X53.585600Y8.695100
G1X53.610500Y8.678500
G1X53.633000Y8.659700
G1X53.663000Y8.643400
G1X53.692000Y8.624000
G1X53.719800Y8.612500
G1X53.745500Y8.598500
G1X53.778200Y8.588400
G1X53.810300Y8.575000
G1X53.839600Y8.569200
G1X53.867700Y8.560400
G1X53.901700Y8.556800
G1X53.935800Y8.550000
G1X53.965800Y8.550000
G1X53.995000Y8.546900
G1X54.029100Y8.550000
G1X59.295300Y8.549600
G1X59.408500Y8.549600
G1X59.423700Y8.549600
G1X59.487100Y8.562300
G1X59.549000Y8.574500
G1X59.667300Y8.623400
G1X59.667300Y8.623500
G1X59.667500Y8.623500
G1X59.704700Y8.648400
G1X59.750000Y8.678800
G1X59.750000Y6.464000

G0Z0.500
G0X59.733900Y6.335000
G1Z-0.100 f25
G1X59.733900Y6.393900 f200
G1X59.734900Y6.452200
G1X59.733900Y6.457700
G1X59.733900Y6.597600
G1X59.733900Y7.947700
G1X59.708900Y8.073300
G1X59.694100Y8.108800
G1X59.660000Y8.191500
G1X59.589700Y8.296500
G1X59.588800Y8.298000
G1X59.498300Y8.388500
G1X59.496100Y8.389900
G1X59.391900Y8.459600
G1X59.277000Y8.507100
G1X59.273600Y8.508600
G1X59.266400Y8.510000
G1X59.148100Y8.533600
G1X59.148000Y8.533600
G1X59.130800Y8.533600
G1X57.653400Y8.533700
G1X57.595000Y8.534700
G1X57.589600Y8.533700
G1X57.584100Y8.533700
G1X57.527900Y8.522500
G1X57.469000Y8.511800
G1X57.463800Y8.509700
G1X57.458600Y8.508700
G1X57.405000Y8.486500
G1X57.349900Y8.464800
G1X57.345500Y8.461900
G1X57.340300Y8.459800
G1X57.292000Y8.427400
G1X57.242300Y8.395500
G1X57.238300Y8.391500
G1X57.233800Y8.388600
G1X57.193200Y8.347900
G1X57.150300Y8.306500
G1X57.147200Y8.301900
G1X57.143300Y8.298100
G1X57.110400Y8.248800
G1X57.077400Y8.201200
G1X57.075300Y8.196200
G1X57.072200Y8.191700
G1X57.050200Y8.138500
G1X57.026400Y8.083800
G1X57.025200Y8.078200
G1X57.023200Y8.073400
G1X57.011800Y8.015800
G1X56.999400Y7.958700
G1X56.999400Y7.953400
G1X56.998200Y7.947900
G1X56.998200Y7.888800
G1X56.997200Y7.830600
G1X56.998200Y7.825200
G1X56.998200Y7.819700
G1X57.009400Y7.763500
G1X57.020100Y7.704600
G1X57.022200Y7.699400
G1X57.023200Y7.694200
G1X57.045400Y7.640600
G1X57.067100Y7.585500
G1X57.070000Y7.581100
G1X57.072100Y7.575900
G1X57.104500Y7.527600
G1X57.136400Y7.477900
G1X57.140400Y7.473900
G1X57.143300Y7.469400
G1X57.183500Y7.429300
G1X58.576100Y5.989200
G1X58.579100Y5.984700
G1X58.620100Y5.943800
G1X58.661200Y5.901200
G1X58.665800Y5.898100
G1X58.669600Y5.894200
G1X58.717500Y5.862300
G1X58.766500Y5.828300
G1X58.771700Y5.826100
G1X58.776100Y5.823100
G1X58.827900Y5.801700
G1X58.883900Y5.777300
G1X58.889500Y5.776100
G1X58.894300Y5.774100
G1X58.951200Y5.762800
G1X59.009000Y5.750300
G1X59.014400Y5.750300
G1X59.019900Y5.749100
G1X59.078800Y5.749100
G1X59.137100Y5.748100
G1X59.142600Y5.749100
G1X59.148000Y5.749100
G1X59.204600Y5.760400
G1X59.263100Y5.771000
G1X59.268200Y5.773100
G1X59.273600Y5.774100
G1X59.325900Y5.795800
G1X59.382200Y5.818000
G1X59.387000Y5.821200
G1X59.391800Y5.823100
G1X59.437700Y5.853800
G1X59.489800Y5.887300
G1X59.493800Y5.891300
G1X59.498300Y5.894200
G1X59.538800Y5.934800
G1X59.581800Y5.976300
G1X59.584900Y5.980900
G1X59.588800Y5.984700
G1X59.620700Y6.032600
G1X59.654700Y6.081600
G1X59.656900Y6.086800
G1X59.659900Y6.091200
G1X59.681300Y6.143000
G1X59.705700Y6.199000
G1X59.706900Y6.204600
G1X59.708900Y6.209400
G1X59.720200Y6.266300
G1X59.732700Y6.324100
G1X59.732700Y6.329500
G1X59.733900Y6.335000

G0Z0.500
G0X51.947200Y10.047800
G1Z-0.100 f25
G1X51.771300Y10.137400 f200
G1X51.583600Y10.198400
G1X51.388700Y10.229300
G1X51.191200Y10.229300
G1X50.996300Y10.198400
G1X50.914100Y10.171600
G1X50.649900Y10.347800
G1X50.649900Y11.322800
G1X50.660600Y11.254900
G1X50.721600Y11.067200
G1X50.811200Y10.891300
G1X50.927200Y10.731600
G1X51.066700Y10.592100
G1X51.226400Y10.476100
G1X51.402300Y10.386500
G1X51.590000Y10.325500
G1X51.644400Y10.316900
G1X52.104500Y9.933500
G1X51.947200Y10.047800

G0Z0.500
G0X53.045700Y11.067200
G1Z-0.100 f25
G1X53.086900Y11.193900 f200
G1X53.185600Y11.095100
G1X53.292100Y11.024000
G1X53.410300Y10.975000
G1X53.535900Y10.950000
G1X53.664000Y10.950000
G1X55.943800Y10.950000
G1X55.951200Y10.948700
G1X56.006400Y10.950000
G1X56.064000Y10.950000
G1X56.071700Y10.951600
G1X58.572700Y11.010500
G1X58.632100Y11.010700
G1X58.638200Y11.012000
G1X58.644000Y11.012100
G1X58.700400Y11.024700
G1X58.710600Y11.026800
G1X58.710100Y9.849500
G1X54.235300Y9.849800
G1X52.964800Y10.908500
G1X53.045700Y11.067200

G0Z0.500
G0X16.791600Y8.334600
G1Z-0.100 f25
G1X16.785000Y8.333800 f200
G1X16.790100Y8.340800
G1X16.879700Y8.516700
G1X16.940700Y8.704400
G1X16.971600Y8.899300
G1X16.971600Y9.096800
G1X16.940700Y9.291700
G1X16.879700Y9.479400
G1X16.790100Y9.655300
G1X16.780400Y9.668500
G1X17.248000Y9.668500
G1X17.220800Y9.631200
G1X17.131200Y9.455300
G1X17.070200Y9.267600
G1X17.039300Y9.072700
G1X17.039300Y8.875200
G1X17.070200Y8.680300
G1X17.131200Y8.492600
G1X17.213300Y8.331500
G1X16.827900Y8.331500
G1X16.791600Y8.334600

G0Z0.500
G0X17.735400Y6.911900
G1Z-0.100 f25
G1X17.674400Y6.724200 f200
G1X17.643500Y6.529300
G1X17.643500Y6.331800
G1X17.674400Y6.136900
G1X17.735400Y5.949200
G1X17.825000Y5.773300
G1X17.941000Y5.613600
G1X18.080500Y5.474100
G1X18.240200Y5.358100
G1X18.416100Y5.268500
G1X18.603800Y5.207500
G1X18.798700Y5.176600
G1X18.996200Y5.176600
G1X19.191100Y5.207500
G1X19.378800Y5.268500
G1X19.426900Y5.293100
G1X19.353100Y5.191500
G1X19.263500Y5.015600
G1X19.202500Y4.827900
G1X19.171600Y4.633000
G1X19.171600Y4.435500
G1X19.202500Y4.240600
G1X19.263500Y4.052900
G1X19.353100Y3.877000
G1X19.469100Y3.717300
G1X19.608600Y3.577800
G1X19.768300Y3.461800
G1X19.944200Y3.372200
G1X20.131900Y3.311200
G1X20.326800Y3.280300
G1X20.524300Y3.280300
G1X20.719200Y3.311200
G1X20.906900Y3.372200
G1X21.082800Y3.461800
G1X21.242500Y3.577800
G1X21.382000Y3.717300
G1X21.424400Y3.775700
G1X21.406900Y3.722100
G1X21.376000Y3.527200
G1X21.376000Y3.329700
G1X21.406900Y3.134800
G1X21.467900Y2.947100
G1X21.557500Y2.771200
G1X21.645700Y2.649900
G1X12.747800Y2.649900
G1X12.553200Y2.941800
G1X12.560900Y2.956900
G1X12.621900Y3.144600
G1X12.652800Y3.339500
G1X12.652800Y3.537000
G1X12.623700Y3.720400
G1X12.762000Y3.582000
G1X12.921700Y3.466000
G1X13.097600Y3.376400
G1X13.285300Y3.315400
G1X13.480200Y3.284500
G1X13.677700Y3.284500
G1X13.872600Y3.315400
G1X14.060300Y3.376400
G1X14.236200Y3.466000
G1X14.395900Y3.582000
G1X14.535400Y3.721500
G1X14.651400Y3.881200
G1X14.741000Y4.057100
G1X14.802000Y4.244800
G1X14.832900Y4.439700
G1X14.832900Y4.637200
G1X14.802000Y4.832100
G1X14.741000Y5.019800
G1X14.651400Y5.195700
G1X14.571600Y5.305500
G1X14.619700Y5.280900
G1X14.807400Y5.219900
G1X15.002300Y5.189000
G1X15.199800Y5.189000
G1X15.394700Y5.219900
G1X15.582400Y5.280900
G1X15.758300Y5.370500
G1X15.918000Y5.486500
G1X16.057500Y5.626000
G1X16.173500Y5.785700
G1X16.263100Y5.961600
G1X16.324100Y6.149300
G1X16.355000Y6.344200
G1X16.355000Y6.541700
G1X16.332700Y6.682100
G1X16.967100Y7.031600
G1X17.796400Y7.031600
G1X17.735400Y6.911900

G0Z0.500
G0X18.993100Y2.665900
G1Z-0.100 f25
G1X19.118600Y2.690900 f200
G1X19.236900Y2.740000
G1X19.343300Y2.811100
G1X19.432300Y2.900300
G1X19.433600Y2.901500
G1X19.433600Y2.901600
G1X19.433800Y2.901700
G1X19.504900Y3.008200
G1X19.544900Y3.105200
G1X19.553700Y3.126200
G1X19.553700Y3.126400
G1X19.553800Y3.126500
G1X19.565900Y3.187900
G1X19.578700Y3.251800
G1X19.578700Y3.379900
G1X19.578700Y3.380200
G1X19.553700Y3.505700
G1X19.504600Y3.624000
G1X19.433500Y3.730400
G1X19.348700Y3.815000
G1X19.155500Y4.281400
G1X19.155500Y4.578700
G1X19.130500Y4.704300
G1X19.081500Y4.822500
G1X19.010400Y4.929000
G1X18.919900Y5.019500
G1X18.917800Y5.020900
G1X18.813500Y5.090600
G1X18.178000Y5.353800
G1X17.820700Y5.711200
G1X17.621600Y6.191800
G1X17.621600Y6.192000
G1X17.573900Y6.307000
G1X17.572600Y6.310200
G1X17.501500Y6.416700
G1X17.411000Y6.507200
G1X17.304600Y6.578300
G1X17.186300Y6.627300
G1X17.060700Y6.652300
G1X16.932600Y6.652300
G1X16.925500Y6.650900
G1X16.807000Y6.627300
G1X16.692300Y6.579700
G1X16.688800Y6.578300
G1X16.582300Y6.507200
G1X16.491800Y6.416700
G1X16.420700Y6.310300
G1X16.371700Y6.192000
G1X16.371700Y6.191800
G1X16.177700Y5.723500
G1X15.820400Y5.366200
G1X15.190900Y5.105500
G1X15.084500Y5.034400
G1X14.994000Y4.943900
G1X14.922900Y4.837400
G1X14.873900Y4.719200
G1X14.848900Y4.593600
G1X14.848900Y4.465500
G1X14.848900Y4.285700
G1X14.655700Y3.819200
G1X14.566700Y3.730400
G1X14.495600Y3.624000
G1X14.446500Y3.505700
G1X14.421500Y3.380200
G1X14.421500Y3.252000
G1X14.421500Y3.251800
G1X14.433600Y3.191400
G1X14.446400Y3.126500
G1X14.446500Y3.126400
G1X14.446500Y3.126200
G1X14.473800Y3.060400
G1X14.495400Y3.008200
G1X14.495500Y3.008200
G1X14.495500Y3.008000
G1X14.518300Y2.974000
G1X14.566400Y2.901700
G1X14.656900Y2.811100
G1X14.763300Y2.740000
G1X14.881600Y2.690900
G1X15.007100Y2.665900
G1X15.135300Y2.665900
G1X18.992800Y2.665900
G1X18.993100Y2.665900

G0Z0.500
G0X27.851200Y6.541700
G1Z-0.100 f25
G1X27.851200Y6.344200 f200
G1X27.882100Y6.149300
G1X27.943100Y5.961600
G1X28.032700Y5.785700
G1X28.112500Y5.676000
G1X28.064400Y5.700500
G1X27.876700Y5.761500
G1X27.681800Y5.792400
G1X27.484300Y5.792400
G1X27.289400Y5.761500
G1X27.101700Y5.700500
G1X26.925800Y5.610900
G1X26.766100Y5.494900
G1X26.626600Y5.355400
G1X26.510600Y5.195700
G1X26.421000Y5.019800
G1X26.360000Y4.832100
G1X26.329100Y4.637200
G1X26.329100Y4.439700
G1X26.358200Y4.256300
G1X26.219900Y4.394700
G1X26.060200Y4.510700
G1X25.884300Y4.600300
G1X25.696600Y4.661300
G1X25.501700Y4.692200
G1X25.304200Y4.692200
G1X25.109300Y4.661300
G1X24.921600Y4.600300
G1X24.745700Y4.510700
G1X24.586000Y4.394700
G1X24.446500Y4.255200
G1X24.330500Y4.095500
G1X24.240900Y3.919600
G1X24.179900Y3.731900
G1X24.149000Y3.537000
G1X24.149000Y3.339500
G1X24.179900Y3.144600
G1X24.240900Y2.956900
G1X24.330500Y2.781000
G1X24.425800Y2.649900
G1X23.614200Y2.649900
G1X23.702400Y2.771200
G1X23.792000Y2.947100
G1X23.853000Y3.134800
G1X23.883900Y3.329700
G1X23.883900Y3.527200
G1X23.853000Y3.722100
G1X23.792000Y3.909800
G1X23.702400Y4.085700
G1X23.586400Y4.245400
G1X23.446900Y4.384900
G1X23.287200Y4.500900
G1X23.111300Y4.590500
G1X22.923600Y4.651500
G1X22.728700Y4.682400
G1X22.531200Y4.682400
G1X22.336300Y4.651500
G1X22.148600Y4.590500
G1X21.972700Y4.500900
G1X21.813000Y4.384900
G1X21.673500Y4.245400
G1X21.631100Y4.187000
G1X21.648600Y4.240600
G1X21.679500Y4.435500
G1X21.679500Y4.633000
G1X21.648600Y4.827900
G1X21.587600Y5.015600
G1X21.498000Y5.191500
G1X21.382000Y5.351200
G1X21.242500Y5.490700
G1X21.082800Y5.606700
G1X20.906900Y5.696300
G1X20.719200Y5.757300
G1X20.524300Y5.788200
G1X20.326800Y5.788200
G1X20.131900Y5.757300
G1X19.944200Y5.696300
G1X19.896100Y5.671700
G1X19.969900Y5.773300
G1X20.059500Y5.949200
G1X20.120500Y6.136900
G1X20.151400Y6.331800
G1X20.151400Y6.529300
G1X20.120500Y6.724200
G1X20.059500Y6.911900
G1X19.998500Y7.031600
G1X27.386800Y7.031600
G1X27.872400Y6.675000
G1X27.851200Y6.541700

G0Z0.500
G0X25.150200Y4.708200
G1Z-0.100 f25
G1X25.665500Y4.708200 f200
G1X25.695400Y4.702300
G1X25.771500Y4.687100
G1X25.899600Y4.687100
G1X25.899900Y4.687100
G1X25.973100Y4.701700
G1X26.025200Y4.712000
G1X26.025400Y4.712100
G1X26.025500Y4.712100
G1X26.143800Y4.761100
G1X26.249300Y4.831700
G1X26.249900Y4.832100
G1X26.250200Y4.832300
G1X26.339100Y4.921200
G1X26.340500Y4.922600
G1X26.340700Y4.922800
G1X26.409900Y5.026500
G1X26.411600Y5.029000
G1X26.411800Y5.029300
G1X26.442600Y5.103700
G1X26.460700Y5.147300
G1X26.460700Y5.147500
G1X26.506400Y5.257900
G1X26.863600Y5.615100
G1X27.285100Y5.789500
G1X27.391500Y5.860600
G1X27.482100Y5.951200
G1X27.553200Y6.057600
G1X27.602200Y6.175900
G1X27.627200Y6.301400
G1X27.627200Y6.429500
G1X27.627200Y6.429600
G1X27.602200Y6.555200
G1X27.588300Y6.588700
G1X27.553300Y6.673400
G1X27.482200Y6.779800
G1X27.391600Y6.870400
G1X27.285200Y6.941500
G1X27.166900Y6.990500
G1X27.041400Y7.015500
G1X26.913300Y7.015500
G1X20.957100Y7.015500
G1X20.957000Y7.015500
G1X20.838700Y6.991900
G1X20.831500Y6.990500
G1X20.828100Y6.989100
G1X20.713200Y6.941500
G1X20.609000Y6.871800
G1X20.606800Y6.870400
G1X20.516300Y6.779900
G1X20.487300Y6.736300
G1X20.445100Y6.673400
G1X20.411000Y6.590700
G1X20.396200Y6.555200
G1X20.371200Y6.429600
G1X20.371200Y6.301500
G1X20.371200Y6.301400
G1X20.394800Y6.183100
G1X20.396200Y6.175900
G1X20.397600Y6.172500
G1X20.445200Y6.057600
G1X20.514900Y5.953400
G1X20.516300Y5.951200
G1X20.606800Y5.860700
G1X20.650400Y5.831700
G1X20.713300Y5.789500
G1X21.144900Y5.610900
G1X21.502300Y5.253500
G1X21.553400Y5.130000
G1X21.553500Y5.129300
G1X21.602600Y5.011100
G1X21.659200Y4.926600
G1X21.673500Y4.905100
G1X21.673600Y4.905000
G1X21.673800Y4.904700
G1X21.718500Y4.860200
G1X21.764000Y4.814600
G1X21.764300Y4.814400
G1X21.764500Y4.814200
G1X21.805800Y4.786800
G1X21.870400Y4.743500
G1X21.870800Y4.743400
G1X21.871000Y4.743200
G1X21.930500Y4.718600
G1X21.988700Y4.694500
G1X21.989000Y4.694500
G1X21.989300Y4.694300
G1X22.089100Y4.674500
G1X22.114300Y4.669500
G1X22.114400Y4.669500
G1X22.114900Y4.669400
G1X22.178200Y4.669500
G1X22.242400Y4.669500
G1X22.242900Y4.669600
G1X22.243000Y4.669600
G1X22.368500Y4.694600
G1X22.377600Y4.698400
G1X22.882600Y4.698400
G1X23.349200Y4.505100
G1X23.506600Y4.347700
G1X23.506600Y4.347600
G1X23.591000Y4.263200
G1X23.597000Y4.257200
G1X23.597100Y4.257100
G1X23.631000Y4.234500
G1X23.703500Y4.186000
G1X23.821700Y4.137000
G1X23.947300Y4.112000
G1X24.075400Y4.112000
G1X24.075500Y4.112000
G1X24.098900Y4.116700
G1X24.201000Y4.136900
G1X24.319200Y4.185900
G1X24.425700Y4.257000
G1X24.516200Y4.347500
G1X24.683500Y4.514900
G1X25.150200Y4.708200

G0Z0.500
G0X45.356600Y4.257800
G1Z-0.100 f25
G1X45.218300Y4.396200 f200
G1X45.111700Y4.473500
G1X45.337800Y4.376600
G1X45.356600Y4.257800

G0Z0.500
G0X47.002400Y7.045200
G1Z-0.100 f25
G1X46.941500Y6.925800 f200
G1X46.880500Y6.738100
G1X46.849600Y6.543200
G1X46.849600Y6.345700
G1X46.880500Y6.150800
G1X46.941500Y5.963100
G1X47.031100Y5.787200
G1X47.110800Y5.677500
G1X47.062800Y5.702000
G1X46.875100Y5.763000
G1X46.680200Y5.793900
G1X46.482700Y5.793900
G1X46.287800Y5.763000
G1X46.100100Y5.702000
G1X45.924200Y5.612400
G1X45.861100Y5.566500
G1X43.957900Y6.382200
G1X44.114300Y7.045200
G1X47.002400Y7.045200

G0Z0.500
G0X46.016800Y5.680600
G1Z-0.100 f25
G1X46.069000Y5.702300 f200
G1X46.128000Y5.725800
G1X46.131700Y5.728200
G1X46.194300Y5.754200
G1X46.194500Y5.754200
G1X46.312700Y5.803200
G1X46.419200Y5.874300
G1X46.509700Y5.964800
G1X46.512500Y5.969100
G1X46.580800Y6.071200
G1X46.626900Y6.182700
G1X46.629800Y6.189500
G1X46.654800Y6.315100
G1X46.654800Y6.443200
G1X46.629800Y6.568800
G1X46.580800Y6.687000
G1X46.509700Y6.793500
G1X46.419200Y6.884000
G1X46.414900Y6.886800
G1X46.312800Y6.955100
G1X46.201300Y7.001200
G1X46.194500Y7.004100
G1X46.068900Y7.029100
G1X45.659100Y7.029100
G1X45.599400Y7.029800
G1X45.595700Y7.029100
G1X45.591400Y7.029100
G1X45.531700Y7.017200
G1X45.473500Y7.006400
G1X45.469700Y7.004800
G1X45.465800Y7.004100
G1X45.414200Y6.982700
G1X45.354600Y6.958900
G1X45.350800Y6.956400
G1X45.347600Y6.955100
G1X45.303500Y6.925600
G1X45.247300Y6.889100
G1X45.244200Y6.886000
G1X45.241100Y6.884000
G1X45.199300Y6.842100
G1X45.155700Y6.799600
G1X45.153600Y6.796400
G1X45.150600Y6.793500
G1X45.117900Y6.744400
G1X45.083300Y6.694100
G1X45.081700Y6.690100
G1X45.079500Y6.687000
G1X45.058000Y6.634900
G1X45.032800Y6.576400
G1X45.032000Y6.572200
G1X45.030500Y6.568800
G1X45.019600Y6.513900
G1X45.006300Y6.451200
G1X45.006300Y6.446900
G1X45.005500Y6.443200
G1X45.005500Y6.382800
G1X45.004800Y6.323100
G1X45.005500Y6.319400
G1X45.005500Y6.315100
G1X45.017400Y6.255400
G1X45.028200Y6.197200
G1X45.029800Y6.193400
G1X45.030500Y6.189500
G1X45.051900Y6.137900
G1X45.075700Y6.078300
G1X45.078200Y6.074500
G1X45.079500Y6.071300
G1X45.109000Y6.027200
G1X45.145500Y5.971000
G1X45.148600Y5.967900
G1X45.150600Y5.964800
G1X45.192500Y5.923000
G1X45.235000Y5.879400
G1X45.238200Y5.877300
G1X45.241100Y5.874300
G1X45.290200Y5.841600
G1X45.340500Y5.807000
G1X45.344500Y5.805400
G1X45.347600Y5.803200
G1X45.400700Y5.781300
G1X45.516000Y5.731800
G1X45.519200Y5.729600
G1X45.571900Y5.707900
G1X45.629900Y5.682900
G1X45.634100Y5.682100
G1X45.637500Y5.680600
G1X45.692300Y5.669800
G1X45.755100Y5.656400
G1X45.759400Y5.656400
G1X45.763100Y5.655600
G1X45.823300Y5.655600
G1X45.883200Y5.654900
G1X45.886900Y5.655600
G1X45.891200Y5.655600
G1X45.950800Y5.667500
G1X46.009100Y5.678300
G1X46.012900Y5.679900
G1X46.016800Y5.680600

G0Z0.500
G0X96.533700Y9.955900
G1Z-0.100 f25
G1X96.374000Y10.071900 f200
G1X96.198100Y10.161500
G1X96.010400Y10.222500
G1X95.815500Y10.253400
G1X95.618000Y10.253400
G1X95.423100Y10.222500
G1X95.235400Y10.161500
G1X95.059500Y10.071900
G1X94.899800Y9.955900
G1X94.760300Y9.816400
G1X94.644300Y9.656700
G1X94.554700Y9.480800
G1X94.493700Y9.293100
G1X94.462800Y9.098200
G1X94.462800Y8.900700
G1X94.493700Y8.705800
G1X94.554700Y8.518100
G1X94.644300Y8.342200
G1X94.760300Y8.182500
G1X94.899800Y8.043000
G1X95.059500Y7.927000
G1X95.235400Y7.837400
G1X95.423100Y7.776400
G1X95.618000Y7.745500
G1X95.815500Y7.745500
G1X96.010400Y7.776400
G1X96.198100Y7.837400
G1X96.374000Y7.927000
G1X96.533700Y8.043000
G1X96.550000Y8.059400
G1X96.550000Y7.332700
G1X96.073800Y7.237500
G1X96.056600Y7.261300
G1X95.917100Y7.400800
G1X95.757400Y7.516800
G1X95.581500Y7.606400
G1X95.393800Y7.667400
G1X95.198900Y7.698300
G1X95.001400Y7.698300
G1X94.806500Y7.667400
G1X94.618800Y7.606400
G1X94.442900Y7.516800
G1X94.283200Y7.400800
G1X94.143700Y7.261300
G1X94.027700Y7.101600
G1X93.938100Y6.925700
G1X93.877100Y6.738000
G1X93.846200Y6.543100
G1X93.846200Y6.345600
G1X93.877100Y6.150700
G1X93.938100Y5.963000
G1X94.027700Y5.787100
G1X94.107500Y5.677400
G1X94.059400Y5.701900
G1X93.871700Y5.762900
G1X93.676800Y5.793800
G1X93.479300Y5.793800
G1X93.284400Y5.762900
G1X93.096700Y5.701900
G1X92.920800Y5.612300
G1X92.761100Y5.496300
G1X92.621600Y5.356800
G1X92.505600Y5.197100
G1X92.416000Y5.021200
G1X92.355000Y4.833500
G1X92.324100Y4.638600
G1X92.324100Y4.441100
G1X92.353200Y4.257700
G1X92.214900Y4.396100
G1X92.055200Y4.512100
G1X91.879300Y4.601700
G1X91.691600Y4.662700
G1X91.496700Y4.693600
G1X91.299200Y4.693600
G1X91.104300Y4.662700
G1X90.916600Y4.601700
G1X90.740700Y4.512100
G1X90.581000Y4.396100
G1X90.441500Y4.256600
G1X90.325500Y4.096900
G1X90.235900Y3.921000
G1X90.174900Y3.733300
G1X90.144000Y3.538400
G1X90.144000Y3.340900
G1X90.174900Y3.146000
G1X90.235900Y2.958300
G1X90.325500Y2.782400
G1X90.421800Y2.649900
G1X89.608200Y2.649900
G1X89.697400Y2.772600
G1X89.787000Y2.948500
G1X89.848000Y3.136200
G1X89.878900Y3.331100
G1X89.878900Y3.528600
G1X89.848000Y3.723500
G1X89.787000Y3.911200
G1X89.697400Y4.087100
G1X89.581400Y4.246800
G1X89.441900Y4.386300
G1X89.282200Y4.502300
G1X89.106300Y4.591900
G1X88.918600Y4.652900
G1X88.723700Y4.683800
G1X88.526200Y4.683800
G1X88.331300Y4.652900
G1X88.143600Y4.591900
G1X87.967700Y4.502300
G1X87.808000Y4.386300
G1X87.668500Y4.246800
G1X87.626100Y4.188400
G1X87.643600Y4.242000
G1X87.674500Y4.436900
G1X87.674500Y4.634400
G1X87.643600Y4.829300
G1X87.582600Y5.017000
G1X87.493000Y5.192900
G1X87.377000Y5.352600
G1X87.237500Y5.492100
G1X87.077800Y5.608100
G1X86.901900Y5.697700
G1X86.714200Y5.758700
G1X86.519300Y5.789600
G1X86.321800Y5.789600
G1X86.126900Y5.758700
G1X85.939200Y5.697700
G1X85.891100Y5.673100
G1X85.964900Y5.774700
G1X86.054500Y5.950600
G1X86.115500Y6.138300
G1X86.139800Y6.291900
G1X92.275600Y7.271700
G1X92.287900Y7.271700
G1X92.337700Y7.281600
G1X92.389600Y7.289900
G1X92.401400Y7.294300
G1X92.413500Y7.296700
G1X92.460700Y7.316300
G1X92.509600Y7.334400
G1X92.520300Y7.341000
G1X92.531700Y7.345700
G1X92.574200Y7.374100
G1X92.618700Y7.401400
G1X92.627900Y7.410000
G1X92.638200Y7.416800
G1X92.674500Y7.453200
G1X92.712600Y7.488400
G1X92.719900Y7.498600
G1X92.728700Y7.507300
G1X92.757100Y7.550000
G1X92.787700Y7.592100
G1X92.792900Y7.603600
G1X92.799800Y7.613800
G1X92.819100Y7.660400
G1X92.841200Y7.708400
G1X92.844100Y7.720800
G1X92.848800Y7.732000
G1X92.858800Y7.782300
G1X92.870900Y7.833000
G1X92.871300Y7.845500
G1X92.873800Y7.857600
G1X92.873800Y7.908800
G1X92.875800Y7.961000
G1X92.873800Y7.973500
G1X92.873800Y12.409400
G1X92.911700Y12.381800
G1X93.087600Y12.292200
G1X93.275300Y12.231200
G1X93.470200Y12.200300
G1X93.667700Y12.200300
G1X93.862600Y12.231200
G1X94.050300Y12.292200
G1X94.103500Y12.319300
G1X94.048200Y12.243300
G1X93.958600Y12.067400
G1X93.897600Y11.879700
G1X93.866700Y11.684800
G1X93.866700Y11.487300
G1X93.897600Y11.292400
G1X93.958600Y11.104700
G1X94.048200Y10.928800
G1X94.164200Y10.769100
G1X94.303700Y10.629600
G1X94.463400Y10.513600
G1X94.639300Y10.424000
G1X94.827000Y10.363000
G1X95.021900Y10.332100
G1X95.219400Y10.332100
G1X95.414300Y10.363000
G1X95.602000Y10.424000
G1X95.777900Y10.513600
G1X95.937600Y10.629600
G1X96.077100Y10.769100
G1X96.193100Y10.928800
G1X96.282700Y11.104700
G1X96.343700Y11.292400
G1X96.374600Y11.487300
G1X96.374600Y11.684800
G1X96.343700Y11.879700
G1X96.282700Y12.067400
G1X96.193100Y12.243300
G1X96.077100Y12.403000
G1X95.937600Y12.542500
G1X95.777900Y12.658500
G1X95.602000Y12.748100
G1X95.414300Y12.809100
G1X95.219400Y12.840000
G1X95.021900Y12.840000
G1X94.827000Y12.809100
G1X94.639300Y12.748100
G1X94.586100Y12.721000
G1X94.641400Y12.797000
G1X94.731000Y12.972900
G1X94.792000Y13.160600
G1X94.822900Y13.355500
G1X94.822900Y13.553000
G1X94.792000Y13.747900
G1X94.731000Y13.935600
G1X94.641400Y14.111500
G1X94.525400Y14.271200
G1X94.385900Y14.410700
G1X94.226200Y14.526700
G1X94.050300Y14.616300
G1X93.862600Y14.677300
G1X93.667700Y14.708200
G1X93.470200Y14.708200
G1X93.275300Y14.677300
G1X93.087600Y14.616300
G1X92.911700Y14.526700
G1X92.873800Y14.499100
G1X92.873800Y19.453100
G1X93.467700Y22.246000
G1X93.589300Y22.246000
G1X94.323900Y22.980600
G1X94.323900Y24.019300
G1X93.589300Y24.753900
G1X92.550600Y24.753900
G1X91.816000Y24.019300
G1X91.816000Y22.980600
G1X92.211000Y22.585600
G1X91.600500Y19.715100
G1X91.598900Y19.711300
G1X91.587500Y19.654000
G1X91.574800Y19.594300
G1X91.574800Y19.589900
G1X91.573900Y19.585700
G1X91.573900Y19.526700
G1X91.573100Y19.466200
G1X91.573900Y19.461900
G1X91.573900Y8.476000
G1X85.535300Y7.511700
G1X85.373800Y7.594000
G1X85.186100Y7.655000
G1X84.991200Y7.685900
G1X84.793700Y7.685900
G1X84.598800Y7.655000
G1X84.411100Y7.594000
G1X84.235200Y7.504400
G1X84.075500Y7.388400
G1X83.936000Y7.248900
G1X83.820000Y7.089200
G1X83.730400Y6.913300
G1X83.669400Y6.725600
G1X83.641200Y6.547500
G1X83.635200Y7.900800
G1X83.806900Y7.813300
G1X83.994600Y7.752300
G1X84.189500Y7.721400
G1X84.387000Y7.721400
G1X84.581900Y7.752300
G1X84.769600Y7.813300
G1X84.945500Y7.902900
G1X85.105200Y8.018900
G1X85.244700Y8.158400
G1X85.360700Y8.318100
G1X85.450300Y8.494000
G1X85.511300Y8.681700
G1X85.542200Y8.876600
G1X85.542200Y9.074100
G1X85.511300Y9.269000
G1X85.450300Y9.456700
G1X85.360700Y9.632600
G1X85.244700Y9.792300
G1X85.105200Y9.931800
G1X84.945500Y10.047800
G1X84.769600Y10.137400
G1X84.581900Y10.198400
G1X84.387000Y10.229300
G1X84.189500Y10.229300
G1X83.994600Y10.198400
G1X83.907000Y10.169900
G1X84.001300Y10.655900
G1X84.065000Y10.592100
G1X84.224700Y10.476100
G1X84.400600Y10.386500
G1X84.588300Y10.325500
G1X84.783200Y10.294600
G1X84.980700Y10.294600
G1X85.175600Y10.325500
G1X85.363300Y10.386500
G1X85.539200Y10.476100
G1X85.698900Y10.592100
G1X85.838400Y10.731600
G1X85.954400Y10.891300
G1X86.044000Y11.067200
G1X86.105000Y11.254900
