(This GCode generated with outlines_gcode_excel_mirrored.ulp program)
(running under Eagle CAD.)
(Use with mechanical etching/engraving bits, such as the)
(Think&Tinker Mechanical Etching Bit with 60-degree tip angle)
(X/Y/Z home should be at lower left corner of the board, with the tip just touching)
(C:/Users/Owner/Documents/eagle/nixie_neon_colon/untitledpattern_bot_0p3mm.nc layer 16)

(mm, Absolute mode, lift cutter above work, rapid to X/Y home, turn spindle on.)
G90
G0Z0.500
G0X0Y0
M03

(Begin)
G0Z0.500
G0X0.905900Y2.148900
G1Z-0.100 f25
G1X1.634000Y2.148900 f200
G1X1.695300Y2.087500
G1X2.992400Y3.384600
G1X2.931000Y3.445900
G1X2.931000Y4.174000
G1X3.445900Y4.688900
G1X4.174000Y4.688900
G1X4.688900Y4.174000
G1X4.688900Y3.445900
G1X4.431000Y3.188100
G1X5.251400Y1.547300
G1X8.011000Y1.547300
G1X8.011000Y1.634000
G1X8.525900Y2.148900
G1X9.254000Y2.148900
G1X9.768900Y1.634000
G1X9.768900Y0.905900
G1X9.254000Y0.391000
G1X8.525900Y0.391000
G1X8.011000Y0.905900
G1X8.011000Y0.992600
G1X5.108100Y0.992600
G1X5.099800Y0.990900
G1X5.071600Y0.992600
G1X5.043400Y0.992600
G1X5.035300Y0.994800
G1X5.026800Y0.995300
G1X5.000200Y1.004200
G1X4.972900Y1.011500
G1X4.965600Y1.015800
G1X4.957600Y1.018400
G1X4.934300Y1.033800
G1X4.909600Y1.048000
G1X4.903700Y1.054000
G1X4.896600Y1.058600
G1X4.877900Y1.079800
G1X4.858000Y1.099600
G1X4.853800Y1.106900
G1X4.848200Y1.113200
G1X4.835400Y1.138800
G1X4.821500Y1.162900
G1X4.819400Y1.170900
G1X3.939300Y2.931000
G1X3.445900Y2.931000
G1X3.384600Y2.992400
G1X2.087500Y1.695300
G1X2.148900Y1.634000
G1X2.148900Y0.905900
G1X1.634000Y0.391000
G1X0.905900Y0.391000
G1X0.391000Y0.905900
G1X0.391000Y1.634000
G1X0.905900Y2.148900

G0Z0.500
G0X22.135900Y4.379900
G1Z-0.100 f25
G1X22.650800Y3.865000 f200
G1X22.650800Y3.136900
G1X22.135900Y2.622000
G1X21.407800Y2.622000
G1X20.892900Y3.136900
G1X20.892900Y3.865000
G1X21.323800Y4.295800
G1X21.342200Y5.091100
G1X14.135500Y5.091100
G1X12.928000Y3.650300
G1X12.921900Y3.639600
G1X12.904600Y3.622400
G1X12.889100Y3.603800
G1X12.879000Y3.596800
G1X12.870300Y3.588000
G1X12.849100Y3.575800
G1X12.829300Y3.561900
G1X12.817700Y3.557700
G1X12.807000Y3.551500
G1X12.783400Y3.545200
G1X12.760700Y3.536900
G1X12.748500Y3.535900
G1X12.736500Y3.532600
G1X12.711800Y3.532600
G1X12.687900Y3.530500
G1X12.676000Y3.532600
G1X12.308900Y3.532600
G1X12.308900Y3.445900
G1X11.794000Y2.931000
G1X11.065900Y2.931000
G1X10.551000Y3.445900
G1X10.551000Y4.174000
G1X11.065900Y4.688900
G1X11.794000Y4.688900
G1X12.308900Y4.174000
G1X12.308900Y4.087300
G1X12.570500Y4.087300
G1X13.778000Y5.528000
G1X13.784100Y5.538800
G1X13.801400Y5.556000
G1X13.816900Y5.574600
G1X13.827000Y5.581600
G1X13.835700Y5.590400
G1X13.856900Y5.602600
G1X13.876700Y5.616500
G1X13.888300Y5.620700
G1X13.899000Y5.626900
G1X13.922700Y5.633200
G1X13.945300Y5.641500
G1X13.957500Y5.642500
G1X13.969500Y5.645800
G1X13.994200Y5.645800
G1X14.018100Y5.647900
G1X14.030000Y5.645800
G1X21.592700Y5.645800
G1X21.595900Y5.646600
G1X21.630400Y5.645800
G1X21.662600Y5.645800
G1X21.665600Y5.644900
G1X21.669000Y5.644900
G1X21.702500Y5.635100
G1X21.733100Y5.626900
G1X21.735700Y5.625400
G1X21.739100Y5.624400
G1X21.768800Y5.606300
G1X21.796400Y5.590400
G1X21.798600Y5.588100
G1X21.801500Y5.586400
G1X21.824600Y5.562100
G1X21.848000Y5.538800
G1X21.849600Y5.535900
G1X21.851900Y5.533600
G1X21.868000Y5.504100
G1X21.884500Y5.475500
G1X21.885300Y5.472300
G1X21.886900Y5.469500
G1X21.894900Y5.436500
G1X21.903400Y5.405000
G1X21.903400Y5.401800
G1X21.904200Y5.398600
G1X21.903400Y5.364000
G1X21.903400Y5.331900
G1X21.902600Y5.328900
G1X21.880600Y4.379900
G1X22.135900Y4.379900

G0Z0.500
G0X18.867800Y4.379900
G1Z-0.100 f25
G1X19.595900Y4.379900 f200
G1X20.110800Y3.865000
G1X20.110800Y3.136900
G1X19.595900Y2.622000
G1X18.867800Y2.622000
G1X18.352900Y3.136900
G1X18.352900Y3.278600
G1X15.077200Y3.307200
G1X13.869600Y1.139200
G1X13.821500Y1.089500
G1X13.819000Y1.086900
G1X13.818800Y1.086700
G1X13.767600Y1.056200
G1X13.756300Y1.049400
G1X13.756200Y1.049400
G1X13.756100Y1.049300
G1X13.725300Y1.040500
G1X13.686100Y1.029300
G1X11.433100Y0.992600
G1X11.399900Y0.991800
G1X11.399100Y0.992000
G1X11.397900Y0.992000
G1X11.358900Y1.001800
G1X11.329000Y1.009100
G1X11.328300Y1.009500
G1X11.327100Y1.009800
G1X11.294600Y1.027900
G1X11.264900Y1.044100
G1X11.264200Y1.044900
G1X11.263300Y1.045300
G1X11.235000Y1.072700
G1X8.970300Y3.233500
G1X5.015600Y5.233000
G1X3.059100Y5.206700
G1X2.087500Y4.235300
G1X2.148900Y4.174000
G1X2.148900Y3.445900
G1X1.634000Y2.931000
G1X0.905900Y2.931000
G1X0.391000Y3.445900
G1X0.391000Y4.174000
G1X0.905900Y4.688900
G1X1.634000Y4.688900
G1X1.695300Y4.627500
G1X2.745900Y5.678000
G1X2.769400Y5.702200
G1X2.770900Y5.703100
G1X2.772300Y5.704500
G1X2.803700Y5.722600
G1X2.832100Y5.739500
G1X2.833900Y5.740000
G1X2.835600Y5.741000
G1X2.869500Y5.750100
G1X2.902400Y5.759400
G1X2.904400Y5.759400
G1X2.906100Y5.759900
G1X2.939600Y5.759900
G1X5.071700Y5.788500
G1X5.101100Y5.790200
G1X5.106700Y5.789000
G1X5.112800Y5.789100
G1X5.143500Y5.781300
G1X5.172500Y5.775200
G1X5.177500Y5.772600
G1X5.183600Y5.771100
G1X5.211900Y5.755200
G1X9.228800Y3.724300
G1X9.233000Y3.723300
G1X9.259800Y3.708600
G1X9.289800Y3.693500
G1X9.293200Y3.690400
G1X9.297100Y3.688300
G1X9.319800Y3.666600
G1X9.344200Y3.644800
G1X9.346700Y3.640900
G1X11.539000Y1.549100
G1X13.480600Y1.580800
G1X14.656600Y3.691800
G1X14.657500Y3.695300
G1X14.675000Y3.724900
G1X14.690500Y3.752800
G1X14.692900Y3.755200
G1X14.694600Y3.758200
G1X14.717600Y3.780700
G1X14.741300Y3.805300
G1X14.744500Y3.807100
G1X14.746700Y3.809400
G1X14.775000Y3.825400
G1X14.804000Y3.842700
G1X14.807300Y3.843600
G1X14.810200Y3.845300
G1X14.842300Y3.853600
G1X14.874200Y3.862700
G1X14.877700Y3.862700
G1X14.880900Y3.863600
G1X14.914600Y3.863300
G1X14.947300Y3.863800
G1X14.950500Y3.863000
G1X18.352900Y3.833300
G1X18.352900Y3.865000
G1X18.867800Y4.379900

G0Z0.500
G0X26.593600Y4.378000
G1Z-0.100 f25
G1X27.108500Y3.863100 f200
G1X27.108500Y3.135000
G1X26.593600Y2.620100
G1X25.865500Y2.620100
G1X25.350600Y3.135000
G1X25.350600Y3.683500
G1X25.348700Y3.686300
G1X25.345800Y3.695100
G1X25.341200Y3.702900
G1X25.334100Y3.729600
G1X25.325300Y3.755400
G1X25.324700Y3.764500
G1X25.322300Y3.773400
G1X25.322300Y3.801000
G1X25.320500Y3.828400
G1X25.322300Y3.837400
G1X25.322300Y6.359400
G1X2.554300Y6.384700
G1X2.148900Y6.283500
G1X2.148900Y5.985900
G1X1.634000Y5.471000
G1X0.905900Y5.471000
G1X0.391000Y5.985900
G1X0.391000Y6.714000
G1X0.905900Y7.228900
G1X1.634000Y7.228900
G1X2.035800Y6.827000
G1X2.453500Y6.931300
G1X2.484300Y6.939500
G1X2.486400Y6.939500
G1X2.488800Y6.940100
G1X2.525000Y6.939400
G1X25.635500Y6.913700
G1X25.636200Y6.913700
G1X25.636500Y6.913700
G1X25.692400Y6.898600
G1X25.706700Y6.894800
G1X25.706700Y6.894700
G1X25.707000Y6.894700
G1X25.735700Y6.878000
G1X25.770000Y6.858300
G1X25.821600Y6.806700
G1X25.821700Y6.806400
G1X25.821800Y6.806400
G1X25.831100Y6.790100
G1X25.858100Y6.743400
G1X25.858100Y6.743100
G1X25.858200Y6.743100
G1X25.861600Y6.730100
G1X25.877000Y6.672900
G1X25.877000Y4.378000
G1X26.593600Y4.378000

G0Z0.500
G0X16.145900Y2.148900
G1Z-0.100 f25
G1X16.874000Y2.148900 f200
G1X17.388900Y1.634000
G1X17.388900Y1.544900
G1X29.105200Y1.513500
G1X29.105200Y2.620100
G1X28.405500Y2.620100
G1X27.890600Y3.135000
G1X27.890600Y3.863100
G1X28.405500Y4.378000
G1X29.133600Y4.378000
G1X29.473300Y4.038200
G1X29.489600Y4.033900
G1X29.501700Y4.026800
G1X29.514900Y4.021900
G1X29.533100Y4.008700
G1X29.552900Y3.997400
G1X29.562800Y3.987400
G1X29.574200Y3.979300
G1X29.588500Y3.961700
G1X29.604500Y3.945800
G1X29.611400Y3.933700
G1X29.620400Y3.922800
G1X29.629800Y3.901800
G1X29.641000Y3.882500
G1X29.644600Y3.869000
G1X29.646300Y3.865200
G1X29.648500Y3.863100
G1X29.648500Y3.860400
G1X29.650400Y3.856200
G1X29.654100Y3.833600
G1X29.659900Y3.812000
G1X29.659900Y3.798100
G1X29.662200Y3.784100
G1X29.659900Y3.761200
G1X29.659900Y1.271600
G1X29.660000Y1.271300
G1X29.659900Y1.235100
G1X29.659900Y1.198900
G1X29.659800Y1.198600
G1X29.659800Y1.198100
G1X29.650200Y1.163000
G1X29.641000Y1.128400
G1X29.640800Y1.128100
G1X29.640700Y1.127700
G1X29.626100Y1.102600
G1X29.604500Y1.065100
G1X29.604100Y1.064800
G1X29.604000Y1.064500
G1X29.578500Y1.039200
G1X29.552900Y1.013500
G1X29.552600Y1.013400
G1X29.552300Y1.013000
G1X29.514700Y0.991500
G1X29.489600Y0.977000
G1X29.489200Y0.976900
G1X29.488900Y0.976700
G1X29.449700Y0.966300
G1X29.419100Y0.958100
G1X29.418700Y0.958100
G1X29.418400Y0.958000
G1X29.381500Y0.958100
G1X29.346000Y0.958100
G1X29.345700Y0.958200
G1X17.388900Y0.990300
G1X17.388900Y0.905900
G1X16.874000Y0.391000
G1X16.145900Y0.391000
G1X15.631000Y0.905900
G1X15.631000Y1.634000
G1X16.145900Y2.148900

(Finished.  Raise cutter, turn spindle off, reset.)
G0Z0.500
G0X0Y0
M05
M30
